; generated by Slic3r 1.2.9 on 2018-11-30 at 21:49:35

; external perimeters extrusion width = 0.40mm
; perimeters extrusion width = 0.67mm
; infill extrusion width = 0.67mm
; solid infill extrusion width = 0.67mm
; top infill extrusion width = 0.67mm

M107
M140 S0 ;heated bed heater off (if you have it)
G21 ;metric values
G90 ;absolute positioning
M107 ;start with the fan off
G29
M140 S0 ;heated bed heater off (if you have it)
M104 S190 ; set extruder temp
M109 S190 ; wait for extruder temp
M140 S0 ;heated bed heater off (if you have it)
G1 Z15.0 F{travel_speed} ;move the platform down 15mm
G1 F{travel_speed}
;Put printing message on LCD screen
M117 Printing...
G21 ; set units to millimeters
G90 ; use absolute coordinates
M82 ; use absolute distances for extrusion
G92 E0
G1 E-4.50000 F2400.00000
G1 Z0.350 F4200.000
G92 E0
G1 X33.523 Y0.428 F4200.000
G1 Z0.350 F4200.000
G1 X33.612 Y0.177 E4.52179 F1800.000
G1 X36.757 Y0.191 E4.77921
G1 X35.842 Y1.033 E4.88101
G1 X35.500 Y1.455 E4.92543
G1 X35.091 Y2.109 E4.98859
G1 X34.857 Y1.763 E5.02275
G1 X34.170 Y0.943 E5.11032
G1 X33.570 Y0.465 E5.17307
G1 X33.744 Y0.278 F4200.000
G1 X35.267 Y0.558 F4200.000
G1 X35.566 Y0.858 E5.20772 F1800.000
G1 E0.70772 F2400.00000
G92 E0
G1 X53.196 Y5.856 F4200.000
G1 E4.50000 F2400.00000
G1 X53.338 Y5.560 E4.52689 F1800.000
G1 X53.941 Y5.758 E4.57882
G1 X54.415 Y5.794 E4.61770
G1 X55.121 Y5.732 E4.67573
G1 X55.619 Y5.563 E4.71878
G1 X55.751 Y5.893 E4.74787
G1 X55.221 Y6.138 E4.79566
G1 X54.870 Y6.217 E4.82509
G1 X54.468 Y6.243 E4.85810
G1 X53.877 Y6.175 E4.90678
G1 X53.431 Y6.011 E4.94562
G1 X53.246 Y5.889 E4.96379
G1 E0.46379 F2400.00000
G92 E0
G1 X52.729 Y1.862 F4200.000
G1 E4.50000 F2400.00000
G1 X52.569 Y2.297 E4.53786 F1800.000
G1 X52.501 Y2.720 E4.57296
G1 X52.501 Y3.342 E4.62387
G1 X52.588 Y3.878 E4.66829
G1 X52.777 Y4.267 E4.70367
G1 X53.015 Y4.571 E4.73530
G1 X53.307 Y4.820 E4.76668
G1 X53.625 Y4.996 E4.79645
G1 X54.064 Y5.140 E4.83427
G1 X54.411 Y5.167 E4.86275
G1 X54.991 Y5.116 E4.91041
G1 X55.428 Y4.968 E4.94811
G1 X55.768 Y4.748 E4.98132
G1 X56.025 Y4.483 E5.01149
G1 X56.236 Y4.153 E5.04356
G1 X56.460 Y3.718 E5.08359
G1 X56.494 Y0.486 E5.34811
G1 X57.469 Y0.507 E5.42798
G1 X57.548 Y1.873 E5.53998
G1 X57.522 Y3.497 E5.67293
G1 X57.316 Y4.652 E5.76890
G1 X56.978 Y5.434 E5.83865
G1 X56.767 Y5.745 E5.86938
G1 X56.482 Y6.067 E5.90461
G1 X55.969 Y6.481 E5.95853
G1 X55.423 Y6.733 E6.00772
G1 X54.959 Y6.838 E6.04662
G1 X54.452 Y6.870 E6.08827
G1 X53.731 Y6.787 E6.14766
G1 X53.149 Y6.572 E6.19843
G1 X52.684 Y6.268 E6.24391
G1 X52.322 Y5.915 E6.28530
G1 X51.997 Y5.474 E6.33008
G1 X51.738 Y4.992 E6.37492
G1 X51.636 Y4.704 E6.39991
G1 X51.536 Y4.327 E6.43184
G1 X51.432 Y3.403 E6.50787
G1 X51.482 Y2.414 E6.58892
G1 X51.674 Y1.460 E6.66860
G1 X52.067 Y0.482 E6.75486
G1 X54.294 Y0.482 E6.93713
G1 X54.294 Y1.862 E7.05013
G1 X52.789 Y1.862 E7.17328
G1 X52.340 Y1.769 F4200.000
G1 X53.981 Y1.172 F4200.000
G1 X52.526 Y1.172 E7.42585 F1800.000
G1 X52.276 Y1.463 E7.49242
G1 X52.060 Y2.184 E7.62293
G1 X51.983 Y2.696 E7.71281
G1 X51.968 Y3.387 E7.83270
G1 X52.068 Y4.080 E7.95415
G1 X52.221 Y4.523 E8.03552
G1 X52.326 Y4.731 E8.07599
G1 X52.581 Y5.105 E8.15448
G1 X52.995 Y5.551 E8.26019
G1 X55.971 Y5.601 F4200.000
G1 X56.376 Y5.103 E8.37150 F1800.000
G1 X56.541 Y4.850 E8.42401
G1 X56.738 Y4.478 E8.49701
G1 X56.968 Y3.803 E8.62082
G1 X56.964 Y3.747 F4200.000
G1 X56.993 Y3.446 E8.67326 F1800.000
G1 X57.014 Y1.884 E8.94432
G1 X57.000 Y1.321 E9.04211
G1 E4.54211 F2400.00000
G92 E0
G1 X14.253 Y4.919 F4200.000
G1 E4.50000 F2400.00000
G1 X13.970 Y5.046 E4.52535 F1800.000
G1 X13.781 Y5.051 E4.54088
G1 X13.477 Y5.019 E4.56589
G1 X13.373 Y4.982 E4.57490
G1 X13.292 Y4.926 E4.58296
G1 X13.134 Y4.735 E4.60325
G1 X13.309 Y4.505 E4.62686
G1 X13.652 Y4.647 E4.65724
G1 X14.178 Y4.616 E4.70035
G1 X14.238 Y4.860 E4.72099
G1 X12.110 Y1.272 F4200.000
G1 X10.932 Y1.072 E4.81875 F1800.000
G1 X10.893 Y0.802 E4.84104
G1 X11.068 Y0.715 E4.85708
G1 X11.342 Y0.701 E4.87949
G1 X11.555 Y0.726 E4.89709
G1 X11.725 Y0.823 E4.91306
G1 X12.071 Y1.226 E4.95657
G1 X11.091 Y1.733 F4200.000
G1 X10.798 Y1.831 E4.98187 F1800.000
G1 X10.552 Y2.094 E5.01138
G1 X10.483 Y2.286 E5.02806
G1 X10.444 Y2.792 E5.06960
G1 X10.439 Y3.499 E5.12743
G1 X10.497 Y5.457 E5.28771
G1 X9.545 Y5.457 E5.36561
G1 X9.476 Y4.407 E5.45167
G1 X9.473 Y3.055 E5.56236
G1 X9.573 Y1.787 E5.66641
G1 X9.747 Y1.275 E5.71066
G1 X10.038 Y0.755 E5.75948
G1 X10.220 Y0.543 E5.78233
G1 X10.380 Y0.401 E5.79985
G1 X10.634 Y0.233 E5.82479
G1 X10.829 Y0.136 E5.84259
G1 X10.960 Y0.095 E5.85378
G1 X11.343 Y0.075 E5.88522
G1 X11.542 Y0.086 E5.90147
G1 X11.736 Y0.125 E5.91773
G1 X11.947 Y0.211 E5.93635
G1 X12.152 Y0.361 E5.95710
G1 X12.358 Y0.601 E5.98298
G1 X12.626 Y1.093 E6.02885
G1 X12.786 Y1.624 E6.07420
G1 X13.159 Y3.268 E6.21219
G1 X13.277 Y3.608 E6.24163
G1 X13.459 Y3.891 E6.26922
G1 X13.758 Y4.015 E6.29567
G1 X14.031 Y3.998 E6.31808
G1 X14.187 Y3.940 E6.33167
G1 X14.322 Y3.846 E6.34517
G1 X14.462 Y3.661 E6.36416
G1 X14.571 Y3.314 E6.39388
G1 X14.619 Y2.905 E6.42764
G1 X14.556 Y0.374 E6.63478
G1 X15.486 Y0.357 E6.71091
G1 X15.564 Y2.033 E6.84823
G1 X15.577 Y3.052 E6.93161
G1 X15.513 Y3.776 E6.99110
G1 X15.297 Y4.509 E7.05363
G1 X15.028 Y5.001 E7.09956
G1 X14.773 Y5.289 E7.13104
G1 X14.457 Y5.512 E7.16268
G1 X14.166 Y5.643 E7.18882
G1 X14.007 Y5.670 E7.20202
G1 X13.756 Y5.676 E7.22257
G1 X13.336 Y5.633 E7.25708
G1 X13.086 Y5.543 E7.27883
G1 X12.890 Y5.409 E7.29826
G1 X12.659 Y5.142 E7.32713
G1 X12.473 Y4.835 E7.35655
G1 X12.321 Y4.442 E7.39096
G1 X12.028 Y3.267 E7.49009
G1 X11.661 Y1.996 E7.59839
G1 X11.383 Y1.782 E7.62704
G1 X11.150 Y1.743 E7.64637
G1 X10.896 Y1.493 F4200.000
G1 X11.001 Y1.417 F4200.000
G1 X10.639 Y1.445 E7.67612 F1800.000
G1 X10.369 Y1.403 E7.69843
G1 X10.126 Y1.784 E7.73548
G1 X10.079 Y1.892 E7.74505
G1 X10.015 Y2.208 E7.77146
G1 X9.957 Y3.073 E7.84244
G1 X9.968 Y4.391 E7.95025
G1 X10.002 Y5.144 E8.01198
G1 E3.51198 F2400.00000
G92 E0
G1 X12.996 Y4.400 F4200.000
G1 E4.50000 F2400.00000
G1 X12.774 Y3.887 E4.59708 F1800.000
G1 X12.635 Y3.432 E4.67969
G1 X12.168 Y1.599 E5.00785
G1 E0.50785 F2400.00000
G92 E0
G1 X15.035 Y0.671 F4200.000
G1 E4.50000 F2400.00000
G1 X15.097 Y2.915 E4.68374 F1800.000
G1 X15.054 Y3.400 E4.72362
G1 X15.001 Y3.679 E4.74681
G1 X14.915 Y3.937 E4.76911
G1 X14.722 Y4.301 E4.80282
G1 X14.579 Y4.248 E4.81532
G1 X14.415 Y4.231 E4.82880
G1 X14.215 Y4.282 E4.84571
M140 S45 ; wait for bed temperature to be reached
G1 Z0.550 F4200.000
G1 E0.34571 F2400.00000
G92 E0
G1 X33.185 Y15.271 F4200.000
G1 E4.50000 F2400.00000
G1 X31.114 Y15.271 E4.59736 F900.000
G1 X31.114 Y13.179 E4.69571
G1 X38.431 Y13.179 E5.03975
G1 X38.431 Y15.271 E5.13810
G1 X35.095 Y15.271 E5.29496
G1 X35.095 Y17.722 E5.41021
G1 X33.185 Y17.722 E5.50004
G1 X33.185 Y15.331 E5.61247
G1 X32.556 Y15.899 F4200.000
G1 X30.486 Y15.899 E5.70982 F900.000
G1 X30.486 Y12.551 E5.86727
G1 X39.059 Y12.551 E6.27039
G1 X39.059 Y15.899 E6.42783
G1 X35.723 Y15.899 E6.58469
G1 X35.723 Y18.350 E6.69994
G1 X32.556 Y18.350 E6.84885
G1 X32.556 Y15.959 E6.96128
G1 E2.46128 F2400.00000
G92 E0
G1 X39.519 Y9.960 F4200.000
G1 E4.50000 F2400.00000
G1 X39.770 Y9.351 E4.53096 F900.000
G1 X39.897 Y9.167 E4.54149
G1 X40.034 Y9.032 E4.55051
G1 X40.225 Y8.901 E4.56144
G1 X40.414 Y8.816 E4.57116
G1 X40.821 Y8.752 E4.59055
G1 X41.793 Y8.720 E4.63627
G1 X42.936 Y8.724 E4.69000
G1 X43.111 Y8.753 E4.69836
G1 X43.217 Y8.861 E4.70545
G1 X43.336 Y9.028 E4.71512
G1 X43.358 Y9.109 E4.71905
G1 X43.368 Y9.285 E4.72733
G1 X43.340 Y9.511 E4.73802
G1 X43.257 Y9.646 E4.74549
G1 X43.076 Y9.825 E4.75746
G1 X39.579 Y9.958 E4.92201
G1 E0.42201 F2400.00000
G92 E0
G1 X30.496 Y9.859 F4200.000
G1 E4.50000 F2400.00000
G1 X24.236 Y9.817 E4.79436 F900.000
G1 X24.121 Y9.725 E4.80129
G1 X24.056 Y9.640 E4.80634
G1 X23.989 Y9.488 E4.81410
G1 X23.966 Y9.292 E4.82340
G1 X23.988 Y9.097 E4.83262
G1 X24.062 Y8.903 E4.84237
G1 X24.138 Y8.798 E4.84849
G1 X24.222 Y8.737 E4.85336
G1 X28.433 Y8.755 E5.05136
G1 X29.164 Y8.820 E5.08587
G1 X29.688 Y8.981 E5.11166
G1 X30.001 Y9.130 E5.12795
G1 X30.225 Y9.321 E5.14177
G1 X30.345 Y9.489 E5.15149
G1 X30.474 Y9.804 E5.16750
G1 X29.857 Y10.483 F4200.000
G1 X24.041 Y10.444 E5.44101 F3600.000
G1 X23.669 Y10.168 E5.46276
G1 X23.511 Y9.961 E5.47500
G1 X23.392 Y9.690 E5.48894
G1 X23.357 Y9.546 E5.49592
G1 X23.334 Y9.284 E5.50827
G1 X23.372 Y8.947 E5.52419
G1 X23.505 Y8.601 E5.54165
G1 X23.666 Y8.380 E5.55451
G1 X24.037 Y8.108 E5.57613
G1 X28.462 Y8.126 E5.78420
G1 X29.285 Y8.200 E5.82305
G1 X29.917 Y8.394 E5.85413
G1 X30.322 Y8.587 E5.87522
G1 X30.522 Y8.731 E5.88680
G1 X30.705 Y8.912 E5.89890
G1 X30.899 Y9.183 E5.91457
G1 X31.066 Y9.591 E5.93530
G1 X31.135 Y9.949 E5.95245
G1 X31.210 Y10.671 E5.98658
G1 X31.282 Y11.922 E6.04552
G1 X38.704 Y11.922 E6.39452
G1 X38.802 Y10.642 E6.45492
G1 X38.980 Y9.619 E6.50374
G1 X39.215 Y9.050 E6.53268
G1 X39.414 Y8.762 E6.54914
G1 X39.632 Y8.546 E6.56356
G1 X39.916 Y8.351 E6.57978
G1 X40.234 Y8.208 E6.59614
G1 X40.762 Y8.126 E6.62129
G1 X41.784 Y8.091 E6.66935
G1 X42.989 Y8.096 E6.72604
G1 X43.365 Y8.159 E6.74393
G1 X43.475 Y8.227 E6.75004
G1 X43.699 Y8.457 E6.76513
G1 X43.880 Y8.708 E6.77971
G1 X43.977 Y8.993 E6.79387
G1 X43.996 Y9.168 E6.80210
G1 X43.969 Y9.595 E6.82224
G1 X43.867 Y9.868 E6.83596
G1 X43.646 Y10.157 E6.85303
G1 X43.430 Y10.351 E6.86671
G1 X43.329 Y10.405 E6.87211
G1 X43.128 Y10.452 E6.88181
G1 X39.687 Y10.582 E7.04368
G1 X39.687 Y16.527 E7.32320
G1 X36.352 Y16.527 E7.48006
G1 X36.352 Y18.978 E7.59531
G1 X31.928 Y18.978 E7.80331
G1 X31.928 Y16.527 E7.91856
G1 X29.857 Y16.527 E8.01592
G1 X29.857 Y10.543 E8.29729
G1 X29.365 Y10.973 F4200.000
G1 X23.901 Y10.935 E8.55420 F3600.000
G1 X23.651 Y10.783 E8.56797
G1 X23.315 Y10.516 E8.58817
G1 X23.084 Y10.214 E8.60604
G1 X22.923 Y9.848 E8.62484
G1 X22.869 Y9.625 E8.63562
G1 X22.839 Y9.277 E8.65202
G1 X22.890 Y8.830 E8.67320
G1 X23.068 Y8.363 E8.69669
G1 X23.294 Y8.054 E8.71471
G1 X23.447 Y7.915 E8.72442
G1 X23.900 Y7.615 E8.73894 F1500.000
G1 X28.485 Y7.634 E8.86146
G1 X29.380 Y7.714 E8.88548
G1 X30.038 Y7.915 E8.90385
G1 X30.573 Y8.161 E8.93158 F3600.000
G1 X30.841 Y8.353 E8.94705
G1 X31.081 Y8.591 E8.96295
G1 X31.333 Y8.943 E8.98329
G1 X31.540 Y9.450 E9.00904
G1 X31.622 Y9.876 E9.02947
G1 X31.702 Y10.631 E9.06515
G1 X31.747 Y11.430 E9.10276
G1 X38.248 Y11.430 E9.40842
G1 X38.313 Y10.580 E9.44846
G1 X38.504 Y9.481 E9.50095
G1 X38.780 Y8.813 E9.53490
G1 X39.035 Y8.443 E9.55603
G1 X39.317 Y8.165 E9.57468
G1 X39.683 Y7.915 E9.59552
G1 X40.092 Y7.732 E9.60750 F1500.000
G1 X40.716 Y7.634 E9.62436
G1 X41.776 Y7.599 E9.65272
G1 X43.031 Y7.603 E9.68625
G1 X43.512 Y7.684 E9.69929
G1 X43.679 Y7.762 E9.70419
G1 X43.860 Y7.915 E9.71053
G1 X44.078 Y8.139 E9.72524 F3600.000
G1 X44.311 Y8.464 E9.74407
G1 X44.402 Y8.675 E9.75483
G1 X44.463 Y8.903 E9.76594
G1 X44.490 Y9.340 E9.78652
G1 X44.455 Y9.686 E9.80288
G1 X44.397 Y9.897 E9.81315
G1 X44.297 Y10.113 E9.82436
G1 X44.145 Y10.333 E9.83692
G1 X43.999 Y10.502 E9.84745
G1 X43.714 Y10.759 E9.86547
G1 X43.502 Y10.870 E9.87673
G1 X43.193 Y10.942 E9.89163
G1 X40.180 Y11.057 E10.03342
G1 X40.180 Y17.020 E10.31381
G1 X36.844 Y17.020 E10.47066
G1 X36.844 Y19.471 E10.58591
G1 X31.435 Y19.471 E10.84025
G1 X31.435 Y17.020 E10.95550
G1 X29.365 Y17.020 E11.05286
G1 X29.365 Y11.033 E11.33439
G1 E6.83439 F2400.00000
G92 E0
G1 X35.089 Y11.230 F4200.000
G1 E4.50000 F2400.00000
G1 X35.089 Y3.027 E4.88571 F1500.000
G1 X34.987 Y2.706 E4.90151
G1 X35.078 Y1.493 F4200.000
G1 X34.258 Y0.521 E4.96129 F900.000
G1 X35.811 Y0.525 E5.03431
G1 X35.279 Y1.180 E5.07395
G1 X35.110 Y1.443 E5.08866
G1 X35.117 Y2.415 F4200.000
G1 X34.737 Y1.854 E5.10677 F900.000
G1 X34.042 Y1.030 E5.13556
G1 X33.171 Y0.357 E5.16497
G1 X32.966 Y0.252 E5.17114
G1 X33.021 Y0.025 E5.17736
G1 X37.012 Y0.036 E5.28401
G1 X37.072 Y0.252 E5.29000
G1 X36.603 Y0.535 E5.30466
G1 X35.923 Y1.168 E5.32947
G1 X35.679 Y1.469 E5.33983
G1 X35.294 Y2.066 E5.35881
G1 X35.144 Y2.361 E5.36766
G1 X35.022 Y2.026 F4200.000
G1 X32.801 Y0.085 F4200.000
G1 X31.906 Y-0.092 E5.41057 F1500.000
G1 E0.91057 F2400.00000
G92 E0
G1 X29.985 Y9.525 F4200.000
G1 E4.50000 F2400.00000
G1 X29.524 Y9.402 E4.52244 F1200.000
G1 X29.282 Y9.365 E4.53397
G1 X29.282 Y9.365 F4200.000
G1 X29.064 Y9.331 E4.55540 F1200.000
G1 X28.408 Y9.300 E4.61929
G1 X24.283 Y9.277 E5.02038
G1 X30.506 Y10.174 F4200.000
G1 X30.578 Y12.236 E5.22112 F1200.000
G1 X31.444 Y13.739 F4200.000
G1 X31.674 Y13.508 E5.23973 F3600.000
G1 X32.368 Y13.508 E5.27927
G1 X31.444 Y14.433 E5.35379
G1 X31.629 Y14.941 E5.38463
G1 X33.061 Y13.508 E5.50013
G1 X33.755 Y13.508 E5.53966
G1 X32.322 Y14.941 E5.65516
G1 X33.016 Y14.941 E5.69469
G1 X34.449 Y13.508 E5.81020
G1 X35.142 Y13.508 E5.84973
G1 X33.514 Y15.136 E5.98097
G1 X34.766 Y16.659 F4200.000
G1 X34.032 Y17.392 E6.04007 F3600.000
G1 X33.514 Y17.217 E6.07126
G1 X34.766 Y15.966 E6.17214
G1 X34.766 Y15.272 E6.21167
G1 X33.514 Y16.523 E6.31255
G1 X33.514 Y15.830 E6.35208
G1 X35.836 Y13.508 E6.53923
G1 X36.529 Y13.508 E6.57876
G1 X35.096 Y14.941 E6.69426
G1 X35.790 Y14.941 E6.73379
G1 X37.223 Y13.508 E6.84930
G1 X37.916 Y13.508 E6.88883
G1 X36.483 Y14.941 E7.00433
G1 X37.177 Y14.941 E7.04386
G1 X38.101 Y14.017 E7.11838
G1 X38.101 Y14.710 E7.15791
G1 X37.871 Y14.941 E7.17653
G1 X39.185 Y12.236 F4200.000
G1 X39.243 Y10.697 E7.24898 F1200.000
G1 X39.279 Y10.284 E7.26847
G1 X40.202 Y9.474 F4200.000
G1 X40.575 Y9.359 E7.30645 F1200.000
G1 X40.876 Y9.329 E7.33586
G1 X43.054 Y9.275 E7.54770
G1 E3.04770 F2400.00000
G92 E0
G1 X15.131 Y3.857 F4200.000
G1 E4.50000 F2400.00000
G1 X14.969 Y4.399 E4.52660 F900.000
G1 X14.749 Y4.798 E4.54802
G1 X14.543 Y5.032 E4.56270
G1 X14.284 Y5.215 E4.57761
G1 X14.084 Y5.307 E4.58797
G1 X13.996 Y5.325 E4.59216
G1 X13.771 Y5.333 E4.60274
G1 X13.458 Y5.304 E4.61753
G1 X13.237 Y5.231 E4.62847
G1 X13.109 Y5.143 E4.63578
G1 X12.938 Y4.941 E4.64822
G1 X12.745 Y4.603 E4.66652
G1 X12.663 Y4.384 E4.67753
G1 X12.307 Y2.975 E4.74586
G1 X11.959 Y1.797 E4.80359
G1 X11.551 Y1.474 E4.82807
G1 X11.090 Y1.376 E4.85023
G1 X10.599 Y1.537 E4.87452
G1 X10.179 Y1.996 E4.90379
G1 X9.916 Y1.841 E4.91813
G1 X10.070 Y1.387 E4.94067
G1 X10.310 Y0.966 E4.96347
G1 X10.563 Y0.695 E4.98089
G1 X10.809 Y0.529 E4.99484
G1 X11.017 Y0.437 E5.00554
G1 X11.399 Y0.421 E5.02354
G1 X11.633 Y0.454 E5.03466
G1 X11.776 Y0.511 E5.04187
G1 X11.912 Y0.609 E5.04975
G1 X12.073 Y0.795 E5.06132
G1 X12.321 Y1.260 E5.08610
G1 X12.422 Y1.595 E5.10253
G1 X12.828 Y3.361 E5.18776
G1 X12.924 Y3.637 E5.20151
G1 X13.098 Y4.005 E5.22064
G1 X13.414 Y4.271 E5.24007
G1 X13.797 Y4.367 E5.25865
G1 X14.283 Y4.290 E5.28179
G1 X14.572 Y4.086 E5.29845
G1 X14.848 Y3.715 E5.32018
G1 X15.077 Y3.830 E5.33222
G1 X13.819 Y3.865 F4200.000
G1 X14.092 Y3.822 E5.33962 F900.000
G1 X14.224 Y3.729 E5.34393
G1 X14.327 Y3.590 E5.34855
G1 X14.417 Y3.314 E5.35630
G1 X14.468 Y2.899 E5.36747
G1 X14.420 Y0.435 E5.43334
G1 X14.398 Y0.225 E5.43898
G1 X15.621 Y0.207 E5.47165
G1 X15.668 Y0.804 E5.48766
G1 X15.713 Y2.028 E5.52039
G1 X15.726 Y3.094 E5.54889
G1 X15.661 Y3.803 E5.56790
G1 X15.426 Y4.590 E5.58986
G1 X15.155 Y5.084 E5.60491
G1 X14.874 Y5.401 E5.61623
G1 X14.531 Y5.643 E5.62744
G1 X14.238 Y5.778 E5.63607
G1 X14.055 Y5.816 E5.64106
G1 X13.758 Y5.827 E5.64901
G1 X13.356 Y5.789 E5.65979
G1 X13.017 Y5.676 E5.66935
G1 X12.792 Y5.523 E5.67661
G1 X12.534 Y5.226 E5.68714
G1 X12.294 Y4.805 E5.70008
G1 X12.192 Y4.531 E5.70789
G1 X11.832 Y3.105 E5.74719
G1 X11.530 Y2.086 E5.77558
G1 X11.336 Y1.932 E5.78222
G1 X11.118 Y1.886 E5.78818
G1 X10.875 Y1.965 E5.79500
G1 X10.682 Y2.176 E5.80265
G1 X10.631 Y2.321 E5.80676
G1 X10.596 Y2.736 E5.81788
G1 X10.589 Y3.497 E5.83823
G1 X10.631 Y5.233 E5.88462
G1 X10.659 Y5.607 E5.89463
G1 X9.405 Y5.607 E5.92813
G1 X9.326 Y4.413 E5.96011
G1 X9.323 Y3.035 E5.99693
G1 X9.384 Y2.081 E6.02248
G1 X9.423 Y1.760 E6.03110
G1 X9.625 Y1.173 E6.04769
G1 X9.906 Y0.680 E6.06287
G1 X10.136 Y0.415 E6.07223
G1 X10.260 Y0.305 E6.07667
G1 X10.561 Y0.102 E6.08635
G1 X10.773 Y-0.003 E6.09269
G1 X10.931 Y-0.053 E6.09713
G1 X11.404 Y-0.072 E6.10976
G1 X11.774 Y-0.021 E6.11975
