; generated by Slic3r 1.2.9 on 2018-11-26 at 02:06:27

; external perimeters extrusion width = 0.40mm
; perimeters extrusion width = 0.67mm
; infill extrusion width = 0.67mm
; solid infill extrusion width = 0.67mm
; top infill extrusion width = 0.67mm
; support material extrusion width = 0.40mm

M107
M140 S0 ;heated bed heater off (if you have it)
G21 ;metric values
G90 ;absolute positioning
M107 ;start with the fan off
G29
M140 S0 ;heated bed heater off (if you have it)
M104 S190 ; set extruder temp
M109 S190 ; wait for extruder temp
M140 S0 ;heated bed heater off (if you have it)
G1 Z15.0 F{travel_speed} ;move the platform down 15mm
G1 F{travel_speed}
;Put printing message on LCD screen
M117 Printing...
G21 ; set units to millimeters
G90 ; use absolute coordinates
M82 ; use absolute distances for extrusion
G92 E0
G1 Z0.350 F4200.000
G1 E-4.50000 F2400.00000
G92 E0
G1 Z0.350 F4200.000
G1 X53.501 Y63.867 F4200.000
G1 E4.50000 F2400.00000
G1 X53.718 Y63.865 E4.51780 F1800.000
G1 X53.965 Y63.905 E4.53822
G1 X54.185 Y64.008 E4.55816
G1 X54.362 Y64.160 E4.57722
G1 X54.494 Y64.333 E4.59499
G1 X54.586 Y64.545 E4.61394
G1 X54.651 Y64.897 E4.64326
G1 X54.712 Y66.366 E4.76355
G1 X52.550 Y66.366 E4.94044
G1 X52.577 Y64.883 E5.06183
G1 X52.647 Y64.496 E5.09399
G1 X52.748 Y64.300 E5.11205
G1 X52.881 Y64.136 E5.12930
G1 X53.046 Y64.004 E5.14663
G1 X53.269 Y63.911 E5.16644
G1 X53.442 Y63.878 E5.18082
G1 X53.597 Y63.672 F4200.000
G1 X51.773 Y63.639 F4200.000
G1 X52.364 Y62.810 E5.26417 F1800.000
G1 X52.595 Y62.584 E5.29062
G1 X52.852 Y62.416 E5.31574
G1 X53.135 Y62.305 E5.34060
G1 X53.443 Y62.250 E5.36623
G1 X53.784 Y62.255 E5.39413
G1 X53.992 Y62.288 E5.41135
G1 X54.180 Y62.340 E5.42735
G1 X54.492 Y62.485 E5.45548
G1 X54.787 Y62.720 E5.48634
G1 X55.058 Y63.073 E5.52275
G1 X55.367 Y63.780 E5.58592
G1 X55.493 Y64.184 E5.62050
G1 X55.524 Y67.942 E5.92812
G1 X50.188 Y67.942 E6.36487
G1 X50.188 Y66.366 E6.49388
G1 X51.722 Y66.366 E6.61946
G1 X51.722 Y65.189 E6.71576
G1 X50.192 Y64.016 E6.87358
G1 X50.189 Y62.450 E7.00172
G1 X51.725 Y63.603 E7.15890
G1 X52.097 Y63.874 F4200.000
G1 X50.503 Y63.467 F4200.000
G1 X51.650 Y64.337 E7.40858 F1800.000
G1 X51.936 Y64.463 E7.46282
G1 X52.270 Y63.955 E7.56836
G1 X52.437 Y63.735 E7.61635
G1 X52.679 Y63.475 E7.67792
G1 X52.912 Y63.280 E7.73078
G1 X53.071 Y63.178 E7.76347
G1 X53.355 Y63.080 E7.81556
G1 X53.509 Y63.059 E7.84254
G1 X53.819 Y63.071 E7.89641
G1 X54.128 Y63.164 E7.95243
G1 X54.262 Y63.237 E7.97880
G1 X54.482 Y63.413 E8.02784
G1 X54.778 Y63.802 E8.11254
G1 X54.979 Y64.168 E8.18506
G1 X54.980 Y64.167 F4200.000
G1 X55.033 Y64.426 E8.20664 F1800.000
G1 X55.074 Y64.857 E8.24212
G1 X55.114 Y66.454 E8.37284
G1 X55.205 Y67.154 F4200.000
G1 X50.500 Y67.154 E9.18925 F1800.000
G1 X52.136 Y66.454 F4200.000
G1 X52.147 Y65.132 E9.29747 F1800.000
G1 E4.79747 F2400.00000
G92 E0
G1 X52.516 Y59.117 F4200.000
G1 E4.50000 F2400.00000
G1 X52.516 Y56.182 E4.74022 F1800.000
G1 X53.298 Y56.182 E4.80419
G1 X53.298 Y59.141 E5.04631
G1 X54.709 Y59.071 E5.16197
G1 X54.737 Y55.763 E5.43270
G1 X55.520 Y55.763 E5.49677
G1 X55.520 Y60.634 E5.89542
G1 X50.188 Y60.634 E6.33181
G1 X50.188 Y55.643 E6.74026
G1 X51.022 Y55.643 E6.80856
G1 X51.022 Y59.117 E7.09290
G1 X52.456 Y59.117 E7.21024
G1 X52.916 Y59.117 F4200.000
G1 X52.907 Y59.182 F4200.000
G1 X52.907 Y56.494 E7.43021 F1800.000
G1 E2.93021 F2400.00000
G92 E0
G1 X55.127 Y56.075 F4200.000
G1 E4.50000 F2400.00000
G1 X55.114 Y59.143 E4.75103 F1800.000
G1 X55.208 Y59.840 F4200.000
G1 X53.006 Y59.895 E5.13310 F1800.000
G1 X52.803 Y59.876 E5.16862
G1 X50.500 Y59.876 E5.56812
G1 X50.605 Y59.176 F4200.000
G1 X50.605 Y55.955 E5.83166 F1800.000
G1 E1.33166 F2400.00000
G92 E0
G1 X54.709 Y52.429 F4200.000
G1 E4.50000 F2400.00000
G1 X54.737 Y49.173 E4.76647 F1800.000
G1 X55.520 Y49.173 E4.83054
G1 X55.520 Y54.044 E5.22919
G1 X50.188 Y54.044 E5.66558
G1 X50.188 Y52.468 E5.79459
G1 X52.716 Y52.468 E6.00147
G1 X52.716 Y52.481 E6.00252
G1 X54.649 Y52.431 E6.16081
G1 X55.109 Y52.428 F4200.000
G1 E1.66081 F2400.00000
G92 E0
G1 X52.894 Y50.563 F4200.000
G1 E4.50000 F2400.00000
G1 X52.646 Y50.393 E4.52453 F1800.000
G1 X52.593 Y50.326 E4.53156
G1 X52.548 Y50.229 E4.54030
G1 X52.528 Y50.014 E4.55798
G1 X52.605 Y49.808 E4.57601
G1 X52.678 Y49.721 E4.58528
G1 X52.797 Y49.635 E4.59734
G1 X52.951 Y49.613 E4.61009
G1 X53.104 Y49.740 E4.62639
G1 X53.202 Y49.884 E4.64063
G1 X53.242 Y50.085 E4.65737
G1 X53.189 Y50.290 E4.67471
G1 X53.131 Y50.377 E4.68331
G1 X52.943 Y50.528 E4.70302
G1 X52.792 Y50.281 F4200.000
G1 E0.20302 F2400.00000
G92 E0
G1 X55.127 Y49.486 F4200.000
G1 E4.50000 F2400.00000
G1 X55.114 Y52.532 E4.74927 F1800.000
G1 X55.208 Y53.230 F4200.000
G1 X52.415 Y53.267 E5.23384 F1800.000
G1 X50.500 Y53.256 E5.56614
G1 E1.06614 F2400.00000
G92 E0
G1 X52.552 Y46.178 F4200.000
G1 E4.50000 F2400.00000
G1 X52.572 Y44.609 E4.62836 F1800.000
G1 X52.612 Y44.391 E4.64649
G1 X52.726 Y44.142 E4.66892
G1 X52.882 Y43.940 E4.68977
G1 X53.077 Y43.786 E4.71015
G1 X53.299 Y43.686 E4.73010
G1 X53.523 Y43.645 E4.74870
G1 X53.776 Y43.656 E4.76945
G1 X54.008 Y43.729 E4.78933
G1 X54.183 Y43.826 E4.80574
G1 X54.440 Y44.077 E4.83506
G1 X54.550 Y44.277 E4.85378
G1 X54.620 Y44.493 E4.87232
G1 X54.671 Y44.852 E4.90207
G1 X54.691 Y46.178 E5.01055
G1 X52.612 Y46.178 E5.18063
G1 X52.152 Y46.174 F4200.000
G1 X51.723 Y46.178 F4200.000
G1 X51.719 Y44.963 E5.28008 F1800.000
G1 X50.190 Y43.825 E5.43603
G1 X50.196 Y42.271 E5.56325
G1 X51.563 Y43.295 E5.70307
G1 X51.866 Y43.258 E5.72809
G1 X52.030 Y43.112 E5.74609
G1 X52.287 Y42.712 E5.78496
G1 X52.533 Y42.450 E5.81439
G1 X52.770 Y42.268 E5.83879
G1 X53.053 Y42.141 E5.86417
G1 X53.355 Y42.068 E5.88966
G1 X53.671 Y42.052 E5.91555
G1 X53.983 Y42.093 E5.94125
G1 X54.279 Y42.190 E5.96680
G1 X54.552 Y42.340 E5.99230
G1 X54.798 Y42.548 E6.01865
G1 X55.008 Y42.794 E6.04505
G1 X55.164 Y43.047 E6.06941
G1 X55.379 Y43.618 E6.11937
G1 X55.453 Y43.986 E6.15003
G1 X55.475 Y44.204 E6.16799
G1 X55.506 Y45.857 E6.30326
G1 X55.524 Y47.754 E6.45856
G1 X50.188 Y47.754 E6.89529
G1 X50.188 Y46.178 E7.02430
G1 X51.663 Y46.178 E7.14506
G1 X52.123 Y46.177 F4200.000
G1 X52.137 Y46.266 F4200.000
G1 X52.145 Y44.731 E7.27067 F1800.000
G1 X50.505 Y43.282 F4200.000
G1 X51.290 Y43.868 E7.44081 F1800.000
G1 X51.520 Y43.977 E7.48483
G1 X51.872 Y44.070 E7.54805
G1 X52.159 Y43.844 E7.61150
G1 X52.768 Y43.195 E7.76598
G1 X53.029 Y42.999 E7.82264
G1 X53.165 Y42.931 E7.84891
G1 X53.470 Y42.854 E7.90343
G1 X53.807 Y42.867 E7.96202
G1 X53.969 Y42.904 E7.99081
G1 X54.256 Y43.043 E8.04616
G1 X54.538 Y43.276 E8.10958
G1 X54.870 Y43.765 E8.21210
G1 X54.954 Y43.994 E8.25452
G1 X54.966 Y43.990 F4200.000
G1 X55.042 Y44.384 E8.28738 F1800.000
G1 X55.078 Y44.814 E8.32271
G1 X55.101 Y46.266 E8.44154
G1 X55.204 Y46.966 F4200.000
G1 X50.500 Y46.966 E9.25776 F1800.000
G1 E4.75776 F2400.00000
G92 E0
G1 X51.022 Y38.929 F4200.000
G1 E4.50000 F2400.00000
G1 X52.516 Y38.929 E4.62224 F1800.000
G1 X52.516 Y35.994 E4.86246
G1 X53.298 Y35.994 E4.92643
G1 X53.298 Y38.952 E5.16856
G1 X54.709 Y38.882 E5.28422
G1 X54.737 Y35.575 E5.55494
G1 X55.520 Y35.575 E5.61902
G1 X55.520 Y40.446 E6.01766
G1 X50.188 Y40.446 E6.45405
G1 X50.188 Y35.455 E6.86250
G1 X51.022 Y35.455 E6.93080
G1 X51.022 Y38.869 E7.21024
G1 X51.022 Y39.329 F4200.000
G1 X50.605 Y38.987 F4200.000
G1 X50.605 Y35.767 E7.47378 F1800.000
G1 E2.97378 F2400.00000
G92 E0
G1 X52.907 Y36.306 F4200.000
G1 E4.50000 F2400.00000
G1 X52.907 Y38.994 E4.71997 F1800.000
G1 X55.114 Y38.954 F4200.000
G1 X55.127 Y35.887 E4.97100 F1800.000
G1 X55.208 Y39.652 F4200.000
G1 X53.006 Y39.707 E5.35307 F1800.000
G1 X52.803 Y39.687 E5.38859
G1 X50.500 Y39.687 E5.78809
G1 E1.28809 F2400.00000
G92 E0
G1 X54.033 Y32.635 F4200.000
G1 E4.50000 F2400.00000
G1 X54.309 Y32.577 E4.52312 F1800.000
G1 X54.491 Y32.468 E4.54048
G1 X54.696 Y32.222 E4.56670
G1 X54.777 Y32.009 E4.58533
G1 X54.784 Y29.489 E4.79159
G1 X54.760 Y29.106 E4.82295
G1 X55.557 Y29.109 E4.88815
G1 X55.628 Y30.565 E5.00741
G1 X55.624 Y31.962 E5.12178
G1 X55.550 Y32.444 E5.16168
G1 X55.445 Y32.853 E5.19620
G1 X55.225 Y33.354 E5.24098
G1 X54.921 Y33.749 E5.28175
G1 X54.707 Y33.935 E5.30498
G1 X54.503 Y34.053 E5.32426
G1 X54.269 Y34.123 E5.34427
G1 X53.898 Y34.141 E5.37460
G1 X53.653 Y34.111 E5.39483
G1 X53.473 Y34.055 E5.41026
G1 X53.335 Y33.973 E5.42340
G1 X53.078 Y33.714 E5.45328
G1 X52.908 Y33.464 E5.47803
G1 X52.750 Y33.087 E5.51144
G1 X52.266 Y31.141 E5.67554
G1 X52.175 Y30.864 E5.69939
G1 X52.012 Y30.567 E5.72716
G1 X51.830 Y30.425 E5.74602
G1 X51.616 Y30.379 E5.76394
G1 X51.442 Y30.395 E5.77822
G1 X51.210 Y30.501 E5.79908
G1 X51.055 Y30.712 E5.82047
G1 X50.989 Y30.878 E5.83512
G1 X50.891 Y31.609 E5.89550
G1 X50.912 Y33.021 E6.01102
G1 X50.983 Y33.916 E6.08452
G1 X50.167 Y33.916 E6.15136
G1 X50.114 Y33.307 E6.20140
G1 X50.091 Y32.043 E6.30486
G1 X50.101 Y31.138 E6.37888
G1 X50.178 Y30.550 E6.42744
G1 X50.328 Y30.039 E6.47108
G1 X50.526 Y29.616 E6.50930
G1 X50.724 Y29.332 E6.53757
G1 X50.945 Y29.117 E6.56276
G1 X51.185 Y28.967 E6.58593
G1 X51.447 Y28.878 E6.60863
G1 X51.766 Y28.847 E6.63483
G1 X51.924 Y28.856 E6.64780
G1 X52.079 Y28.884 E6.66068
G1 X52.274 Y28.956 E6.67767
G1 X52.453 Y29.072 E6.69516
G1 X52.651 Y29.286 E6.71905
G1 X52.902 Y29.749 E6.76210
G1 X53.208 Y30.912 E6.86054
G1 X53.425 Y31.894 E6.94286
G1 X53.516 Y32.181 E6.96744
G1 X53.702 Y32.490 E6.99698
G1 X53.978 Y32.611 E7.02164
G1 X54.174 Y32.880 F4200.000
G1 X53.093 Y32.431 F4200.000
G1 X53.293 Y32.907 E7.11124 F1800.000
G1 X53.368 Y33.003 E7.13235
G1 X53.638 Y33.252 E7.19605
G1 X53.798 Y33.361 E7.22962
G1 X53.926 Y33.391 E7.25244
G1 X54.205 Y33.362 E7.30110
G1 X54.496 Y33.215 E7.35778
G1 X54.702 Y33.044 E7.40418
G1 X54.819 Y32.911 E7.43499
G1 X55.012 Y32.613 E7.49661
G1 X55.006 Y32.609 F4200.000
G1 X55.117 Y32.356 E7.51920 F1800.000
G1 X55.184 Y32.103 E7.54060
G1 X55.201 Y31.929 E7.55488
G1 X55.205 Y30.575 E7.66576
G1 X55.178 Y29.420 E7.76026
G1 E3.26026 F2400.00000
G92 E0
G1 X52.628 Y30.655 F4200.000
G1 E4.50000 F2400.00000
G1 X53.087 Y32.434 E4.65034 F1800.000
G1 X52.627 Y30.655 F4200.000
G1 X52.463 Y30.246 E4.72688 F1800.000
G1 X52.304 Y29.985 E4.77977
G1 X52.055 Y29.724 E4.84250
G1 X51.953 Y29.665 E4.86289
G1 X51.832 Y29.630 E4.88483
G1 X51.608 Y29.621 E4.92365
G1 X51.506 Y29.643 E4.94179
G1 X51.232 Y29.763 E4.99372
G1 X50.528 Y30.350 E5.15281
G1 X50.648 Y30.494 F4200.000
G1 X50.574 Y30.784 E5.17726 F1800.000
G1 X50.493 Y31.592 E5.24372
G1 X50.511 Y33.037 E5.36198
G1 X50.549 Y33.604 E5.40846
G1 E0.90846 F2400.00000
G92 E0
G1 X53.403 Y25.810 F4200.000
G1 E4.50000 F2400.00000
G1 X55.520 Y25.810 E4.67322 F1800.000
G1 X55.520 Y27.386 E4.80223
G1 X50.188 Y27.386 E5.23862
G1 X50.188 Y25.810 E5.36763
G1 X52.410 Y25.810 E5.54951
G1 X52.410 Y24.382 E5.66640
G1 X52.410 Y22.953 E5.78329
G1 X50.188 Y22.953 E5.96517
G1 X50.188 Y21.377 E6.09418
G1 X55.520 Y21.377 E6.53057
G1 X55.520 Y22.953 E6.65958
G1 X53.403 Y22.953 E6.83280
G1 X53.403 Y25.750 E7.06167
G1 X53.403 Y26.210 F4200.000
G1 X52.907 Y25.898 F4200.000
G1 X52.907 Y22.865 E7.30988 F1800.000
G1 X55.208 Y22.165 F4200.000
G1 X50.500 Y22.165 E8.12669 F1800.000
G1 E3.62669 F2400.00000
G92 E0
G1 X50.500 Y26.598 F4200.000
G1 E4.50000 F2400.00000
G1 X55.208 Y26.598 E5.31682 F1800.000
G1 E0.81682 F2400.00000
G92 E0
G1 X55.520 Y19.539 F4200.000
G1 E4.50000 F2400.00000
G1 X50.188 Y19.539 E4.93639 F1800.000
G1 X50.188 Y17.962 E5.06540
G1 X55.520 Y17.962 E5.50180
G1 X55.520 Y19.479 E5.62590
G1 X55.174 Y19.339 F4200.000
G1 X55.208 Y18.750 F4200.000
G1 X50.500 Y18.750 E6.44271 F1800.000
G1 E1.94271 F2400.00000
G92 E0
G1 X53.477 Y14.568 F4200.000
G1 E4.50000 F2400.00000
G1 X50.188 Y11.449 E4.87096 F1800.000
G1 X50.188 Y10.115 E4.98018
G1 X55.520 Y10.115 E5.41657
G1 X55.520 Y11.633 E5.54085
G1 X52.292 Y11.671 E5.80505
G1 X55.520 Y14.729 E6.16893
G1 X55.520 Y16.124 E6.28310
G1 X50.188 Y16.124 E6.71950
G1 X50.188 Y14.606 E6.84377
G1 X53.417 Y14.568 E7.10811
G1 X53.819 Y14.360 F4200.000
G1 X50.500 Y15.363 F4200.000
G1 X54.257 Y15.341 E7.76004 F1800.000
G1 X54.652 Y15.256 E7.83014
G1 X54.707 Y15.079 E7.86239
G1 X54.480 Y14.631 E7.94956
G1 X51.290 Y11.608 E8.71205
G1 X51.050 Y11.079 E8.81293
G1 X51.075 Y11.002 E8.82694
G1 X51.512 Y10.898 E8.90491
G1 X55.208 Y10.876 E9.54620
G1 E5.04620 F2400.00000
G92 E0
G1 X51.211 Y3.724 F4200.000
G1 E4.50000 F2400.00000
G1 X51.033 Y4.349 E4.55321 F1800.000
G1 X51.008 Y4.659 E4.57864
G1 X51.022 Y5.262 E4.62801
G1 X51.101 Y5.692 E4.66377
G1 X51.275 Y6.041 E4.69573
G1 X51.497 Y6.330 E4.72554
G1 X51.768 Y6.566 E4.75495
G1 X52.079 Y6.744 E4.78429
G1 X52.423 Y6.856 E4.81390
G1 X52.785 Y6.898 E4.84373
G1 X53.163 Y6.879 E4.87464
G1 X53.507 Y6.803 E4.90351
G1 X53.821 Y6.666 E4.93156
G1 X54.097 Y6.467 E4.95938
G1 X54.327 Y6.212 E4.98750
G1 X54.504 Y5.920 E5.01546
G1 X54.711 Y5.506 E5.05337
G1 X54.742 Y2.451 E5.30334
G1 X55.586 Y2.470 E5.37244
G1 X55.657 Y3.755 E5.47775
G1 X55.663 Y4.767 E5.56063
G1 X55.601 Y5.608 E5.62958
G1 X55.418 Y6.474 E5.70202
G1 X55.116 Y7.157 E5.76312
G1 X54.679 Y7.729 E5.82207
G1 X54.373 Y8.005 E5.85581
G1 X54.049 Y8.212 E5.88726
G1 X53.555 Y8.399 E5.93050
G1 X52.821 Y8.481 E5.99090
G1 X52.401 Y8.448 E6.02543
G1 X52.011 Y8.355 E6.05821
G1 X51.540 Y8.137 E6.10072
G1 X51.090 Y7.786 E6.14742
G1 X50.601 Y7.161 E6.21235
G1 X50.353 Y6.676 E6.25698
G1 X50.180 Y6.075 E6.30810
G1 X50.086 Y5.236 E6.37720
G1 X50.131 Y4.265 E6.45675
G1 X50.308 Y3.360 E6.53218
G1 X50.663 Y2.447 E6.61241
G1 X52.663 Y2.447 E6.77608
G1 X52.663 Y3.724 E6.88058
G1 X51.271 Y3.724 E6.99445
G1 X50.818 Y3.650 F4200.000
G1 X50.728 Y3.180 F4200.000
G1 X50.676 Y3.465 E7.01811 F1800.000
G1 X50.645 Y3.785 E7.04446
G1 X50.672 Y3.919 E7.05564
G1 X50.587 Y4.282 E7.08612
G1 X50.561 Y4.653 E7.11657
G1 X50.559 Y5.297 E7.16933
G1 X50.656 Y5.956 E7.22382
G1 X50.668 Y5.951 F4200.000
G1 X50.825 Y6.349 E7.29797 F1800.000
G1 X51.044 Y6.717 E7.37232
G1 X51.363 Y7.078 E7.45581
G1 X51.594 Y7.282 E7.50931
G1 X51.934 Y7.489 E7.57848
G1 X52.267 Y7.618 E7.64039
G1 X52.525 Y7.664 E7.68581
G1 X52.800 Y7.688 E7.73377
G1 X53.371 Y7.633 E7.83324
G1 X53.708 Y7.533 E7.89432
G1 X53.927 Y7.420 E7.93698
G1 X54.171 Y7.261 E7.98762
G1 X54.585 Y6.842 E8.08971
G1 X54.787 Y6.526 E8.15492
G1 X54.901 Y6.307 E8.19771
G1 X55.017 Y6.014 E8.25232
G1 X55.011 Y6.012 F4200.000
G1 X55.158 Y5.545 E8.29240 F1800.000
G1 X55.191 Y4.751 E8.35737
G1 X55.171 Y2.773 E8.51928
G1 E4.01928 F2400.00000
G92 E0
G1 X52.350 Y3.085 F4200.000
G1 E4.50000 F2400.00000
G1 X50.745 Y3.085 E4.77855 F1800.000
G1 E0.27855 F2400.00000
G92 E0
G1 X37.929 Y63.239 F4200.000
G1 E4.50000 F2400.00000
G1 X37.929 Y66.008 E4.72663 F1800.000
G1 X32.113 Y66.008 E5.20263
G1 X32.113 Y63.239 E5.42926
G1 X37.869 Y63.239 E5.90036
G1 X38.554 Y62.614 F4200.000
G1 X38.554 Y66.633 E6.22926 F1800.000
G1 X31.488 Y66.633 E6.80754
G1 X31.488 Y62.614 E7.13645
G1 X38.494 Y62.614 E7.70982
G1 E3.20982 F2400.00000
G92 E0
G1 X29.859 Y59.389 F4200.000
G1 E4.50000 F2400.00000
G1 X25.381 Y59.346 E4.86644 F1800.000
G1 X25.155 Y59.321 E4.88506
G1 X25.185 Y58.929 E4.91722
G1 X26.312 Y58.929 E5.00939
G1 X29.632 Y58.997 E5.28113
G1 X29.894 Y59.050 E5.30303
G1 X29.865 Y59.329 E5.32606
G1 X30.863 Y60.024 F4200.000
G1 X25.345 Y59.970 E5.77768 F1800.000
G1 X24.900 Y59.922 E5.81431
G1 X24.680 Y59.671 E5.84159
G1 X24.591 Y59.510 E5.85669
G1 X24.547 Y59.380 E5.86791
G1 X24.535 Y59.228 E5.88035
G1 X24.557 Y58.946 E5.90355
G1 X24.638 Y58.668 E5.92720
G1 X24.789 Y58.468 E5.94770
G1 X24.971 Y58.340 E5.96591
G1 X25.138 Y58.305 E5.97990
G1 X26.317 Y58.305 E6.07640
G1 X29.547 Y58.360 E6.34077
G1 X30.041 Y58.442 E6.38173
G1 X30.311 Y58.536 E6.40513
G1 X30.525 Y58.640 E6.42462
G1 X30.747 Y58.796 E6.44683
G1 X30.922 Y58.987 E6.46805
G1 X31.127 Y59.359 E6.50278
G1 X31.309 Y59.909 E6.55021
G1 X31.398 Y60.599 E6.60710
G1 X31.488 Y61.989 E6.72111
G1 X39.179 Y61.989 E7.35051
G1 X39.179 Y67.258 E7.78170
G1 X30.863 Y67.258 E8.46225
G1 X30.863 Y60.084 E9.04934
G1 E4.54934 F2400.00000
G92 E0
G1 X40.329 Y59.039 F4200.000
G1 E4.50000 F2400.00000
G1 X41.018 Y58.931 E4.55705 F1800.000
G1 X41.643 Y58.890 E4.60826
G1 X42.234 Y58.938 E4.65683
