; generated by Slic3r 1.2.9 on 2018-11-30 at 20:59:14

; external perimeters extrusion width = 0.40mm
; perimeters extrusion width = 0.67mm
; infill extrusion width = 0.67mm
; solid infill extrusion width = 0.67mm
; top infill extrusion width = 0.67mm
; support material extrusion width = 0.40mm

M107
M140 S0 ;heated bed heater off (if you have it)
G21 ;metric values
G90 ;absolute positioning
M107 ;start with the fan off
G29
M140 S0 ;heated bed heater off (if you have it)
M104 S190 ; set extruder temp
M109 S190 ; wait for extruder temp
M140 S0 ;heated bed heater off (if you have it)
G1 Z15.0 F{travel_speed} ;move the platform down 15mm
G1 F{travel_speed}
;Put printing message on LCD screen
M117 Printing...
G21 ; set units to millimeters
G90 ; use absolute coordinates
M82 ; use absolute distances for extrusion
G92 E0
G1 Z0.350 F4200.000
G92 E0
G1 Z0.350 F4200.000
G1 X55.179 Y65.380 F4200.000
G1 X55.393 Y65.378 E4.51751 F1800.000
G1 X55.665 Y65.417 E4.54003
G1 X55.898 Y65.522 E4.56094
G1 X56.085 Y65.678 E4.58083
G1 X56.225 Y65.856 E4.59940
G1 X56.324 Y66.077 E4.61920
G1 X56.398 Y66.462 E4.65124
G1 X56.459 Y67.973 E4.77503
G1 X54.173 Y67.973 E4.96216
G1 X54.201 Y66.431 E5.08837
G1 X54.277 Y66.026 E5.12208
G1 X54.385 Y65.823 E5.14094
G1 X54.509 Y65.674 E5.15680
G1 X54.695 Y65.520 E5.17653
G1 X54.935 Y65.424 E5.19767
G1 X55.120 Y65.391 E5.21307
G1 X55.273 Y65.188 F4200.000
G1 X54.577 Y64.894 F4200.000
G1 X54.413 Y64.616 E5.23953 F1800.000
G1 X54.631 Y64.440 E5.26242
G1 X54.827 Y64.341 E5.28036
G1 X55.079 Y64.277 E5.30168
G1 X55.448 Y64.272 E5.33185
G1 X55.716 Y64.328 E5.35431
G1 X55.948 Y64.433 E5.37513
G1 X56.144 Y64.584 E5.39539
G1 X55.972 Y64.870 E5.42271
G1 X55.842 Y64.811 E5.43436
G1 X55.434 Y64.752 E5.46810
G1 X55.120 Y64.756 E5.49385
G1 X54.761 Y64.820 E5.52371
G1 X54.632 Y64.872 E5.53502
G1 E1.03502 F2400.00000
G92 E0
G1 X56.771 Y68.598 F4200.000
G1 E4.50000 F2400.00000
G1 X56.774 Y69.044 E4.53653 F1800.000
G1 X52.168 Y69.044 E4.91350
G1 X52.168 Y68.598 E4.95003
G1 X56.711 Y68.598 E5.32177
G1 X53.211 Y67.973 F4200.000
G1 X53.211 Y66.759 E5.42116 F1800.000
G1 X51.548 Y65.524 E5.59071
G1 X51.544 Y63.824 E5.72976
G1 X52.735 Y64.701 E5.85073
G1 X53.302 Y65.080 E5.90655
G1 X53.838 Y64.328 E5.98214
G1 X54.001 Y64.145 E6.00221
G1 X54.290 Y63.912 E6.03255
G1 X54.606 Y63.752 E6.06151
G1 X54.997 Y63.653 E6.09453
G1 X55.491 Y63.646 E6.13498
G1 X55.717 Y63.681 E6.15371
G1 X55.927 Y63.737 E6.17151
G1 X56.272 Y63.893 E6.20249
G1 X56.598 Y64.145 E6.23618
G1 X56.896 Y64.520 E6.27538
G1 X57.233 Y65.267 E6.34243
G1 X57.370 Y65.693 E6.37908
G1 X57.405 Y69.669 E6.70449
G1 X51.543 Y69.669 E7.18419
G1 X51.543 Y67.973 E7.32299
G1 X53.151 Y67.973 E7.45458
G1 X53.611 Y67.973 F4200.000
G1 X53.689 Y68.286 F4200.000
G1 X53.704 Y66.642 E7.58911 F1800.000
G1 X54.239 Y64.936 F4200.000
G1 X53.860 Y65.428 E7.69674 F1800.000
G1 X53.655 Y65.749 E7.76293
G1 X53.482 Y65.975 E7.81235
G1 X53.160 Y65.838 E7.87309
G1 X51.859 Y64.904 E8.15095
G1 X56.300 Y64.931 F4200.000
G1 X56.552 Y65.268 E8.22408 F1800.000
G1 X56.733 Y65.587 E8.28759
G1 X56.832 Y65.890 E8.34287
G1 X56.872 Y66.260 E8.40752
G1 X56.882 Y66.259 F4200.000
G1 X56.932 Y68.285 E8.57342 F1800.000
G1 E4.07342 F2400.00000
G92 E0
G1 X52.168 Y61.351 F4200.000
G1 E4.50000 F2400.00000
G1 X52.168 Y60.968 E4.53137 F1800.000
G1 X54.359 Y60.968 E4.71070
G1 X54.359 Y61.351 E4.74207
G1 X52.228 Y61.351 E4.91649
G1 X55.124 Y61.351 F4200.000
G1 X55.116 Y60.985 E4.94644 F1800.000
G1 X56.775 Y60.906 E5.08240
G1 X56.775 Y61.351 E5.11887
G1 X55.184 Y61.351 E5.24904
G1 X54.984 Y60.366 F4200.000
G1 X56.458 Y60.295 E5.36977 F1800.000
G1 X56.488 Y56.812 E5.65485
G1 X57.400 Y56.812 E5.72946
G1 X57.400 Y61.976 E6.15208
G1 X51.543 Y61.976 E6.63138
G1 X51.543 Y56.686 E7.06432
G1 X52.511 Y56.686 E7.14354
G1 X52.511 Y60.343 E7.44284
G1 X54.074 Y60.343 E7.57073
G1 X54.074 Y57.253 E7.82358
G1 X54.984 Y57.253 E7.89809
G1 X54.984 Y60.306 E8.14792
G1 X54.997 Y60.766 F4200.000
G1 X54.529 Y60.656 F4200.000
G1 X54.529 Y57.566 E8.40077 F1800.000
G1 E3.90077 F2400.00000
G92 E0
G1 X56.943 Y57.124 F4200.000
G1 E4.50000 F2400.00000
G1 X56.928 Y60.586 E4.78325 F1800.000
G1 X52.027 Y60.656 F4200.000
G1 X52.027 Y56.998 E5.08255 F1800.000
G1 E0.58255 F2400.00000
G92 E0
G1 X56.775 Y54.415 F4200.000
G1 E4.50000 F2400.00000
G1 X52.168 Y54.415 E4.87702 F1800.000
G1 X52.168 Y53.969 E4.91355
G1 X53.727 Y53.969 E5.04110
G1 X53.727 Y53.998 E5.04345
G1 X56.775 Y53.921 E5.29299
G1 X56.775 Y54.355 E5.32853
G1 X56.458 Y53.304 F4200.000
G1 X56.488 Y49.876 E5.60908 F1800.000
G1 X57.400 Y49.876 E5.68369
G1 X57.400 Y55.040 E6.10631
G1 X51.543 Y55.040 E6.58561
G1 X51.543 Y53.344 E6.72441
G1 X54.352 Y53.344 E6.95425
G1 X54.352 Y53.357 E6.95529
G1 X56.398 Y53.305 E7.12279
G1 X56.858 Y53.303 F4200.000
G1 E2.62279 F2400.00000
G92 E0
G1 X54.514 Y51.384 F4200.000
G1 E4.50000 F2400.00000
G1 X54.272 Y51.233 E4.52340 F1800.000
G1 X54.154 Y51.103 E4.53774
G1 X54.108 Y51.008 E4.54638
G1 X54.085 Y50.896 E4.55573
G1 X54.087 Y50.780 E4.56523
G1 X54.115 Y50.666 E4.57484
G1 X54.172 Y50.557 E4.58489
G1 X54.253 Y50.463 E4.59504
G1 X54.416 Y50.360 E4.61082
G1 X54.555 Y50.340 E4.62237
G1 X54.643 Y50.381 E4.63029
G1 X54.771 Y50.483 E4.64369
G1 X54.879 Y50.636 E4.65898
G1 X54.910 Y50.728 E4.66690
G1 X54.923 Y50.863 E4.67801
G1 X54.906 Y50.972 E4.68705
G1 X54.864 Y51.077 E4.69632
G1 X54.798 Y51.171 E4.70571
G1 X54.564 Y51.351 E4.72986
G1 X54.412 Y51.117 F4200.000
G1 E0.22986 F2400.00000
G92 E0
G1 X56.943 Y50.188 F4200.000
G1 E4.50000 F2400.00000
G1 X56.927 Y53.605 E4.77958 F1800.000
G1 E0.27958 F2400.00000
G92 E0
G1 X54.175 Y46.723 F4200.000
G1 E4.50000 F2400.00000
G1 X54.194 Y45.113 E4.63177 F1800.000
G1 X54.240 Y44.859 E4.65285
G1 X54.362 Y44.602 E4.67618
G1 X54.539 Y44.385 E4.69907
G1 X54.749 Y44.229 E4.72045
G1 X54.981 Y44.132 E4.74110
G1 X55.199 Y44.094 E4.75916
G1 X55.481 Y44.109 E4.78228
G1 X55.691 Y44.172 E4.80025
G1 X55.868 Y44.263 E4.81653
G1 X56.030 Y44.388 E4.83323
G1 X56.170 Y44.544 E4.85044
G1 X56.290 Y44.755 E4.87026
G1 X56.365 Y44.995 E4.89087
G1 X56.413 Y45.316 E4.91742
G1 X56.438 Y46.723 E5.03259
G1 X54.235 Y46.723 E5.21292
G1 X53.775 Y46.720 F4200.000
G1 X54.464 Y43.314 F4200.000
G1 X54.672 Y43.160 E5.23408 F1800.000
G1 X54.895 Y43.065 E5.25391
G1 X55.068 Y43.025 E5.26846
G1 X55.333 Y43.008 E5.29017
G1 X55.578 Y43.038 E5.31035
G1 X55.816 Y43.117 E5.33090
G1 X55.959 Y43.194 E5.34421
G1 X56.140 Y43.337 E5.36310
G1 X55.996 Y43.612 E5.38848
G1 X55.590 Y43.489 E5.42325
G1 X55.161 Y43.466 E5.45840
G1 X54.805 Y43.529 E5.48800
G1 X54.628 Y43.602 E5.50364
G1 X54.494 Y43.366 E5.52591
G1 X53.858 Y44.207 F4200.000
G1 X53.640 Y44.666 E5.56751 F1800.000
G1 X53.585 Y44.970 E5.59273
G1 X52.760 Y44.375 E5.67597
G1 X53.799 Y44.216 E5.76199
G1 E1.26199 F2400.00000
G92 E0
G1 X52.168 Y47.348 F4200.000
G1 E4.50000 F2400.00000
G1 X56.762 Y47.348 E4.87597 F1800.000
G1 X56.769 Y47.794 E4.91251
G1 X52.168 Y47.794 E5.28901
G1 X52.168 Y47.408 E5.32063
G1 X53.212 Y46.723 F4200.000
G1 X53.208 Y45.468 E5.42332 F1800.000
G1 X51.546 Y44.271 E5.59095
G1 X51.551 Y42.576 E5.72968
G1 X53.094 Y43.692 E5.88556
G1 X53.385 Y43.647 E5.90962
G1 X53.545 Y43.511 E5.92680
G1 X53.829 Y43.085 E5.96874
G1 X54.097 Y42.808 E6.00029
G1 X54.359 Y42.614 E6.02697
G1 X54.701 Y42.468 E6.05741
G1 X54.977 Y42.405 E6.08058
G1 X55.351 Y42.380 E6.11124
G1 X55.715 Y42.426 E6.14124
G1 X56.063 Y42.540 E6.17124
G1 X56.304 Y42.670 E6.19364
G1 X56.611 Y42.913 E6.22572
G1 X56.846 Y43.181 E6.25486
G1 X57.034 Y43.492 E6.28463
G1 X57.244 Y44.039 E6.33252
G1 X57.348 Y44.635 E6.38203
G1 X57.403 Y48.419 E6.69175
G1 X51.543 Y48.419 E7.17128
G1 X51.543 Y46.723 E7.31009
G1 X53.152 Y46.723 E7.44177
G1 X53.612 Y46.722 F4200.000
G1 X53.692 Y47.035 F4200.000
G1 X53.698 Y45.654 E7.55480 F1800.000
G1 X53.840 Y45.519 E7.57085
G1 X53.860 Y45.314 E7.58775
G1 E3.08775 F2400.00000
G92 E0
G1 X56.329 Y43.650 F4200.000
G1 E4.50000 F2400.00000
G1 X56.663 Y44.199 E4.61151 F1800.000
G1 X56.791 Y44.563 E4.67833
G1 X56.860 Y44.927 E4.74269
G1 X56.856 Y44.928 F4200.000
G1 X56.885 Y45.287 E4.77220 F1800.000
G1 X56.913 Y47.035 E4.91529
G1 E0.41529 F2400.00000
G92 E0
G1 X52.168 Y40.101 F4200.000
G1 E4.50000 F2400.00000
G1 X52.168 Y39.718 E4.53137 F1800.000
G1 X54.359 Y39.718 E4.71070
G1 X54.359 Y40.101 E4.74207
G1 X52.228 Y40.101 E4.91649
G1 X55.124 Y40.101 F4200.000
G1 X55.116 Y39.735 E4.94644 F1800.000
G1 X56.775 Y39.656 E5.08240
G1 X56.775 Y40.101 E5.11887
G1 X55.184 Y40.101 E5.24904
G1 X54.984 Y39.116 F4200.000
G1 X56.458 Y39.045 E5.36977 F1800.000
G1 X56.488 Y35.562 E5.65485
G1 X57.400 Y35.562 E5.72946
G1 X57.400 Y40.726 E6.15208
G1 X51.543 Y40.726 E6.63138
G1 X51.543 Y35.436 E7.06432
G1 X52.511 Y35.436 E7.14354
G1 X52.511 Y39.093 E7.44284
G1 X54.074 Y39.093 E7.57073
G1 X54.074 Y36.003 E7.82358
G1 X54.984 Y36.003 E7.89809
G1 X54.984 Y39.056 E8.14792
G1 X54.997 Y39.516 F4200.000
G1 X54.529 Y39.406 F4200.000
G1 X54.529 Y36.316 E8.40077 F1800.000
G1 E3.90077 F2400.00000
G92 E0
G1 X56.943 Y35.874 F4200.000
G1 E4.50000 F2400.00000
G1 X56.928 Y39.336 E4.78325 F1800.000
G1 X52.027 Y39.406 F4200.000
G1 X52.027 Y35.748 E5.08255 F1800.000
G1 E0.58255 F2400.00000
G92 E0
G1 X55.783 Y33.482 F4200.000
G1 E4.50000 F2400.00000
G1 X55.377 Y33.419 E4.53366 F1800.000
G1 X55.187 Y33.240 E4.55502
G1 X55.340 Y32.981 E4.57956
G1 X55.858 Y33.149 E4.62410
G1 X55.796 Y33.424 E4.64713
G1 X53.692 Y29.651 F4200.000
G1 X53.019 Y29.430 E4.70502 F1800.000
G1 X53.050 Y29.130 E4.72975
G1 X53.246 Y29.108 E4.74587
G1 X53.456 Y29.125 E4.76311
G1 X53.613 Y29.185 E4.77686
G1 X53.689 Y29.238 E4.78443
G1 X53.848 Y29.403 E4.80317
G1 X53.724 Y29.600 E4.82221
G1 X53.110 Y30.118 F4200.000
G1 X52.741 Y30.223 E4.85363 F1800.000
G1 X52.538 Y30.472 E4.87990
G1 X52.459 Y30.718 E4.90104
G1 X52.368 Y31.408 E4.95795
G1 X52.384 Y32.777 E5.07000
G1 X52.473 Y33.853 E5.15839
G1 X51.525 Y33.853 E5.23598
G1 X51.459 Y33.030 E5.30357
G1 X51.438 Y31.863 E5.39906
G1 X51.449 Y30.877 E5.47980
G1 X51.532 Y30.294 E5.52797
G1 X51.731 Y29.675 E5.58120
G1 X51.944 Y29.257 E5.61957
G1 X52.100 Y29.039 E5.64151
G1 X52.360 Y28.783 E5.67134
G1 X52.632 Y28.615 E5.69753
G1 X52.929 Y28.514 E5.72319
G1 X53.220 Y28.482 E5.74720
G1 X53.413 Y28.487 E5.76293
G1 X53.614 Y28.516 E5.77962
G1 X53.906 Y28.628 E5.80518
G1 X54.096 Y28.759 E5.82407
G1 X54.260 Y28.931 E5.84349
G1 X54.553 Y29.443 E5.89179
G1 X54.915 Y30.792 E6.00610
G1 X55.152 Y31.792 E6.09018
G1 X55.330 Y32.215 E6.12778
G1 X55.519 Y32.383 E6.14845
G1 X55.763 Y32.462 E6.16943
G1 X56.041 Y32.409 E6.19261
G1 X56.239 Y32.288 E6.21157
G1 X56.444 Y32.046 E6.23757
G1 X56.529 Y31.831 E6.25645
G1 X56.575 Y30.508 E6.36481
G1 X56.527 Y28.753 E6.50846
G1 X57.437 Y28.757 E6.58291
G1 X57.515 Y30.165 E6.69831
G1 X57.512 Y31.778 E6.83032
G1 X57.419 Y32.341 E6.87705
G1 X57.281 Y32.805 E6.91661
G1 X57.050 Y33.288 E6.96048
G1 X56.746 Y33.666 E7.00014
G1 X56.492 Y33.877 E7.02721
G1 X56.323 Y33.971 E7.04300
G1 X55.991 Y34.074 E7.07151
G1 X55.608 Y34.090 E7.10285
G1 X55.308 Y34.052 E7.12762
G1 X55.118 Y33.992 E7.14389
G1 X55.006 Y33.927 E7.15450
G1 X54.697 Y33.637 E7.18917
G1 X54.365 Y33.070 E7.24296
G1 X54.323 Y32.951 E7.25325
G1 X53.805 Y30.926 E7.42432
G1 X53.631 Y30.468 E7.46439
G1 X53.437 Y30.225 E7.48989
G1 X53.167 Y30.136 E7.51311
G1 X52.892 Y29.802 F4200.000
G1 X53.960 Y29.810 F4200.000
G1 X54.158 Y30.216 E7.59141 F1800.000
G1 X54.329 Y30.746 E7.68804
G1 X54.628 Y31.943 E7.90209
G1 X54.976 Y32.983 E8.09238
G1 X56.267 Y33.501 F4200.000
G1 X56.526 Y32.958 E8.19674 F1800.000
G1 X56.544 Y32.856 E8.21484
G1 X56.751 Y32.576 E8.27516
G1 X56.976 Y32.155 E8.35807
G1 X56.946 Y32.139 F4200.000
G1 X56.996 Y31.958 E8.37342 F1800.000
G1 X57.023 Y31.737 E8.39162
G1 X57.045 Y30.514 E8.49171
G1 X56.994 Y29.068 E8.61018
G1 E4.11018 F2400.00000
G92 E0
G1 X52.678 Y28.909 F4200.000
G1 E4.50000 F2400.00000
G1 X52.384 Y29.720 E4.64978 F1800.000
G1 X52.265 Y29.895 E4.68642
G1 X52.027 Y30.335 E4.77323
G1 X52.042 Y30.343 F4200.000
G1 X51.939 Y30.914 E4.82071 F1800.000
G1 X51.906 Y31.391 E4.85982
G1 X51.920 Y32.793 E4.97460
G1 X51.973 Y33.541 E5.03593
G1 E0.53593 F2400.00000
G92 E0
G1 X52.168 Y26.355 F4200.000
G1 E4.50000 F2400.00000
G1 X52.168 Y25.909 E4.53653 F1800.000
G1 X56.775 Y25.909 E4.91355
G1 X56.775 Y26.355 E4.95008
G1 X52.228 Y26.355 E5.32218
G1 E0.82218 F2400.00000
G92 E0
G1 X52.168 Y21.689 F4200.000
G1 E4.50000 F2400.00000
G1 X52.168 Y21.242 E4.53653 F1800.000
G1 X56.775 Y21.242 E4.91355
G1 X56.775 Y21.689 E4.95008
G1 X52.228 Y21.689 E5.32218
G1 X53.959 Y22.314 F4200.000
G1 X51.543 Y22.314 E5.51987 F1800.000
G1 X51.543 Y20.617 E5.65868
G1 X57.400 Y20.617 E6.13797
G1 X57.400 Y22.314 E6.27678
G1 X55.099 Y22.314 E6.46505
G1 X55.099 Y25.284 E6.70811
G1 X57.400 Y25.284 E6.89639
G1 X57.400 Y26.980 E7.03519
G1 X51.543 Y26.980 E7.51449
G1 X51.543 Y25.284 E7.65330
G1 X53.959 Y25.284 E7.85098
G1 X53.959 Y22.374 E8.08913
G1 X53.959 Y21.914 F4200.000
G1 X54.529 Y22.001 F4200.000
G1 X54.529 Y25.596 E8.71288 F1800.000
G1 E4.21288 F2400.00000
G92 E0
G1 X52.137 Y18.086 F4200.000
G1 E4.50000 F2400.00000
G1 X52.137 Y17.643 E4.53620 F1800.000
G1 X56.721 Y17.643 E4.91134
G1 X56.721 Y18.086 E4.94754
G1 X52.197 Y18.086 E5.31776
G1 X51.512 Y18.711 F4200.000
G1 X51.512 Y17.019 E5.45624 F1800.000
G1 X57.346 Y17.019 E5.93365
G1 X57.346 Y18.711 E6.07213
G1 X51.572 Y18.711 E6.54463
G1 X51.712 Y18.364 F4200.000
G1 E2.04463 F2400.00000
G92 E0
G1 X59.187 Y17.128 F4200.000
G1 E4.50000 F2400.00000
G1 X59.424 Y16.989 E4.52249 F1800.000
G1 X59.656 Y16.913 E4.54245
G1 X59.978 Y16.901 E4.56882
G1 X60.185 Y16.948 E4.58621
G1 X60.401 Y17.054 E4.60592
G1 X60.540 Y17.162 E4.62032
G1 X60.717 Y17.383 E4.64348
G1 X60.811 Y17.546 E4.65887
G1 E0.15887 F2400.00000
G92 E0
G1 X52.168 Y14.500 F4200.000
G1 E4.50000 F2400.00000
G1 X52.168 Y14.108 E4.53208 F1800.000
G1 X56.775 Y14.057 E4.90912
G1 X56.775 Y14.500 E4.94541
G1 X52.228 Y14.500 E5.31752
G1 E0.81752 F2400.00000
G92 E0
G1 X52.168 Y9.833 F4200.000
G1 E4.50000 F2400.00000
G1 X52.168 Y9.388 E4.53641 F1800.000
G1 X56.775 Y9.388 E4.91343
G1 X56.775 Y9.780 E4.94553
G1 X52.228 Y9.832 E5.31766
G1 X53.916 Y10.438 F4200.000
G1 X57.400 Y13.634 E5.70460 F1800.000
G1 X57.400 Y15.125 E5.82666
G1 X51.543 Y15.125 E6.30595
G1 X51.543 Y13.490 E6.43974
G1 X55.095 Y13.451 E6.73039
G1 X51.543 Y10.191 E7.12490
G1 X51.543 Y8.763 E7.24176
G1 X57.400 Y8.763 E7.72105
G1 X57.400 Y10.398 E7.85485
G1 X53.976 Y10.437 E8.13510
G1 X53.576 Y10.649 F4200.000
G1 X52.540 Y10.141 F4200.000
G1 X56.471 Y13.748 E9.06075 F1800.000
G1 E4.56075 F2400.00000
G92 E0
G1 X38.443 Y64.583 F4200.000
G1 E4.50000 F2400.00000
G1 X38.443 Y67.732 E4.75770 F1800.000
G1 X31.735 Y67.732 E5.30671
G1 X31.735 Y64.583 E5.56442
G1 X38.383 Y64.583 E6.10852
G1 X39.068 Y63.958 F4200.000
G1 X39.068 Y68.356 E6.46850 F1800.000
G1 X31.110 Y68.356 E7.11978
G1 X31.110 Y63.958 E7.47976
G1 X39.008 Y63.958 E8.12614
G1 E3.62614 F2400.00000
G92 E0
G1 X30.019 Y60.737 F4200.000
G1 E4.50000 F2400.00000
G1 X24.621 Y60.686 E4.94176 F1800.000
G1 X24.249 Y60.637 E4.97246
G1 X24.238 Y60.432 E4.98927
G1 X24.251 Y60.274 E5.00223
G1 X24.296 Y60.080 E5.01859
G1 X25.623 Y60.080 E5.12714
G1 X29.069 Y60.137 E5.40921
G1 X29.572 Y60.217 E5.45093
G1 X29.947 Y60.365 E5.48389
G1 X30.102 Y60.472 E5.49931
G1 X30.037 Y60.680 E5.51715
G1 X30.485 Y61.366 F4200.000
G1 X24.578 Y61.311 E6.00059 F1800.000
G1 X24.021 Y61.238 E6.04655
G1 X23.770 Y60.961 E6.07706
G1 X23.670 Y60.785 E6.09369
G1 X23.624 Y60.653 E6.10506
G1 X23.612 Y60.424 E6.12384
G1 X23.632 Y60.178 E6.14409
G1 X23.678 Y59.978 E6.16091
G1 X23.747 Y59.839 E6.17355
G1 X23.850 Y59.701 E6.18766
G1 X23.972 Y59.589 E6.20118
G1 X24.096 Y59.512 E6.21312
G1 X24.204 Y59.473 E6.22251
G1 X24.346 Y59.455 E6.23428
G1 X25.628 Y59.455 E6.33916
G1 X29.123 Y59.513 E6.62525
G1 X29.722 Y59.608 E6.67486
G1 X30.012 Y59.706 E6.69993
G1 X30.258 Y59.821 E6.72210
G1 X30.512 Y59.994 E6.74728
G1 X30.712 Y60.206 E6.77112
G1 X30.940 Y60.605 E6.80874
G1 X31.139 Y61.190 E6.85929
G1 X31.235 Y61.919 E6.91943
G1 X31.330 Y63.333 E7.03542
G1 X39.315 Y63.333 E7.68882
G1 X39.329 Y63.087 E7.70898
G1 X39.693 Y63.098 E7.73876
G1 X39.693 Y68.981 E8.22026
