; generated by Slic3r 1.2.9 on 2018-11-17 at 19:25:13

; external perimeters extrusion width = 0.40mm
; perimeters extrusion width = 0.67mm
; infill extrusion width = 0.67mm
; solid infill extrusion width = 0.67mm
; top infill extrusion width = 0.67mm
; support material extrusion width = 0.40mm

M107
M140 S0 ;heated bed heater off (if you have it)
G21 ;metric values
G90 ;absolute positioning
M107 ;start with the fan off
G29
M140 S0 ;heated bed heater off (if you have it)
M104 S190 ; set extruder temp
M109 S190 ; wait for extruder temp
M140 S0 ;heated bed heater off (if you have it)
G1 Z15.0 F{travel_speed} ;move the platform down 15mm
G1 F{travel_speed}
;Put printing message on LCD screen
M117 Printing...
G21 ; set units to millimeters
G90 ; use absolute coordinates
M82 ; use absolute distances for extrusion
G92 E0
G1 Z0.400 F4200.000
G1 X0.313 Y0.179 F4200.000
G1 X1.393 Y-1.713 E0.23286 F1800.000
G1 X3.149 Y-3.213 E0.47966
G1 X5.309 Y-4.029 E0.72646
G1 X6.566 Y-4.147 E0.86143
G1 X43.434 Y-4.147 E4.80222
G1 X45.709 Y-3.750 E5.04902
G1 X47.714 Y-2.606 E5.29582 F1800.000
G1 X49.214 Y-0.850 E5.54263
G1 X50.029 Y1.310 E5.78943
G1 X50.148 Y2.567 E5.92440
G1 X50.148 Y47.433 E10.72013
G1 X49.751 Y49.708 E10.96694
G1 X48.607 Y51.713 E11.21374
G1 X46.851 Y53.213 E11.46054
G1 X44.691 Y54.029 E11.70734
G1 X43.434 Y54.147 E11.84231
G1 X6.566 Y54.147 E15.78310
G1 X4.291 Y53.750 E16.02990
G1 X2.286 Y52.606 E16.27670
G1 X0.786 Y50.850 E16.52351
G1 X-0.029 Y48.690 E16.77031
G1 X-0.148 Y47.433 E16.90528
G1 X-0.148 Y2.567 E21.70101
G1 X0.249 Y0.292 E21.94782
G1 X0.284 Y0.231 E21.95535
G1 E17.45535 F2400.00000
G92 E0
G1 X9.108 Y5.109 F4200.000
G1 E4.50000 F2400.00000
G1 X40.892 Y5.109 E7.89726 F1800.000
G1 X40.892 Y44.891 E12.14947
G1 X9.108 Y44.891 E15.54674
G1 X9.108 Y5.169 E19.79253
G1 X8.394 Y4.395 F4200.000
G1 X41.606 Y4.395 E23.34247 F1800.000
G1 X41.606 Y45.605 E27.74735
G1 X8.394 Y45.605 E31.29728
G1 X8.394 Y4.455 E35.69575
G1 X7.680 Y3.681 F4200.000
G1 X42.320 Y3.681 E39.39836 F1800.000
G1 X42.320 Y46.319 E43.95591
G1 X7.680 Y46.319 E47.65851
G1 X7.680 Y3.741 E52.20965
G1 X6.966 Y2.967 F4200.000
G1 X43.034 Y2.967 E56.06493 F1800.000
G1 X43.034 Y47.033 E60.77515
G1 X6.966 Y47.033 E64.63043
G1 X6.966 Y3.027 E69.33424
G1 X7.312 Y3.167 F4200.000
G1 X40.456 Y5.888 F4200.000
G1 X40.113 Y5.545 E69.38643 F1800.000
G1 X39.096 Y5.545 E69.49583
G1 X40.456 Y6.904 E69.70274
G1 X40.456 Y7.921 E69.81215
G1 X38.080 Y5.545 E70.17377
G1 X37.063 Y5.545 E70.28318
G1 X40.456 Y8.938 E70.79952
G1 X40.456 Y9.955 E70.90892
G1 X36.046 Y5.545 E71.57998
G1 X35.029 Y5.545 E71.68938
G1 X40.456 Y10.971 E72.51516
G1 X40.456 Y11.988 E72.62457
G1 X34.013 Y5.545 E73.60506
G1 X32.996 Y5.545 E73.71446
G1 X40.456 Y13.005 E74.84968
G1 X40.456 Y14.021 E74.95908
G1 X31.979 Y5.545 E76.24901
G1 X30.963 Y5.545 E76.35841
G1 X40.456 Y15.038 E77.80305
G1 X40.456 Y16.055 E77.91246
G1 X29.946 Y5.545 E79.51182
G1 X28.929 Y5.545 E79.62122
G1 X40.456 Y17.072 E81.37530
G1 X40.456 Y18.088 E81.48470
G1 X27.912 Y5.545 E83.39350
G1 X26.896 Y5.545 E83.50290
G1 X40.456 Y19.105 E85.56641
G1 X40.456 Y20.122 E85.67582
G1 X25.879 Y5.545 E87.89405
G1 X24.862 Y5.545 E88.00345
G1 X40.456 Y21.138 E90.37640
G1 X40.456 Y22.155 E90.48580
G1 X23.846 Y5.545 E93.01346
G1 X22.829 Y5.545 E93.12286
G1 X40.456 Y23.172 E95.80524
G1 X40.456 Y24.189 E95.91465
G1 X21.812 Y5.545 E98.75175
G1 X20.795 Y5.545 E98.86115
G1 X40.456 Y25.205 E101.85296
G1 X40.456 Y26.222 E101.96236
G1 X19.779 Y5.545 E105.10890
G1 X18.762 Y5.545 E105.21830
G1 X40.456 Y27.239 E108.51955
G1 X40.456 Y28.255 E108.62895
G1 X17.745 Y5.545 E112.08491
G1 X16.729 Y5.545 E112.19432
G1 X40.456 Y29.272 E115.80500
G1 X40.456 Y30.289 E115.91440
G1 X15.712 Y5.545 E119.67980
G1 X14.695 Y5.545 E119.78920
G1 X40.456 Y31.306 E123.70932
G1 X40.456 Y32.322 E123.81872
G1 X13.678 Y5.545 E127.89355
G1 X12.662 Y5.545 E128.00296
G1 X40.456 Y33.339 E132.23251
G1 X40.456 Y34.356 E132.34191
G1 X11.645 Y5.545 E136.72618
G1 X10.628 Y5.545 E136.83558
G1 X40.456 Y35.372 E141.37456
G1 X40.456 Y36.389 E141.48396
G1 X9.612 Y5.545 E146.17766
G1 X9.544 Y6.494 E146.28005
G1 X40.456 Y37.406 E150.98404
G1 X40.456 Y38.423 E151.09344
G1 X9.544 Y7.511 E155.79743
G1 X9.544 Y8.527 E155.90683
G1 X40.456 Y39.439 E160.61082
G1 X40.456 Y40.456 E160.72022
G1 X9.544 Y9.544 E165.42421
G1 X9.544 Y10.561 E165.53361
G1 X40.456 Y41.473 E170.23760
G1 X40.456 Y42.490 E170.34700
G1 X9.544 Y11.577 E175.05099
G1 X9.544 Y12.594 E175.16039
G1 X40.456 Y43.506 E179.86438
G1 X40.388 Y44.455 E179.96677
G1 X9.544 Y13.611 E184.66046
G1 X9.544 Y14.628 E184.76986
G1 X39.372 Y44.455 E189.30885
G1 X38.355 Y44.455 E189.41825
G1 X9.544 Y15.644 E193.80251
G1 X9.544 Y16.661 E193.91191
G1 X37.338 Y44.455 E198.14146
G1 X36.322 Y44.455 E198.25086
G1 X9.544 Y17.678 E202.32569
G1 X9.544 Y18.694 E202.43509
G1 X35.305 Y44.455 E206.35521
G1 X34.288 Y44.455 E206.46461
G1 X9.544 Y19.711 E210.23000
G1 X9.544 Y20.728 E210.33940
G1 X33.271 Y44.455 E213.95008
G1 X32.255 Y44.455 E214.05949
G1 X9.544 Y21.745 E217.51545
G1 X9.544 Y22.761 E217.62485
G1 X31.238 Y44.455 E220.92609
G1 X30.221 Y44.455 E221.03550
G1 X9.544 Y23.778 E224.18202
G1 X9.544 Y24.795 E224.29143
G1 X29.205 Y44.455 E227.28324
G1 X28.188 Y44.455 E227.39264
G1 X9.544 Y25.811 E230.22973
G1 X9.544 Y26.828 E230.33914
G1 X27.171 Y44.455 E233.02151
G1 X26.154 Y44.455 E233.13091
G1 X9.544 Y27.845 E235.65858
G1 X9.544 Y28.862 E235.76798
G1 X25.138 Y44.455 E238.14092
G1 X24.121 Y44.455 E238.25032
G1 X9.544 Y29.878 E240.46855
G1 X9.544 Y30.895 E240.57795
G1 X23.104 Y44.455 E242.64146
G1 X22.088 Y44.455 E242.75086
G1 X9.544 Y31.912 E244.65966
G1 X9.544 Y32.928 E244.76906
G1 X21.071 Y44.455 E246.52313
G1 X20.054 Y44.455 E246.63253
G1 X9.544 Y33.945 E248.23189
G1 X9.544 Y34.962 E248.34130
G1 X19.037 Y44.455 E249.78594
G1 X18.021 Y44.455 E249.89534
G1 X9.544 Y35.979 E251.18527
G1 X9.544 Y36.995 E251.29467
G1 X17.004 Y44.455 E252.42988
G1 X15.987 Y44.455 E252.53928
G1 X9.544 Y38.012 E253.51977
G1 X9.544 Y39.029 E253.62917
G1 X14.970 Y44.455 E254.45494
G1 X13.954 Y44.455 E254.56435
G1 X9.544 Y40.045 E255.23540
G1 X9.544 Y41.062 E255.34481
G1 X12.937 Y44.455 E255.86115
G1 X11.920 Y44.455 E255.97055
G1 X9.544 Y42.079 E256.33217
G1 X9.544 Y43.096 E256.44157
G1 X10.904 Y44.455 E256.64848
G1 X9.887 Y44.455 E256.75788
G1 X9.544 Y44.112 E256.81007
G1 Z0.400 F4200.000
M140 S45 ; wait for bed temperature to be reached
G1 Z0.600 F4200.000
G1 X8.515 Y4.516 F4200.000
G1 X41.485 Y4.516 E258.36031 F3000.000
G1 X41.485 Y45.484 E260.28664
G1 X8.515 Y45.484 E261.83688
G1 X8.515 Y4.576 E263.76039
G1 X7.887 Y3.888 F4200.000
G1 X42.113 Y3.888 E265.36971 F3000.000
G1 X42.113 Y46.112 E267.35513
G1 X7.887 Y46.112 E268.96446
G1 X7.887 Y3.948 E270.94706
G1 X7.259 Y3.259 F4200.000
G1 X42.741 Y3.259 E272.61547 F3000.000
G1 X42.741 Y46.741 E274.65997
G1 X7.259 Y46.741 E276.32839
G1 X7.259 Y3.319 E278.37007
G1 X6.766 Y2.767 F4200.000
G1 X43.234 Y2.767 E279.34458 F1500.000
G1 X43.234 Y47.233 E280.53283
G1 X6.766 Y47.233 E281.50733
G1 X6.766 Y2.827 E282.69397
G1 X7.112 Y2.967 F4200.000
G1 X9.203 Y4.897 F4200.000
G1 X8.896 Y5.203 E282.71456 F1200.000
G1 X8.896 Y6.101 E282.75719
G1 X10.100 Y4.897 E282.83806
G1 X10.998 Y4.897 E282.88068
G1 X8.896 Y6.998 E283.02183
G1 X8.896 Y7.896 E283.06446
G1 X11.895 Y4.897 E283.26589
G1 X12.793 Y4.897 E283.30852
G1 X8.896 Y8.793 E283.57024
G1 X8.896 Y9.691 E283.61286
G1 X13.690 Y4.897 E283.93486
G1 X14.588 Y4.897 E283.97749
G1 X8.896 Y10.588 E284.35977
G1 X8.896 Y11.486 E284.40240
G1 X15.485 Y4.897 E284.84496
G1 X16.383 Y4.897 E284.88759
G1 X8.896 Y12.383 E285.39044
G1 X8.896 Y13.281 E285.43306
G1 X17.280 Y4.897 E285.99619
G1 X18.178 Y4.897 E286.03882
G1 X8.896 Y14.178 E286.66223
G1 X8.896 Y15.076 E286.70486
G1 X19.075 Y4.897 E287.38855
G1 X19.973 Y4.897 E287.43118
G1 X8.896 Y15.973 E288.17515
G1 X8.896 Y16.871 E288.21778
G1 X20.870 Y4.897 E289.02204
G1 X21.768 Y4.897 E289.06467
G1 X8.896 Y17.769 E289.92921
G1 X8.896 Y18.666 E289.97184
G1 X22.665 Y4.897 E290.89666
G1 X23.563 Y4.897 E290.93929
G1 X8.896 Y19.564 E291.92439
G1 X8.896 Y20.461 E291.96702
G1 X24.460 Y4.897 E293.01241
G1 X25.358 Y4.897 E293.05504
G1 X8.896 Y21.359 E294.16071
G1 X8.896 Y22.256 E294.20334
G1 X26.255 Y4.897 E295.36929
G1 X27.153 Y4.897 E295.41192
G1 X8.896 Y23.154 E296.63815
G1 X8.896 Y24.051 E296.68078
G1 X28.050 Y4.897 E297.96730
G1 X28.948 Y4.897 E298.00993
G1 X8.896 Y24.949 E299.35673
G1 X8.896 Y25.846 E299.39936
G1 X29.845 Y4.897 E300.80644
G1 X30.743 Y4.897 E300.84907
G1 X8.896 Y26.744 E302.31644
G1 X8.896 Y27.641 E302.35906
G1 X31.640 Y4.897 E303.88671
G1 X32.538 Y4.897 E303.92934
G1 X8.896 Y28.539 E305.51727
G1 X8.896 Y29.436 E305.55990
G1 X33.435 Y4.897 E307.20811
G1 X34.333 Y4.897 E307.25074
G1 X8.896 Y30.334 E308.95924
G1 X8.896 Y31.231 E309.00187
G1 X35.231 Y4.897 E310.77065
G1 X36.128 Y4.897 E310.81327
G1 X8.896 Y32.129 E312.64234
G1 X8.896 Y33.026 E312.68496
G1 X37.026 Y4.897 E314.57431
G1 X37.923 Y4.897 E314.61693
G1 X8.896 Y33.924 E316.56656
G1 X8.896 Y34.821 E316.60919
G1 X38.821 Y4.897 E318.61910
G1 X39.718 Y4.897 E318.66173
G1 X8.896 Y35.719 E320.73192
G1 X8.896 Y36.616 E320.77455
G1 X40.616 Y4.897 E322.90502
G1 X41.104 Y5.306 E322.93528
G1 X8.896 Y37.514 E325.09856
G1 X8.896 Y38.411 E325.14119
G1 X41.104 Y6.203 E327.30446
G1 X41.104 Y7.101 E327.34709
G1 X8.896 Y39.309 E329.51037
G1 X8.896 Y40.206 E329.55299
G1 X41.104 Y7.998 E331.71627
G1 X41.104 Y8.896 E331.75890
G1 X8.896 Y41.104 E333.92218
G1 X8.896 Y42.001 E333.96480
G1 X41.104 Y9.793 E336.12808
G1 X41.104 Y10.691 E336.17071
G1 X8.896 Y42.899 E338.33398
G1 X8.896 Y43.796 E338.37661
G1 X41.104 Y11.589 E340.53989
G1 X41.104 Y12.486 E340.58251
G1 X8.896 Y44.694 E342.74579
G1 X9.384 Y45.103 E342.77605
G1 X41.104 Y13.384 E344.90653
G1 X41.104 Y14.281 E344.94916
G1 X10.282 Y45.103 E347.01936
G1 X11.179 Y45.103 E347.06198
G1 X41.104 Y15.179 E349.07190
G1 X41.104 Y16.076 E349.11452
G1 X12.077 Y45.103 E351.06416
G1 X12.974 Y45.103 E351.10678
G1 X41.104 Y16.974 E352.99613
G1 X41.104 Y17.871 E353.03876
G1 X13.872 Y45.103 E354.86783
G1 X14.769 Y45.103 E354.91045
G1 X41.104 Y18.769 E356.67924
G1 X41.104 Y19.666 E356.72187
G1 X15.667 Y45.103 E358.43037
G1 X16.564 Y45.103 E358.47299
G1 X41.104 Y20.564 E360.12122
G1 X41.104 Y21.461 E360.16384
G1 X17.462 Y45.103 E361.75178
G1 X18.359 Y45.103 E361.79441
G1 X41.104 Y22.359 E363.32206
G1 X41.104 Y23.256 E363.36469
G1 X19.257 Y45.103 E364.83206
G1 X20.155 Y45.103 E364.87469
G1 X41.104 Y24.154 E366.28178
G1 X41.104 Y25.051 E366.32440
G1 X21.052 Y45.103 E367.67121
G1 X21.950 Y45.103 E367.71384
G1 X41.104 Y25.949 E369.00036
G1 X41.104 Y26.846 E369.04299
G1 X22.847 Y45.103 E370.26923
G1 X23.745 Y45.103 E370.31186
G1 X41.104 Y27.744 E371.47782
G1 X41.104 Y28.641 E371.52044
G1 X24.642 Y45.103 E372.62612
G1 X25.540 Y45.103 E372.66875
G1 X41.104 Y29.539 E373.71414
G1 X41.104 Y30.436 E373.75677
G1 X26.437 Y45.103 E374.74188
G1 X27.335 Y45.103 E374.78451
G1 X41.104 Y31.334 E375.70934
G1 X41.104 Y32.231 E375.75196
G1 X28.232 Y45.103 E376.61651
G1 X29.130 Y45.103 E376.65914
G1 X41.104 Y33.129 E377.46340
G1 X41.104 Y34.026 E377.50603
G1 X30.027 Y45.103 E378.25001
G1 X30.925 Y45.103 E378.29263
G1 X41.104 Y34.924 E378.97633
G1 X41.104 Y35.821 E379.01896
G1 X31.822 Y45.103 E379.64238
G1 X32.720 Y45.103 E379.68500
G1 X41.104 Y36.719 E380.24814
G1 X41.104 Y37.617 E380.29076
G1 X33.617 Y45.103 E380.79362
G1 X34.515 Y45.103 E380.83624
G1 X41.104 Y38.514 E381.27881
G1 X41.104 Y39.412 E381.32144
G1 X35.412 Y45.103 E381.70372
G1 X36.310 Y45.103 E381.74635
G1 X41.104 Y40.309 E382.06835
G1 X41.104 Y41.207 E382.11098
G1 X37.207 Y45.103 E382.37270
G1 X38.105 Y45.103 E382.41533
G1 X41.104 Y42.104 E382.61677
G1 X41.104 Y43.002 E382.65939
G1 X39.002 Y45.103 E382.80055
G1 X39.900 Y45.103 E382.84318
G1 X41.104 Y43.899 E382.92405
G1 X41.104 Y44.797 E382.96668
G1 X40.797 Y45.103 E382.98727
G1 Z0.800 F4200.000
G1 X8.515 Y4.516 F4200.000
G1 X41.485 Y4.516 E384.53751 F3000.000
G1 X41.485 Y45.484 E386.46384
G1 X8.515 Y45.484 E388.01407
G1 X8.515 Y4.576 E389.93758
G1 X7.887 Y3.888 F4200.000
G1 X42.113 Y3.888 E391.54691 F3000.000
G1 X42.113 Y46.112 E393.53233
G1 X7.887 Y46.112 E395.14165
G1 X7.887 Y3.948 E397.12425
G1 X7.259 Y3.259 F4200.000
G1 X42.741 Y3.259 E398.79266 F3000.000
G1 X42.741 Y46.741 E400.83717
G1 X7.259 Y46.741 E402.50558
G1 X7.259 Y3.319 E404.54727
G1 X6.766 Y2.767 F4200.000
G1 X43.234 Y2.767 E405.52178 F1500.000
G1 X43.234 Y47.233 E406.71002
G1 X6.766 Y47.233 E407.68453
G1 X6.766 Y2.827 E408.87117
G1 X7.112 Y2.967 F4200.000
G1 X41.104 Y5.203 F4200.000
G1 X40.797 Y4.897 E408.89176 F1200.000
G1 X39.900 Y4.897 E408.93439
G1 X41.104 Y6.101 E409.01526
G1 X41.104 Y6.998 E409.05789
G1 X39.002 Y4.897 E409.19904
G1 X38.105 Y4.897 E409.24167
G1 X41.104 Y7.896 E409.44311
G1 X41.104 Y8.793 E409.48573
G1 X37.207 Y4.897 E409.74746
G1 X36.310 Y4.897 E409.79008
G1 X41.104 Y9.691 E410.11209
G1 X41.104 Y10.588 E410.15471
G1 X35.412 Y4.897 E410.53700
G1 X34.515 Y4.897 E410.57963
G1 X41.104 Y11.486 E411.02220
G1 X41.104 Y12.383 E411.06482
G1 X33.617 Y4.897 E411.56767
G1 X32.720 Y4.897 E411.61030
G1 X41.104 Y13.281 E412.17343
G1 X41.104 Y14.179 E412.21606
G1 X31.822 Y4.897 E412.83948
G1 X30.925 Y4.897 E412.88210
G1 X41.104 Y15.076 E413.56580
G1 X41.104 Y15.974 E413.60843
G1 X30.027 Y4.897 E414.35241
G1 X29.130 Y4.897 E414.39504
G1 X41.104 Y16.871 E415.19930
G1 X41.104 Y17.769 E415.24193
G1 X28.232 Y4.897 E416.10647
G1 X27.335 Y4.897 E416.14910
G1 X41.104 Y18.666 E417.07393
G1 X41.104 Y19.564 E417.11656
G1 X26.437 Y4.897 E418.10167
G1 X25.540 Y4.897 E418.14430
G1 X41.104 Y20.461 E419.18969
G1 X41.104 Y21.359 E419.23232
G1 X24.642 Y4.897 E420.33799
G1 X23.745 Y4.897 E420.38062
G1 X41.104 Y22.256 E421.54658
G1 X41.104 Y23.154 E421.58921
G1 X22.847 Y4.897 E422.81545
G1 X21.950 Y4.897 E422.85807
G1 X41.104 Y24.051 E424.14460
G1 X41.104 Y24.949 E424.18723
G1 X21.052 Y4.897 E425.53403
G1 X20.155 Y4.897 E425.57666
G1 X41.104 Y25.846 E426.98375
G1 X41.104 Y26.744 E427.02638
G1 X19.257 Y4.897 E428.49375
G1 X18.359 Y4.897 E428.53638
G1 X41.104 Y27.641 E430.06403
G1 X41.104 Y28.539 E430.10666
G1 X17.462 Y4.897 E431.69460
G1 X16.564 Y4.897 E431.73722
G1 X41.104 Y29.436 E433.38544
G1 X41.104 Y30.334 E433.42807
G1 X15.667 Y4.897 E435.13657
G1 X14.769 Y4.897 E435.17920
G1 X41.104 Y31.231 E436.94798
G1 X41.104 Y32.129 E436.99061
G1 X13.872 Y4.897 E438.81968
G1 X12.974 Y4.897 E438.86230
G1 X41.104 Y33.026 E440.75165
G1 X41.104 Y33.924 E440.79428
G1 X12.077 Y4.897 E442.74391
G1 X11.179 Y4.897 E442.78654
G1 X41.104 Y34.821 E444.79646
G1 X41.104 Y35.719 E444.83908
G1 X10.282 Y4.897 E446.90928
G1 X9.384 Y4.897 E446.95191
G1 X41.104 Y36.616 E449.08239
G1 X41.104 Y37.514 E449.12501
G1 X8.896 Y5.306 E451.28829
G1 X8.896 Y6.204 E451.33092
G1 X41.104 Y38.411 E453.49420
G1 X41.104 Y39.309 E453.53682
G1 X8.896 Y7.101 E455.70010
G1 X8.896 Y7.999 E455.74273
G1 X41.104 Y40.206 E457.90600
G1 X41.104 Y41.104 E457.94863
G1 X8.896 Y8.896 E460.11191
G1 X8.896 Y9.794 E460.15453
G1 X41.104 Y42.002 E462.31781
G1 X41.104 Y42.899 E462.36044
G1 X8.896 Y10.691 E464.52371
G1 X8.896 Y11.589 E464.56634
G1 X41.104 Y43.797 E466.72962
G1 X41.104 Y44.694 E466.77224
G1 X8.896 Y12.486 E468.93552
G1 X8.896 Y13.384 E468.97815
G1 X40.616 Y45.103 E471.10862
G1 X39.718 Y45.103 E471.15125
G1 X8.896 Y14.281 E473.22144
G1 X8.896 Y15.179 E473.26407
G1 X38.821 Y45.103 E475.27398
G1 X37.923 Y45.103 E475.31661
G1 X8.896 Y16.076 E477.26624
G1 X8.896 Y16.974 E477.30886
G1 X37.026 Y45.103 E479.19821
G1 X36.128 Y45.103 E479.24084
G1 X8.896 Y17.871 E481.06990
G1 X8.896 Y18.769 E481.11253
G1 X35.231 Y45.103 E482.88131
G1 X34.333 Y45.103 E482.92393
G1 X8.896 Y19.666 E484.63243
G1 X8.896 Y20.564 E484.67506
G1 X33.435 Y45.103 E486.32327
G1 X32.538 Y45.103 E486.36590
G1 X8.896 Y21.461 E487.95383
G1 X8.896 Y22.359 E487.99646
G1 X31.640 Y45.103 E489.52411
G1 X30.743 Y45.103 E489.56673
G1 X8.896 Y23.256 E491.03410
G1 X8.896 Y24.154 E491.07673
G1 X29.845 Y45.103 E492.48381
G1 X28.948 Y45.103 E492.52644
G1 X8.896 Y25.051 E493.87324
G1 X8.896 Y25.949 E493.91587
