; generated by Slic3r 1.2.9 on 2018-12-12 at 19:14:45

; external perimeters extrusion width = 0.40mm
; perimeters extrusion width = 0.67mm
; infill extrusion width = 0.67mm
; solid infill extrusion width = 0.67mm
; top infill extrusion width = 0.67mm
; support material extrusion width = 0.40mm

M107
M140 S0 ;heated bed heater off (if you have it)
G21 ;metric values
G90 ;absolute positioning
M107 ;start with the fan off
G29
M140 S0 ;heated bed heater off (if you have it)
M104 S190 ; set extruder temp
M109 S190 ; wait for extruder temp
M140 S0 ;heated bed heater off (if you have it)
G1 Z15.0 F{travel_speed} ;move the platform down 15mm
G1 F{travel_speed}
;Put printing message on LCD screen
M117 Printing...
G21 ; set units to millimeters
G90 ; use absolute coordinates
M82 ; use absolute distances for extrusion
G92 E0
G1 Z0.350 F4200.000
G1 E-4.50000 F2400.00000
G92 E0
G1 X75.417 Y81.734 F4200.000
G1 E4.50000 F2400.00000
G1 X77.170 Y80.255 E4.68769 F1800.000
G1 X79.322 Y79.462 E4.87538
G1 X80.502 Y79.356 E4.97231
G1 X139.392 Y79.356 E9.79169
G1 X141.651 Y79.753 E9.97938
G1 X143.639 Y80.896 E10.16706 F1800.000
G1 X145.118 Y82.649 E10.35475
G1 X145.911 Y84.801 E10.54244
G1 X146.017 Y85.981 E10.63938
G1 X146.017 Y133.936 E14.56391
G1 X145.620 Y136.195 E14.75160
G1 X144.476 Y138.183 E14.93929
G1 X142.724 Y139.663 E15.12697
G1 X140.572 Y140.455 E15.31466
G1 X139.392 Y140.561 E15.41160
G1 X80.502 Y140.561 E20.23097
G1 X78.243 Y140.164 E20.41866
G1 X76.255 Y139.021 E20.60635
G1 X74.776 Y137.268 E20.79404
G1 X73.983 Y135.116 E20.98173
G1 X73.877 Y133.936 E21.07867
G1 X73.877 Y85.981 E25.00320
G1 X74.274 Y83.722 E25.19088
G1 X75.387 Y81.786 E25.37366
G1 E20.87366 F2400.00000
G92 E0
G1 X137.167 Y131.712 F4200.000
G1 E4.50000 F2400.00000
G1 X82.726 Y131.712 E8.95526 F1800.000
G1 X82.726 Y88.205 E12.51567
G1 X137.167 Y88.205 E16.97092
G1 X137.167 Y131.652 E20.52643
G1 X137.792 Y132.337 F4200.000
G1 X82.102 Y132.337 E25.08396 F1800.000
G1 X82.102 Y87.581 E28.74665
G1 X137.792 Y87.581 E33.30418
G1 X137.792 Y132.277 E36.96196
G1 X138.417 Y132.962 F4200.000
G1 X81.477 Y132.962 E41.62177 F1800.000
G1 X81.477 Y86.956 E45.38674
G1 X138.417 Y86.956 E50.04655
G1 X138.417 Y132.902 E53.80661
G1 X139.042 Y133.586 F4200.000
G1 X80.852 Y133.586 E58.56870 F1800.000
G1 X80.852 Y86.331 E62.43594
G1 X139.042 Y86.331 E67.19803
G1 X139.042 Y133.526 E71.06036
G1 X138.696 Y133.386 F4200.000
G1 X136.789 Y88.889 F4200.000
G1 X136.484 Y88.584 E71.09582 F1800.000
G1 X135.596 Y88.584 E71.16872
G1 X136.789 Y89.776 E71.30726
G1 X136.789 Y90.664 E71.38016
G1 X134.709 Y88.584 E71.62180
G1 X133.822 Y88.584 E71.69470
G1 X136.789 Y91.551 E72.03944
G1 X136.789 Y92.438 E72.11234
G1 X132.935 Y88.584 E72.56017
G1 X132.047 Y88.584 E72.63307
G1 X136.789 Y93.325 E73.18399
G1 X136.789 Y94.213 E73.25689
G1 X131.160 Y88.584 E73.91091
G1 X130.273 Y88.584 E73.98380
G1 X136.789 Y95.100 E74.74092
G1 X136.789 Y95.987 E74.81382
G1 X129.386 Y88.584 E75.67402
G1 X128.498 Y88.584 E75.74692
G1 X136.789 Y96.874 E76.71022
G1 X136.789 Y97.762 E76.78312
G1 X127.611 Y88.584 E77.84952
G1 X126.724 Y88.584 E77.92241
G1 X136.789 Y98.649 E79.09190
G1 X136.789 Y99.536 E79.16480
G1 X125.837 Y88.584 E80.43738
G1 X124.949 Y88.584 E80.51028
G1 X136.789 Y100.423 E81.88596
G1 X136.789 Y101.311 E81.95886
G1 X124.062 Y88.584 E83.43763
G1 X123.175 Y88.584 E83.51053
G1 X136.789 Y102.198 E85.09239
G1 X136.789 Y103.085 E85.16529
G1 X122.288 Y88.584 E86.85025
G1 X121.400 Y88.584 E86.92315
G1 X136.789 Y103.972 E88.71121
G1 X136.789 Y104.860 E88.78410
G1 X120.513 Y88.584 E90.67525
G1 X119.626 Y88.584 E90.74815
G1 X136.789 Y105.747 E92.74239
G1 X136.789 Y106.634 E92.81529
G1 X118.739 Y88.584 E94.91263
G1 X117.851 Y88.584 E94.98553
G1 X136.789 Y107.521 E97.18596
G1 X136.789 Y108.409 E97.25885
G1 X116.964 Y88.584 E99.56238
G1 X116.077 Y88.584 E99.63528
G1 X136.789 Y109.296 E102.04190
G1 X136.789 Y110.183 E102.11480
G1 X115.190 Y88.584 E104.62451
G1 X114.302 Y88.584 E104.69741
G1 X136.789 Y111.070 E107.31021
G1 X136.789 Y111.958 E107.38311
G1 X113.415 Y88.584 E110.09901
G1 X112.528 Y88.584 E110.17191
G1 X136.789 Y112.845 E112.99091
G1 X136.789 Y113.732 E113.06381
G1 X111.641 Y88.584 E115.98590
G1 X110.753 Y88.584 E116.05879
G1 X136.789 Y114.619 E119.08398
G1 X136.789 Y115.507 E119.15688
G1 X109.866 Y88.584 E122.28515
G1 X108.979 Y88.584 E122.35805
G1 X136.789 Y116.394 E125.58942
G1 X136.789 Y117.281 E125.66232
G1 X108.092 Y88.584 E128.99679
G1 X107.204 Y88.584 E129.06969
G1 X136.789 Y118.168 E132.50725
G1 X136.789 Y119.056 E132.58015
G1 X106.317 Y88.584 E136.12080
G1 X105.430 Y88.584 E136.19370
G1 X136.789 Y119.943 E139.83745
G1 X136.789 Y120.830 E139.91035
G1 X104.543 Y88.584 E143.65719
G1 X103.655 Y88.584 E143.73009
G1 X136.789 Y121.717 E147.58002
G1 X136.789 Y122.605 E147.65292
G1 X102.768 Y88.584 E151.60595
G1 X101.881 Y88.584 E151.67885
G1 X136.789 Y123.492 E155.73498
G1 X136.789 Y124.379 E155.80787
G1 X100.994 Y88.584 E159.96709
G1 X100.106 Y88.584 E160.03999
G1 X136.789 Y125.266 E164.30231
G1 X136.789 Y126.154 E164.37520
G1 X99.219 Y88.584 E168.74061
G1 X98.332 Y88.584 E168.81351
G1 X136.789 Y127.041 E173.28201
G1 X136.789 Y127.928 E173.35491
G1 X97.445 Y88.584 E177.92651
G1 X96.557 Y88.584 E177.99940
G1 X136.789 Y128.815 E182.67409
G1 X136.789 Y129.703 E182.74699
G1 X95.670 Y88.584 E187.52478
G1 X94.783 Y88.584 E187.59768
G1 X136.789 Y130.590 E192.47855
G1 X136.645 Y131.333 E192.54077
G1 X93.896 Y88.584 E197.50803
G1 X93.008 Y88.584 E197.58093
G1 X135.758 Y131.333 E202.54819
G1 X134.870 Y131.333 E202.62109
G1 X92.121 Y88.584 E207.58835
G1 X91.234 Y88.584 E207.66125
G1 X133.983 Y131.333 E212.62851
G1 X133.096 Y131.333 E212.70141
G1 X90.347 Y88.584 E217.66867
G1 X89.459 Y88.584 E217.74157
G1 X132.209 Y131.333 E222.70884
G1 X131.321 Y131.333 E222.78173
G1 X88.572 Y88.584 E227.74900
G1 X87.685 Y88.584 E227.82189
G1 X130.434 Y131.333 E232.78916
G1 X129.547 Y131.333 E232.86206
G1 X86.798 Y88.584 E237.82932
G1 X85.910 Y88.584 E237.90222
G1 X128.660 Y131.333 E242.86948
G1 X127.772 Y131.333 E242.94238
G1 X85.023 Y88.584 E247.90964
G1 X84.136 Y88.584 E247.98254
G1 X126.885 Y131.333 E252.94980
G1 X125.998 Y131.333 E253.02270
G1 X83.249 Y88.584 E257.98996
G1 X83.105 Y89.328 E258.05218
G1 X125.111 Y131.333 E262.93305
G1 X124.223 Y131.333 E263.00595
G1 X83.105 Y90.215 E267.78373
G1 X83.105 Y91.102 E267.85662
G1 X123.336 Y131.333 E272.53131
G1 X122.449 Y131.333 E272.60421
G1 X83.105 Y91.989 E277.17579
G1 X83.105 Y92.877 E277.24869
G1 X121.562 Y131.333 E281.71719
G1 X120.674 Y131.333 E281.79009
G1 X83.105 Y93.764 E286.15549
G1 X83.105 Y94.651 E286.22838
G1 X119.787 Y131.333 E290.49069
G1 X118.900 Y131.333 E290.56359
G1 X83.105 Y95.538 E294.72280
G1 X83.105 Y96.425 E294.79570
G1 X118.013 Y131.333 E298.85182
G1 X117.125 Y131.333 E298.92472
G1 X83.105 Y97.313 E302.87774
G1 X83.105 Y98.200 E302.95064
G1 X116.238 Y131.333 E306.80057
G1 X115.351 Y131.333 E306.87347
G1 X83.105 Y99.087 E310.62030
G1 X83.105 Y99.974 E310.69320
G1 X114.464 Y131.333 E314.33694
G1 X113.576 Y131.333 E314.40984
G1 X83.105 Y100.862 E317.95049
G1 X83.105 Y101.749 E318.02339
G1 X112.689 Y131.333 E321.46094
G1 X111.802 Y131.333 E321.53384
G1 X83.105 Y102.636 E324.86830
G1 X83.105 Y103.523 E324.94119
G1 X110.915 Y131.333 E328.17256
G1 X110.027 Y131.333 E328.24546
G1 X83.105 Y104.411 E331.37373
G1 X83.105 Y105.298 E331.44663
G1 X109.140 Y131.333 E334.47180
G1 X108.253 Y131.333 E334.54470
G1 X83.105 Y106.185 E337.46678
G1 X83.105 Y107.072 E337.53968
G1 X107.366 Y131.333 E340.35867
G1 X106.478 Y131.333 E340.43157
G1 X83.105 Y107.960 E343.14746
G1 X83.105 Y108.847 E343.22036
G1 X105.591 Y131.333 E345.83316
G1 X104.704 Y131.333 E345.90606
G1 X83.105 Y109.734 E348.41577
G1 X83.105 Y110.621 E348.48866
G1 X103.817 Y131.333 E350.89528
G1 X102.929 Y131.333 E350.96817
G1 X83.105 Y111.509 E353.27169
G1 X83.105 Y112.396 E353.34459
G1 X102.042 Y131.333 E355.54501
G1 X101.155 Y131.333 E355.61791
G1 X83.105 Y113.283 E357.71524
G1 X83.105 Y114.170 E357.78814
G1 X100.268 Y131.333 E359.78238
G1 X99.381 Y131.333 E359.85527
G1 X83.105 Y115.058 E361.74642
G1 X83.105 Y115.945 E361.81931
G1 X98.493 Y131.333 E363.60736
G1 X97.606 Y131.333 E363.68026
G1 X83.105 Y116.832 E365.36521
G1 X83.105 Y117.719 E365.43811
G1 X96.719 Y131.333 E367.01997
G1 X95.832 Y131.333 E367.09287
G1 X83.105 Y118.607 E368.57163
G1 X83.105 Y119.494 E368.64453
G1 X94.944 Y131.333 E370.02020
G1 X94.057 Y131.333 E370.09310
G1 X83.105 Y120.381 E371.36568
G1 X83.105 Y121.268 E371.43858
G1 X93.170 Y131.333 E372.60806
G1 X92.283 Y131.333 E372.68096
G1 X83.105 Y122.156 E373.74734
G1 X83.105 Y123.043 E373.82024
G1 X91.395 Y131.333 E374.78354
G1 X90.508 Y131.333 E374.85643
G1 X83.105 Y123.930 E375.71663
G1 X83.105 Y124.817 E375.78953
G1 X89.621 Y131.333 E376.54664
G1 X88.734 Y131.333 E376.61954
G1 X83.105 Y125.705 E377.27355
G1 X83.105 Y126.592 E377.34645
G1 X87.846 Y131.333 E377.89736
G1 X86.959 Y131.333 E377.97026
G1 X83.105 Y127.479 E378.41809
G1 X83.105 Y128.366 E378.49098
G1 X86.072 Y131.333 E378.83571
G1 X85.185 Y131.333 E378.90861
G1 X83.105 Y129.254 E379.15025
G1 X83.105 Y130.141 E379.22315
G1 X84.297 Y131.333 E379.36169
G1 X83.410 Y131.333 E379.43459
G1 X83.105 Y131.028 E379.47003
G1 Z0.350 F4200.000
M140 S45 ; wait for bed temperature to be reached
G1 Z0.550 F4200.000
G1 X137.443 Y131.987 F4200.000
G1 X82.451 Y131.987 E382.05576 F3000.000
G1 X82.451 Y87.930 E384.12733
G1 X137.443 Y87.930 E386.71306
G1 X137.443 Y131.927 E388.78182
G1 X138.071 Y132.615 F4200.000
G1 X81.823 Y132.615 E391.42663 F3000.000
G1 X81.823 Y87.302 E393.55729
G1 X138.071 Y87.302 E396.20211
G1 X138.071 Y132.555 E398.32995
G1 X138.699 Y133.244 F4200.000
G1 X81.194 Y133.244 E401.03385 F3000.000
G1 X81.194 Y86.673 E403.22360
G1 X138.699 Y86.673 E405.92750
G1 X138.699 Y133.184 E408.11443
G1 X139.192 Y133.736 F4200.000
G1 X80.702 Y133.736 E409.67742 F1500.000
G1 X80.702 Y86.181 E410.94821
G1 X139.192 Y86.181 E412.51119
G1 X139.192 Y133.676 E413.78038
G1 X138.846 Y133.536 F4200.000
G1 X136.755 Y131.606 F4200.000
G1 X137.062 Y131.300 E413.80078 F1200.000
G1 X137.062 Y130.411 E413.84261
G1 X135.866 Y131.606 E413.92217
G1 X134.977 Y131.606 E413.96400
G1 X137.062 Y129.522 E414.10271
G1 X137.062 Y128.632 E414.14454
G1 X134.088 Y131.606 E414.34241
G1 X133.199 Y131.606 E414.38425
G1 X137.062 Y127.743 E414.64127
G1 X137.062 Y126.854 E414.68311
G1 X132.310 Y131.606 E414.99929
G1 X131.421 Y131.606 E415.04112
G1 X137.062 Y125.965 E415.41647
G1 X137.062 Y125.076 E415.45830
G1 X130.532 Y131.606 E415.89280
G1 X129.642 Y131.606 E415.93463
G1 X137.062 Y124.187 E416.42830
G1 X137.062 Y123.298 E416.47013
G1 X128.753 Y131.606 E417.02295
G1 X127.864 Y131.606 E417.06478
G1 X137.062 Y122.409 E417.67675
G1 X137.062 Y121.520 E417.71858
G1 X126.975 Y131.606 E418.38972
G1 X126.086 Y131.606 E418.43155
G1 X137.062 Y120.631 E419.16184
G1 X137.062 Y119.741 E419.20367
G1 X125.197 Y131.606 E419.99312
G1 X124.308 Y131.606 E420.03495
G1 X137.062 Y118.852 E420.88356
G1 X137.062 Y117.963 E420.92539
G1 X123.419 Y131.606 E421.83316
G1 X122.530 Y131.606 E421.87499
G1 X137.062 Y117.074 E422.84191
G1 X137.062 Y116.185 E422.88375
G1 X121.640 Y131.606 E423.90983
G1 X120.751 Y131.606 E423.95166
G1 X137.062 Y115.296 E425.03690
G1 X137.062 Y114.407 E425.07873
G1 X119.862 Y131.606 E426.22313
G1 X118.973 Y131.606 E426.26496
G1 X137.062 Y113.518 E427.46851
G1 X137.062 Y112.629 E427.51034
G1 X118.084 Y131.606 E428.77306
G1 X117.195 Y131.606 E428.81489
G1 X137.062 Y111.739 E430.13676
G1 X137.062 Y110.850 E430.17859
G1 X116.306 Y131.606 E431.55962
G1 X115.417 Y131.606 E431.60145
G1 X137.062 Y109.961 E433.04164
G1 X137.062 Y109.072 E433.08347
G1 X114.528 Y131.606 E434.58281
G1 X113.639 Y131.606 E434.62464
G1 X137.062 Y108.183 E436.18314
G1 X137.062 Y107.294 E436.22497
G1 X112.749 Y131.606 E437.84263
G1 X111.860 Y131.606 E437.88447
G1 X137.062 Y106.405 E439.56128
G1 X137.062 Y105.516 E439.60311
G1 X110.971 Y131.606 E441.33909
G1 X110.082 Y131.606 E441.38092
G1 X137.062 Y104.627 E443.17605
G1 X137.062 Y103.738 E443.21789
G1 X109.193 Y131.606 E445.07218
G1 X108.304 Y131.606 E445.11401
G1 X137.062 Y102.848 E447.02746
G1 X137.062 Y101.959 E447.06929
G1 X107.415 Y131.606 E449.04190
G1 X106.526 Y131.606 E449.08373
G1 X137.062 Y101.070 E451.11549
G1 X137.062 Y100.181 E451.15732
G1 X105.637 Y131.606 E453.24825
G1 X104.747 Y131.606 E453.29008
G1 X137.062 Y99.292 E455.44016
G1 X137.062 Y98.403 E455.48199
G1 X103.858 Y131.606 E457.69123
G1 X102.969 Y131.606 E457.73306
G1 X137.062 Y97.514 E460.00145
G1 X137.062 Y96.625 E460.04328
G1 X102.080 Y131.606 E462.37084
G1 X101.191 Y131.606 E462.41267
G1 X137.062 Y95.736 E464.79938
G1 X137.062 Y94.846 E464.84121
G1 X100.302 Y131.606 E467.28708
G1 X99.413 Y131.606 E467.32891
G1 X137.062 Y93.957 E469.83394
G1 X137.062 Y93.068 E469.87577
G1 X98.524 Y131.606 E472.43996
G1 X97.635 Y131.606 E472.48179
G1 X137.062 Y92.179 E475.10513
G1 X137.062 Y91.290 E475.14696
G1 X96.746 Y131.606 E477.82947
G1 X95.856 Y131.606 E477.87130
G1 X137.062 Y90.401 E480.61296
G1 X137.062 Y89.512 E480.65479
G1 X94.967 Y131.606 E483.45560
G1 X94.078 Y131.606 E483.49743
G1 X137.062 Y88.623 E486.35741
G1 X136.485 Y88.311 E486.38828
G1 X93.189 Y131.606 E489.26900
G1 X92.300 Y131.606 E489.31083
G1 X135.596 Y88.311 E492.19156
G1 X134.706 Y88.311 E492.23339
G1 X91.411 Y131.606 E495.11412
G1 X90.522 Y131.606 E495.15595
G1 X133.817 Y88.311 E498.03667
G1 X132.928 Y88.311 E498.07850
G1 X89.633 Y131.606 E500.95923
G1 X88.744 Y131.606 E501.00106
G1 X132.039 Y88.311 E503.88179
G1 X131.150 Y88.311 E503.92362
G1 X87.855 Y131.606 E506.80434
G1 X86.965 Y131.606 E506.84617
G1 X130.261 Y88.311 E509.72690
G1 X129.372 Y88.311 E509.76873
G1 X86.076 Y131.606 E512.64946
G1 X85.187 Y131.606 E512.69129
G1 X128.483 Y88.311 E515.57201
G1 X127.594 Y88.311 E515.61385
G1 X84.298 Y131.606 E518.49457
G1 X83.409 Y131.606 E518.53640
G1 X126.704 Y88.311 E521.41713
G1 X125.815 Y88.311 E521.45896
G1 X82.832 Y131.294 E524.31893
G1 X82.832 Y130.405 E524.36076
G1 X124.926 Y88.311 E527.16157
G1 X124.037 Y88.311 E527.20340
G1 X82.832 Y129.516 E529.94505
G1 X82.832 Y128.627 E529.98688
G1 X123.148 Y88.311 E532.66938
G1 X122.259 Y88.311 E532.71121
G1 X82.832 Y127.738 E535.33455
G1 X82.832 Y126.849 E535.37638
G1 X121.370 Y88.311 E537.94056
G1 X120.481 Y88.311 E537.98239
G1 X82.832 Y125.960 E540.48741
G1 X82.832 Y125.071 E540.52924
G1 X119.592 Y88.311 E542.97511
G1 X118.703 Y88.311 E543.01694
G1 X82.832 Y124.182 E545.40364
G1 X82.832 Y123.292 E545.44547
G1 X117.813 Y88.311 E547.77302
G1 X116.924 Y88.311 E547.81485
G1 X82.832 Y122.403 E550.08324
G1 X82.832 Y121.514 E550.12507
G1 X116.035 Y88.311 E552.33431
G1 X115.146 Y88.311 E552.37614
G1 X82.832 Y120.625 E554.52621
G1 X82.832 Y119.736 E554.56804
G1 X114.257 Y88.311 E556.65896
G1 X113.368 Y88.311 E556.70079
G1 X82.832 Y118.847 E558.73255
G1 X82.832 Y117.958 E558.77438
G1 X112.479 Y88.311 E560.74698
G1 X111.590 Y88.311 E560.78881
G1 X82.832 Y117.069 E562.70225
G1 X82.832 Y116.180 E562.74408
G1 X110.701 Y88.311 E564.59837
G1 X109.811 Y88.311 E564.64020
G1 X82.832 Y115.290 E566.43533
G1 X82.832 Y114.401 E566.47716
G1 X108.922 Y88.311 E568.21313
G1 X108.033 Y88.311 E568.25496
G1 X82.832 Y113.512 E569.93177
G1 X82.832 Y112.623 E569.97360
G1 X107.144 Y88.311 E571.59126
G1 X106.255 Y88.311 E571.63309
G1 X82.832 Y111.734 E573.19158
G1 X82.832 Y110.845 E573.23341
G1 X105.366 Y88.311 E574.73275
G1 X104.477 Y88.311 E574.77458
G1 X82.832 Y109.956 E576.21476
G1 X82.832 Y109.067 E576.25659
G1 X103.588 Y88.311 E577.63762
G1 X102.699 Y88.311 E577.67945
G1 X82.832 Y108.178 E579.00131
G1 X82.832 Y107.289 E579.04314
G1 X101.810 Y88.311 E580.30585
G1 X100.920 Y88.311 E580.34768
G1 X82.832 Y106.399 E581.55123
G1 X82.832 Y105.510 E581.59306
G1 X100.031 Y88.311 E582.73745
G1 X99.142 Y88.311 E582.77928
G1 X82.832 Y104.621 E583.86452
G1 X82.832 Y103.732 E583.90635
G1 X98.253 Y88.311 E584.93242
G1 X97.364 Y88.311 E584.97425
G1 X82.832 Y102.843 E585.94117
G1 X82.832 Y101.954 E585.98300
G1 X96.475 Y88.311 E586.89076
G1 X95.586 Y88.311 E586.93259
G1 X82.832 Y101.065 E587.78119
