; generated by Slic3r 1.2.9 on 2018-11-18 at 00:19:11

; external perimeters extrusion width = 0.40mm
; perimeters extrusion width = 0.67mm
; infill extrusion width = 0.67mm
; solid infill extrusion width = 0.67mm
; top infill extrusion width = 0.67mm
; support material extrusion width = 0.40mm

M107
M140 S0 ;heated bed heater off (if you have it)
G21 ;metric values
G90 ;absolute positioning
M107 ;start with the fan off
G29
M140 S0 ;heated bed heater off (if you have it)
M104 S190 ; set extruder temp
M109 S190 ; wait for extruder temp
M140 S0 ;heated bed heater off (if you have it)
G1 Z15.0 F{travel_speed} ;move the platform down 15mm
G1 F{travel_speed}
;Put printing message on LCD screen
M117 Printing...
G21 ; set units to millimeters
G90 ; use absolute coordinates
M82 ; use absolute distances for extrusion
G92 E0
G1 Z0.400 F4200.000
G1 E-4.50000 F2400.00000
G92 E0
G1 X5.066 Y2.890 F4200.000
G1 E4.50000 F2400.00000
G1 X5.958 Y1.327 E4.69239 F1800.000
G1 X7.714 Y-0.173 E4.93919
G1 X9.874 Y-0.988 E5.18600
G1 X11.131 Y-1.107 E5.32097
G1 X55.749 Y-1.107 E10.09005
G1 X58.936 Y-1.107 E10.43070 F1800.000
G1 X61.210 Y-0.710 E10.67750
G1 X63.216 Y0.434 E10.92430
G1 X64.715 Y2.190 E11.17111
G1 X65.531 Y4.350 E11.41791
G1 X65.650 Y5.607 E11.55288
G1 X65.650 Y64.472 E17.84485
G1 X65.253 Y66.746 E18.09166
G1 X64.109 Y68.752 E18.33846
G1 X62.353 Y70.251 E18.58526
G1 X60.193 Y71.067 E18.83206
G1 X58.936 Y71.186 E18.96703
G1 X11.131 Y71.186 E24.07677
G1 X8.857 Y70.789 E24.32357
G1 X6.851 Y69.645 E24.57037
G1 X5.352 Y67.889 E24.81717
G1 X4.536 Y65.729 E25.06398
G1 X4.417 Y64.472 E25.19895
G1 X4.417 Y5.607 E31.49092
G1 X4.814 Y3.332 E31.73772
G1 X5.037 Y2.942 E31.78572
G1 E27.28572 F2400.00000
G92 E0
G1 X13.674 Y8.149 F4200.000
G1 E4.50000 F2400.00000
G1 X56.393 Y8.149 E9.06621 F1800.000
G1 X56.393 Y61.929 E14.81467
G1 X13.674 Y61.929 E19.38088
G1 X13.674 Y8.209 E25.12293
G1 X12.960 Y7.435 F4200.000
G1 X57.107 Y7.435 E29.84181 F1800.000
G1 X57.107 Y62.643 E35.74294
G1 X12.960 Y62.643 E40.46182
G1 X12.960 Y7.495 E46.35653
G1 X12.245 Y6.721 F4200.000
G1 X57.821 Y6.721 E51.22809 F1800.000
G1 X57.821 Y63.358 E57.28189
G1 X12.245 Y63.358 E62.15344
G1 X12.245 Y6.781 E68.20083
G1 X11.531 Y6.007 F4200.000
G1 X58.536 Y6.007 E73.22505 F1800.000
G1 X58.536 Y64.072 E79.43152
G1 X11.531 Y64.072 E84.45575
G1 X11.531 Y6.067 E90.65580
G1 X11.878 Y6.207 F4200.000
G1 X55.958 Y8.928 F4200.000
G1 X55.615 Y8.585 E90.70773 F1800.000
G1 X54.603 Y8.585 E90.81602
G1 X55.958 Y9.939 E91.02108
G1 X55.958 Y10.951 E91.12937
G1 X53.592 Y8.585 E91.48757
G1 X52.580 Y8.585 E91.59586
G1 X55.958 Y11.962 E92.10720
G1 X55.958 Y12.974 E92.21548
G1 X51.569 Y8.585 E92.87996
G1 X50.557 Y8.585 E92.98825
G1 X55.958 Y13.986 E93.80587
G1 X55.958 Y14.997 E93.91415
G1 X49.546 Y8.585 E94.88491
G1 X48.534 Y8.585 E94.99320
G1 X55.958 Y16.009 E96.11709
G1 X55.958 Y17.020 E96.22538
G1 X47.523 Y8.585 E97.50241
G1 X46.511 Y8.585 E97.61070
G1 X55.958 Y18.032 E99.04087
G1 X55.958 Y19.043 E99.14916
G1 X45.499 Y8.585 E100.73247
G1 X44.488 Y8.585 E100.84075
G1 X55.958 Y20.055 E102.57720
G1 X55.958 Y21.066 E102.68549
G1 X43.476 Y8.585 E104.57508
G1 X42.465 Y8.585 E104.68336
G1 X55.958 Y22.078 E106.72609
G1 X55.958 Y23.089 E106.83437
G1 X41.453 Y8.585 E109.03024
G1 X40.442 Y8.585 E109.13852
G1 X55.958 Y24.101 E111.48753
G1 X55.958 Y25.112 E111.59581
G1 X39.430 Y8.585 E114.09795
G1 X38.419 Y8.585 E114.20624
G1 X55.958 Y26.124 E116.86152
G1 X55.958 Y27.135 E116.96980
G1 X37.407 Y8.585 E119.77822
G1 X36.396 Y8.585 E119.88651
G1 X55.958 Y28.147 E122.84806
G1 X55.958 Y29.158 E122.95635
G1 X35.384 Y8.585 E126.07104
G1 X34.373 Y8.585 E126.17933
G1 X55.958 Y30.170 E129.44716
G1 X55.958 Y31.181 E129.55545
G1 X33.361 Y8.585 E132.97642
G1 X32.350 Y8.585 E133.08470
G1 X55.958 Y32.193 E136.65881
G1 X55.958 Y33.204 E136.76710
G1 X31.338 Y8.585 E140.49435
G1 X30.327 Y8.585 E140.60263
G1 X55.958 Y34.216 E144.48302
G1 X55.958 Y35.227 E144.59131
G1 X29.315 Y8.585 E148.62483
G1 X28.304 Y8.585 E148.73312
G1 X55.958 Y36.239 E152.91978
G1 X55.958 Y37.250 E153.02807
G1 X27.292 Y8.585 E157.36787
G1 X26.281 Y8.585 E157.47615
G1 X55.958 Y38.262 E161.96909
G1 X55.958 Y39.273 E162.07738
G1 X25.269 Y8.585 E166.72346
G1 X24.258 Y8.585 E166.83174
G1 X55.958 Y40.285 E171.63096
G1 X55.958 Y41.296 E171.73925
G1 X23.246 Y8.585 E176.69160
G1 X22.235 Y8.585 E176.79989
G1 X55.958 Y42.308 E181.90538
G1 X55.958 Y43.320 E182.01367
G1 X21.223 Y8.585 E187.27230
G1 X20.212 Y8.585 E187.38059
G1 X55.958 Y44.331 E192.79236
G1 X55.958 Y45.343 E192.90064
G1 X19.200 Y8.585 E198.46555
G1 X18.188 Y8.585 E198.57384
G1 X55.958 Y46.354 E204.29188
G1 X55.958 Y47.366 E204.40017
G1 X17.177 Y8.585 E210.27136
G1 X16.165 Y8.585 E210.37964
G1 X55.958 Y48.377 E216.40397
G1 X55.958 Y49.389 E216.51225
G1 X15.154 Y8.585 E222.68971
G1 X14.146 Y8.588 E222.79763
G1 X55.958 Y50.400 E229.12771
G1 X55.958 Y51.412 E229.23599
G1 X14.109 Y9.563 E235.57160
G1 X14.109 Y10.575 E235.67989
G1 X55.958 Y52.423 E242.01550
G1 X55.958 Y53.435 E242.12378
G1 X14.109 Y11.586 E248.45939
G1 X14.109 Y12.598 E248.56768
G1 X55.958 Y54.446 E254.90329
G1 X55.958 Y55.458 E255.01157
G1 X14.109 Y13.609 E261.34718
G1 X14.109 Y14.621 E261.45547
G1 X55.958 Y56.469 E267.79108
G1 X55.958 Y57.481 E267.89936
G1 X14.109 Y15.632 E274.23497
G1 X14.109 Y16.644 E274.34326
G1 X55.958 Y58.492 E280.67886
G1 X55.958 Y59.504 E280.78715
G1 X14.109 Y17.656 E287.12276
G1 X14.109 Y18.667 E287.23104
G1 X55.958 Y60.515 E293.56665
G1 X55.921 Y61.490 E293.67110
G1 X14.109 Y19.679 E300.00117
G1 X14.109 Y20.690 E300.10946
G1 X54.913 Y61.494 E306.28692
G1 X53.901 Y61.494 E306.39520
G1 X14.109 Y21.702 E312.41952
G1 X14.109 Y22.713 E312.52781
G1 X52.890 Y61.494 E318.39899
G1 X51.878 Y61.494 E318.50727
G1 X14.109 Y23.725 E324.22532
G1 X14.109 Y24.736 E324.33360
G1 X50.867 Y61.494 E329.89851
G1 X49.855 Y61.494 E330.00679
G1 X14.109 Y25.748 E335.41856
G1 X14.109 Y26.759 E335.52684
G1 X48.844 Y61.494 E340.78547
G1 X47.832 Y61.494 E340.89376
G1 X14.109 Y27.771 E345.99925
G1 X14.109 Y28.782 E346.10753
G1 X46.821 Y61.494 E351.05988
G1 X45.809 Y61.494 E351.16817
G1 X14.109 Y29.794 E355.96738
G1 X14.109 Y30.805 E356.07567
G1 X44.798 Y61.494 E360.72174
G1 X43.786 Y61.494 E360.83003
G1 X14.109 Y31.817 E365.32296
G1 X14.109 Y32.828 E365.43125
G1 X42.775 Y61.494 E369.77104
G1 X41.763 Y61.494 E369.87933
G1 X14.109 Y33.840 E374.06599
G1 X14.109 Y34.851 E374.17427
G1 X40.752 Y61.494 E378.20779
G1 X39.740 Y61.494 E378.31608
G1 X14.109 Y35.863 E382.19646
G1 X14.109 Y36.874 E382.30475
G1 X38.729 Y61.494 E386.03199
G1 X37.717 Y61.494 E386.14028
G1 X14.109 Y37.886 E389.71438
G1 X14.109 Y38.897 E389.82267
G1 X36.706 Y61.494 E393.24363
G1 X35.694 Y61.494 E393.35192
G1 X14.109 Y39.909 E396.61975
G1 X14.109 Y40.920 E396.72803
G1 X34.683 Y61.494 E399.84272
G1 X33.671 Y61.494 E399.95101
G1 X14.109 Y41.932 E402.91256
G1 X14.109 Y42.943 E403.02084
G1 X32.660 Y61.494 E405.82926
G1 X31.648 Y61.494 E405.93754
G1 X14.109 Y43.955 E408.59282
G1 X14.109 Y44.966 E408.70110
G1 X30.637 Y61.494 E411.20324
G1 X29.625 Y61.494 E411.31153
G1 X14.109 Y45.978 E413.66052
G1 X14.109 Y46.990 E413.76881
G1 X28.614 Y61.494 E415.96467
G1 X27.602 Y61.494 E416.07295
G1 X14.109 Y48.001 E418.11567
G1 X14.109 Y49.013 E418.22396
G1 X26.590 Y61.494 E420.11354
G1 X25.579 Y61.494 E420.22183
G1 X14.109 Y50.024 E421.95827
G1 X14.109 Y51.036 E422.06656
G1 X24.567 Y61.494 E423.64986
G1 X23.556 Y61.494 E423.75815
G1 X14.109 Y52.047 E425.18832
G1 X14.109 Y53.059 E425.29660
G1 X22.544 Y61.494 E426.57363
G1 X21.533 Y61.494 E426.68192
G1 X14.109 Y54.070 E427.80581
G1 X14.109 Y55.082 E427.91409
G1 X20.521 Y61.494 E428.88485
G1 X19.510 Y61.494 E428.99313
G1 X14.109 Y56.093 E429.81074
G1 X14.109 Y57.105 E429.91903
G1 X18.498 Y61.494 E430.58351
G1 X17.487 Y61.494 E430.69179
G1 X14.109 Y58.116 E431.20313
G1 X14.109 Y59.128 E431.31141
G1 X16.475 Y61.494 E431.66961
G1 X15.464 Y61.494 E431.77790
G1 X14.109 Y60.139 E431.98296
G1 X14.109 Y61.151 E432.09124
G1 X14.452 Y61.494 E432.14317
G1 Z0.400 F4200.000
M140 S45 ; wait for bed temperature to be reached
G1 Z0.600 F4200.000
G1 X13.081 Y7.556 F4200.000
G1 X56.986 Y7.556 E434.20763 F3000.000
G1 X56.986 Y62.522 E436.79216
G1 X13.081 Y62.522 E438.85662
G1 X13.081 Y7.616 E441.43833
G1 X12.452 Y6.928 F4200.000
G1 X57.615 Y6.928 E443.56187 F3000.000
G1 X57.615 Y63.151 E446.20549
G1 X12.452 Y63.151 E448.32904
G1 X12.452 Y6.988 E450.96984
G1 X11.824 Y6.300 F4200.000
G1 X58.243 Y6.300 E453.15247 F3000.000
G1 X58.243 Y63.779 E455.85518
G1 X11.824 Y63.779 E458.03781
G1 X11.824 Y6.360 E460.73770
G1 X11.331 Y5.807 F4200.000
G1 X58.736 Y5.807 E462.00444 F1500.000
G1 X58.736 Y64.272 E463.56675
G1 X11.331 Y64.272 E464.83349
G1 X11.331 Y5.867 E466.39420
G1 X11.678 Y6.007 F4200.000
G1 X13.768 Y7.937 F4200.000
G1 X13.461 Y8.244 E466.41474 F1200.000
G1 X13.461 Y9.139 E466.45719
G1 X14.664 Y7.937 E466.53778
G1 X15.559 Y7.937 E466.58023
G1 X13.461 Y10.035 E466.72085
G1 X13.461 Y10.931 E466.76330
G1 X16.455 Y7.937 E466.96396
G1 X17.351 Y7.937 E467.00642
G1 X13.461 Y11.826 E467.26712
G1 X13.461 Y12.722 E467.30957
G1 X18.246 Y7.937 E467.63031
G1 X19.142 Y7.937 E467.67276
G1 X13.461 Y13.618 E468.05354
G1 X13.461 Y14.513 E468.09599
G1 X20.038 Y7.937 E468.53681
G1 X20.934 Y7.937 E468.57926
G1 X13.461 Y15.409 E469.08011
G1 X13.461 Y16.305 E469.12257
G1 X21.829 Y7.937 E469.68346
G1 X22.725 Y7.937 E469.72592
G1 X13.461 Y17.201 E470.34685
G1 X13.461 Y18.096 E470.38930
G1 X23.621 Y7.937 E471.07027
G1 X24.516 Y7.937 E471.11272
G1 X13.461 Y18.992 E471.85373
G1 X13.461 Y19.888 E471.89619
G1 X25.412 Y7.937 E472.69724
G1 X26.308 Y7.937 E472.73969
G1 X13.461 Y20.783 E473.60078
G1 X13.461 Y21.679 E473.64323
G1 X27.203 Y7.937 E474.56436
G1 X28.099 Y7.937 E474.60681
G1 X13.461 Y22.575 E475.58797
G1 X13.461 Y23.470 E475.63043
G1 X28.995 Y7.937 E476.67163
G1 X29.891 Y7.937 E476.71408
G1 X13.461 Y24.366 E477.81533
G1 X13.461 Y25.262 E477.85778
G1 X30.786 Y7.937 E479.01906
G1 X31.682 Y7.937 E479.06152
G1 X13.461 Y26.158 E480.28284
G1 X13.461 Y27.053 E480.32529
G1 X32.578 Y7.937 E481.60665
G1 X33.473 Y7.937 E481.64910
G1 X13.461 Y27.949 E482.99050
G1 X13.461 Y28.845 E483.03295
G1 X34.369 Y7.937 E484.43439
G1 X35.265 Y7.937 E484.47684
G1 X13.461 Y29.740 E485.93832
G1 X13.461 Y30.636 E485.98077
G1 X36.160 Y7.937 E487.50228
G1 X37.056 Y7.937 E487.54474
G1 X13.461 Y31.532 E489.12629
G1 X13.461 Y32.427 E489.16874
G1 X37.952 Y7.937 E490.81034
G1 X38.848 Y7.937 E490.85279
G1 X13.461 Y33.323 E492.55442
G1 X13.461 Y34.219 E492.59687
G1 X39.743 Y7.937 E494.35854
G1 X40.639 Y7.937 E494.40100
G1 X13.461 Y35.115 E496.22270
G1 X13.461 Y36.010 E496.26516
G1 X41.535 Y7.937 E498.14690
G1 X42.430 Y7.937 E498.18936
G1 X13.461 Y36.906 E500.13114
G1 X13.461 Y37.802 E500.17360
G1 X43.326 Y7.937 E502.17542
G1 X44.222 Y7.937 E502.21788
G1 X13.461 Y38.697 E504.27974
G1 X13.461 Y39.593 E504.32219
G1 X45.117 Y7.937 E506.44409
G1 X46.013 Y7.937 E506.48655
G1 X13.461 Y40.489 E508.66849
G1 X13.461 Y41.384 E508.71094
G1 X46.909 Y7.937 E510.95292
G1 X47.805 Y7.937 E510.99538
G1 X13.461 Y42.280 E513.29739
G1 X13.461 Y43.176 E513.33985
G1 X48.700 Y7.937 E515.70190
G1 X49.596 Y7.937 E515.74436
G1 X13.461 Y44.072 E518.16645
G1 X13.461 Y44.967 E518.20891
G1 X50.492 Y7.937 E520.69104
G1 X51.387 Y7.937 E520.73350
G1 X13.461 Y45.863 E523.27567
G1 X13.461 Y46.759 E523.31812
G1 X52.283 Y7.937 E525.92034
G1 X53.179 Y7.937 E525.96279
G1 X13.461 Y47.654 E528.62504
G1 X13.461 Y48.550 E528.66750
G1 X54.074 Y7.937 E531.38979
G1 X54.970 Y7.937 E531.43224
G1 X13.461 Y49.446 E534.21457
G1 X13.461 Y50.341 E534.25702
G1 X55.866 Y7.937 E537.09939
G1 X56.606 Y8.093 E537.13522
G1 X13.461 Y51.237 E540.02717
G1 X13.461 Y52.133 E540.06962
G1 X56.606 Y8.989 E542.96157
G1 X56.606 Y9.884 E543.00403
G1 X13.461 Y53.029 E545.89598
G1 X13.461 Y53.924 E545.93843
G1 X56.606 Y10.780 E548.83038
G1 X56.606 Y11.676 E548.87283
G1 X13.461 Y54.820 E551.76478
G1 X13.461 Y55.716 E551.80724
G1 X56.606 Y12.572 E554.69918
G1 X56.606 Y13.467 E554.74164
G1 X13.461 Y56.611 E557.63359
G1 X13.461 Y57.507 E557.67604
G1 X56.606 Y14.363 E560.56799
G1 X56.606 Y15.259 E560.61045
G1 X13.461 Y58.403 E563.50239
G1 X13.461 Y59.298 E563.54485
G1 X56.606 Y16.154 E566.43680
G1 X56.606 Y17.050 E566.47925
G1 X13.461 Y60.194 E569.37120
G1 X13.461 Y61.090 E569.41365
G1 X56.606 Y17.946 E572.30560
G1 X56.606 Y18.841 E572.34806
G1 X13.461 Y61.986 E575.24001
G1 X14.201 Y62.142 E575.27583
G1 X56.606 Y19.737 E578.11821
G1 X56.606 Y20.633 E578.16066
G1 X15.097 Y62.142 E580.94300
G1 X15.992 Y62.142 E580.98545
G1 X56.606 Y21.529 E583.70775
G1 X56.606 Y22.424 E583.75020
G1 X16.888 Y62.142 E586.41246
G1 X17.784 Y62.142 E586.45491
G1 X56.606 Y23.320 E589.05713
G1 X56.606 Y24.216 E589.09959
G1 X18.680 Y62.142 E591.64177
G1 X19.575 Y62.142 E591.68422
G1 X56.606 Y25.111 E594.16636
G1 X56.606 Y26.007 E594.20881
G1 X20.471 Y62.142 E596.63092
G1 X21.367 Y62.142 E596.67337
G1 X56.606 Y26.903 E599.03543
G1 X56.606 Y27.798 E599.07789
G1 X22.262 Y62.142 E601.37991
G1 X23.158 Y62.142 E601.42237
G1 X56.606 Y28.694 E603.66435
G1 X56.606 Y29.590 E603.70681
G1 X24.054 Y62.142 E605.88875
G1 X24.949 Y62.142 E605.93121
G1 X56.606 Y30.486 E608.05311
G1 X56.606 Y31.381 E608.09557
G1 X25.845 Y62.142 E610.15744
G1 X26.741 Y62.142 E610.19989
G1 X56.606 Y32.277 E612.20172
G1 X56.606 Y33.173 E612.24418
G1 X27.637 Y62.142 E614.18597
G1 X28.532 Y62.142 E614.22842
G1 X56.606 Y34.068 E616.11017
G1 X56.606 Y34.964 E616.15263
G1 X29.428 Y62.142 E617.97434
G1 X30.324 Y62.142 E618.01680
G1 X56.606 Y35.860 E619.77847
G1 X56.606 Y36.755 E619.82093
G1 X31.219 Y62.142 E621.52256
G1 X32.115 Y62.142 E621.56502
G1 X56.606 Y37.651 E623.20661
G1 X56.606 Y38.547 E623.24907
G1 X33.011 Y62.142 E624.83063
G1 X33.906 Y62.142 E624.87308
G1 X56.606 Y39.443 E626.39460
G1 X56.606 Y40.338 E626.43705
G1 X34.802 Y62.142 E627.89854
G1 X35.698 Y62.142 E627.94099
G1 X56.606 Y41.234 E629.34243
G1 X56.606 Y42.130 E629.38489
G1 X36.594 Y62.142 E630.72629
G1 X37.489 Y62.142 E630.76874
G1 X56.606 Y43.025 E632.05011
G1 X56.606 Y43.921 E632.09256
G1 X38.385 Y62.142 E633.31389
G1 X39.281 Y62.142 E633.35634
G1 X56.606 Y44.817 E634.51763
G1 X56.606 Y45.712 E634.56008
G1 X40.176 Y62.142 E635.66133
G1 X41.072 Y62.142 E635.70379
G1 X56.606 Y46.608 E636.74499
G1 X56.606 Y47.504 E636.78745
G1 X41.968 Y62.142 E637.76862
G1 X42.863 Y62.142 E637.81107
G1 X56.606 Y48.400 E638.73221
G1 X56.606 Y49.295 E638.77466
G1 X43.759 Y62.142 E639.63575
G1 X44.655 Y62.142 E639.67821
G1 X56.606 Y50.191 E640.47926
G1 X56.606 Y51.087 E640.52171
G1 X45.551 Y62.142 E641.26273
G1 X46.446 Y62.142 E641.30518
G1 X56.606 Y51.982 E641.98616
G1 X56.606 Y52.878 E642.02861
G1 X47.342 Y62.142 E642.64955
G1 X48.238 Y62.142 E642.69201
G1 X56.606 Y53.774 E643.25290
G1 X56.606 Y54.669 E643.29536
G1 X49.133 Y62.142 E643.79622
G1 X50.029 Y62.142 E643.83867
G1 X56.606 Y55.565 E644.27949
G1 X56.606 Y56.461 E644.32195
G1 X50.925 Y62.142 E644.70273
G1 X51.820 Y62.142 E644.74518
G1 X56.606 Y57.357 E645.06593
G1 X56.606 Y58.252 E645.10838
G1 X52.716 Y62.142 E645.36909
G1 X53.612 Y62.142 E645.41154
G1 X56.606 Y59.148 E645.61221
G1 X56.606 Y60.044 E645.65466
G1 X54.508 Y62.142 E645.79529
G1 X55.403 Y62.142 E645.83774
G1 X56.606 Y60.939 E645.91833
G1 X56.606 Y61.835 E645.96078
G1 X56.299 Y62.142 E645.98133
G1 Z0.800 F4200.000
G1 X13.081 Y7.556 F4200.000
G1 X56.986 Y7.556 E648.04579 F3000.000
G1 X56.986 Y62.522 E650.63032
G1 X13.081 Y62.522 E652.69478
G1 X13.081 Y7.616 E655.27649
G1 X12.452 Y6.928 F4200.000
G1 X57.615 Y6.928 E657.40004 F3000.000
G1 X57.615 Y63.151 E660.04366
G1 X12.452 Y63.151 E662.16721
G1 X12.452 Y6.988 E664.80800
G1 X11.824 Y6.300 F4200.000
G1 X58.243 Y6.300 E666.99064 F3000.000
G1 X58.243 Y63.779 E669.69335
G1 X11.824 Y63.779 E671.87598
G1 X11.824 Y6.360 E674.57587
G1 X11.331 Y5.807 F4200.000
G1 X58.736 Y5.807 E675.84261 F1500.000
G1 X58.736 Y64.272 E677.40492
G1 X11.331 Y64.272 E678.67166
G1 X11.331 Y5.867 E680.23236
G1 X11.678 Y6.007 F4200.000
G1 X56.606 Y8.244 F4200.000
G1 X56.299 Y7.937 E680.25291 F1200.000
G1 X55.403 Y7.937 E680.29537
G1 X56.606 Y9.139 E680.37596
