; generated by Slic3r 1.2.9 on 2018-12-12 at 21:18:54

; external perimeters extrusion width = 0.40mm
; perimeters extrusion width = 0.67mm
; infill extrusion width = 0.67mm
; solid infill extrusion width = 0.67mm
; top infill extrusion width = 0.67mm
; support material extrusion width = 0.40mm

M107
M140 S0 ;heated bed heater off (if you have it)
G21 ;metric values
G90 ;absolute positioning
M107 ;start with the fan off
G29
M140 S0 ;heated bed heater off (if you have it)
M104 S190 ; set extruder temp
M109 S190 ; wait for extruder temp
M140 S0 ;heated bed heater off (if you have it)
G1 Z15.0 F{travel_speed} ;move the platform down 15mm
G1 F{travel_speed}
;Put printing message on LCD screen
M117 Printing...
G21 ; set units to millimeters
G90 ; use absolute coordinates
M82 ; use absolute distances for extrusion
G92 E0
G1 Z0.350 F4200.000
G1 E-4.50000 F2400.00000
G92 E0
G1 X75.417 Y81.734 F4200.000
G1 E4.50000 F2400.00000
G1 X77.170 Y80.255 E4.68769 F1800.000
G1 X79.322 Y79.462 E4.87538
G1 X80.502 Y79.356 E4.97231
G1 X139.392 Y79.356 E9.79169
G1 X141.651 Y79.753 E9.97938
G1 X143.639 Y80.896 E10.16706 F1800.000
G1 X145.118 Y82.649 E10.35475
G1 X145.911 Y84.801 E10.54244
G1 X146.017 Y85.981 E10.63938
G1 X146.017 Y133.936 E14.56391
G1 X145.620 Y136.195 E14.75160
G1 X144.476 Y138.183 E14.93929
G1 X142.724 Y139.663 E15.12697
G1 X140.572 Y140.455 E15.31466
G1 X139.392 Y140.561 E15.41160
G1 X80.502 Y140.561 E20.23097
G1 X78.243 Y140.164 E20.41866
G1 X76.255 Y139.021 E20.60635
G1 X74.776 Y137.268 E20.79404
G1 X73.983 Y135.116 E20.98173
G1 X73.877 Y133.936 E21.07867
G1 X73.877 Y85.981 E25.00320
G1 X74.274 Y83.722 E25.19088
G1 X75.387 Y81.786 E25.37366
G1 E20.87366 F2400.00000
G92 E0
G1 X137.167 Y131.712 F4200.000
G1 E4.50000 F2400.00000
G1 X82.726 Y131.712 E8.95526 F1800.000
G1 X82.726 Y88.205 E12.51567
G1 X137.167 Y88.205 E16.97092
G1 X137.167 Y131.652 E20.52643
G1 X137.792 Y132.337 F4200.000
G1 X82.102 Y132.337 E25.08396 F1800.000
G1 X82.102 Y87.581 E28.74665
G1 X137.792 Y87.581 E33.30418
G1 X137.792 Y132.277 E36.96196
G1 X138.417 Y132.962 F4200.000
G1 X81.477 Y132.962 E41.62177 F1800.000
G1 X81.477 Y86.956 E45.38674
G1 X138.417 Y86.956 E50.04655
G1 X138.417 Y132.902 E53.80661
G1 X139.042 Y133.586 F4200.000
G1 X80.852 Y133.586 E58.56870 F1800.000
G1 X80.852 Y86.331 E62.43594
G1 X139.042 Y86.331 E67.19803
G1 X139.042 Y133.526 E71.06036
G1 X138.696 Y133.386 F4200.000
G1 X136.789 Y88.889 F4200.000
G1 X136.484 Y88.584 E71.09582 F1800.000
G1 X135.596 Y88.584 E71.16872
G1 X136.789 Y89.776 E71.30726
G1 X136.789 Y90.664 E71.38016
G1 X134.709 Y88.584 E71.62180
G1 X133.822 Y88.584 E71.69470
G1 X136.789 Y91.551 E72.03944
G1 X136.789 Y92.438 E72.11234
G1 X132.935 Y88.584 E72.56017
G1 X132.047 Y88.584 E72.63307
G1 X136.789 Y93.325 E73.18399
G1 X136.789 Y94.213 E73.25689
G1 X131.160 Y88.584 E73.91091
G1 X130.273 Y88.584 E73.98381
G1 X136.789 Y95.100 E74.74092
G1 X136.789 Y95.987 E74.81382
G1 X129.386 Y88.584 E75.67402
G1 X128.498 Y88.584 E75.74692
G1 X136.789 Y96.874 E76.71022
G1 X136.789 Y97.762 E76.78312
G1 X127.611 Y88.584 E77.84952
G1 X126.724 Y88.584 E77.92242
G1 X136.789 Y98.649 E79.09190
G1 X136.789 Y99.536 E79.16480
G1 X125.837 Y88.584 E80.43739
G1 X124.949 Y88.584 E80.51028
G1 X136.789 Y100.423 E81.88596
G1 X136.789 Y101.311 E81.95886
G1 X124.062 Y88.584 E83.43763
G1 X123.175 Y88.584 E83.51053
G1 X136.789 Y102.198 E85.09240
G1 X136.789 Y103.085 E85.16530
G1 X122.288 Y88.584 E86.85026
G1 X121.400 Y88.584 E86.92315
G1 X136.789 Y103.972 E88.71121
G1 X136.789 Y104.860 E88.78411
G1 X120.513 Y88.584 E90.67526
G1 X119.626 Y88.584 E90.74815
G1 X136.789 Y105.747 E92.74240
G1 X136.789 Y106.634 E92.81530
G1 X118.739 Y88.584 E94.91263
G1 X117.851 Y88.584 E94.98553
G1 X136.789 Y107.521 E97.18596
G1 X136.789 Y108.409 E97.25886
G1 X116.964 Y88.584 E99.56239
G1 X116.077 Y88.584 E99.63528
G1 X136.789 Y109.296 E102.04190
G1 X136.789 Y110.183 E102.11480
G1 X115.190 Y88.584 E104.62452
G1 X114.302 Y88.584 E104.69741
G1 X136.789 Y111.070 E107.31022
G1 X136.789 Y111.958 E107.38312
G1 X113.415 Y88.584 E110.09902
G1 X112.528 Y88.584 E110.17192
G1 X136.789 Y112.845 E112.99092
G1 X136.789 Y113.732 E113.06381
G1 X111.641 Y88.584 E115.98590
G1 X110.753 Y88.584 E116.05880
G1 X136.789 Y114.619 E119.08399
G1 X136.789 Y115.507 E119.15689
G1 X109.866 Y88.584 E122.28516
G1 X108.979 Y88.584 E122.35806
G1 X136.789 Y116.394 E125.58943
G1 X136.789 Y117.281 E125.66233
G1 X108.092 Y88.584 E128.99680
G1 X107.204 Y88.584 E129.06970
G1 X136.789 Y118.168 E132.50726
G1 X136.789 Y119.056 E132.58016
G1 X106.317 Y88.584 E136.12081
G1 X105.430 Y88.584 E136.19371
G1 X136.789 Y119.943 E139.83746
G1 X136.789 Y120.830 E139.91036
G1 X104.543 Y88.584 E143.65720
G1 X103.655 Y88.584 E143.73010
G1 X136.789 Y121.717 E147.58003
G1 X136.789 Y122.605 E147.65293
G1 X102.768 Y88.584 E151.60596
G1 X101.881 Y88.584 E151.67886
G1 X136.789 Y123.492 E155.73499
G1 X136.789 Y124.379 E155.80789
G1 X100.994 Y88.584 E159.96711
G1 X100.106 Y88.584 E160.04000
G1 X136.789 Y125.266 E164.30232
G1 X136.789 Y126.154 E164.37522
G1 X99.219 Y88.584 E168.74062
G1 X98.332 Y88.584 E168.81352
G1 X136.789 Y127.041 E173.28202
G1 X136.789 Y127.928 E173.35492
G1 X97.445 Y88.584 E177.92652
G1 X96.557 Y88.584 E177.99942
G1 X136.789 Y128.815 E182.67411
G1 X136.789 Y129.703 E182.74700
G1 X95.670 Y88.584 E187.52479
G1 X94.783 Y88.584 E187.59769
G1 X136.789 Y130.590 E192.47857
G1 X136.645 Y131.333 E192.54078
G1 X93.896 Y88.584 E197.50804
G1 X93.008 Y88.584 E197.58094
G1 X135.758 Y131.333 E202.54820
G1 X134.870 Y131.333 E202.62110
G1 X92.121 Y88.584 E207.58836
G1 X91.234 Y88.584 E207.66126
G1 X133.983 Y131.333 E212.62853
G1 X133.096 Y131.333 E212.70142
G1 X90.347 Y88.584 E217.66869
G1 X89.459 Y88.584 E217.74158
G1 X132.209 Y131.333 E222.70885
G1 X131.321 Y131.333 E222.78175
G1 X88.572 Y88.584 E227.74901
G1 X87.685 Y88.584 E227.82191
G1 X130.434 Y131.333 E232.78917
G1 X129.547 Y131.333 E232.86207
G1 X86.798 Y88.584 E237.82933
G1 X85.910 Y88.584 E237.90223
G1 X128.660 Y131.333 E242.86949
G1 X127.772 Y131.333 E242.94239
G1 X85.023 Y88.584 E247.90965
G1 X84.136 Y88.584 E247.98255
G1 X126.885 Y131.333 E252.94981
G1 X125.998 Y131.333 E253.02271
G1 X83.249 Y88.584 E257.98997
G1 X83.105 Y89.328 E258.05219
G1 X125.111 Y131.333 E262.93306
G1 X124.223 Y131.333 E263.00596
G1 X83.105 Y90.215 E267.78374
G1 X83.105 Y91.102 E267.85664
G1 X123.336 Y131.333 E272.53132
G1 X122.449 Y131.333 E272.60422
G1 X83.105 Y91.989 E277.17581
G1 X83.105 Y92.877 E277.24870
G1 X121.562 Y131.333 E281.71720
G1 X120.674 Y131.333 E281.79010
G1 X83.105 Y93.764 E286.15550
G1 X83.105 Y94.651 E286.22840
G1 X119.787 Y131.333 E290.49070
G1 X118.900 Y131.333 E290.56360
G1 X83.105 Y95.538 E294.72281
G1 X83.105 Y96.425 E294.79571
G1 X118.013 Y131.333 E298.85183
G1 X117.125 Y131.333 E298.92473
G1 X83.105 Y97.313 E302.87775
G1 X83.105 Y98.200 E302.95065
G1 X116.238 Y131.333 E306.80058
G1 X115.351 Y131.333 E306.87348
G1 X83.105 Y99.087 E310.62031
G1 X83.105 Y99.974 E310.69321
G1 X114.464 Y131.333 E314.33695
G1 X113.576 Y131.333 E314.40985
G1 X83.105 Y100.862 E317.95050
G1 X83.105 Y101.749 E318.02340
G1 X112.689 Y131.333 E321.46095
G1 X111.802 Y131.333 E321.53385
G1 X83.105 Y102.636 E324.86831
G1 X83.105 Y103.523 E324.94121
G1 X110.915 Y131.333 E328.17257
G1 X110.027 Y131.333 E328.24547
G1 X83.105 Y104.411 E331.37374
G1 X83.105 Y105.298 E331.44664
G1 X109.140 Y131.333 E334.47182
G1 X108.253 Y131.333 E334.54471
G1 X83.105 Y106.185 E337.46680
G1 X83.105 Y107.072 E337.53970
G1 X107.366 Y131.333 E340.35868
G1 X106.478 Y131.333 E340.43158
G1 X83.105 Y107.960 E343.14748
G1 X83.105 Y108.847 E343.22038
G1 X105.591 Y131.333 E345.83318
G1 X104.704 Y131.333 E345.90607
G1 X83.105 Y109.734 E348.41578
G1 X83.105 Y110.621 E348.48868
G1 X103.817 Y131.333 E350.89529
G1 X102.929 Y131.333 E350.96819
G1 X83.105 Y111.509 E353.27171
G1 X83.105 Y112.396 E353.34460
G1 X102.042 Y131.333 E355.54503
G1 X101.155 Y131.333 E355.61793
G1 X83.105 Y113.283 E357.71526
G1 X83.105 Y114.170 E357.78815
G1 X100.268 Y131.333 E359.78239
G1 X99.380 Y131.333 E359.85529
G1 X83.105 Y115.058 E361.74643
G1 X83.105 Y115.945 E361.81933
G1 X98.493 Y131.333 E363.60737
G1 X97.606 Y131.333 E363.68027
G1 X83.105 Y116.832 E365.36523
G1 X83.105 Y117.719 E365.43812
G1 X96.719 Y131.333 E367.01998
G1 X95.832 Y131.333 E367.09288
G1 X83.105 Y118.607 E368.57165
G1 X83.105 Y119.494 E368.64454
G1 X94.944 Y131.333 E370.02022
G1 X94.057 Y131.333 E370.09311
G1 X83.105 Y120.381 E371.36569
G1 X83.105 Y121.268 E371.43859
G1 X93.170 Y131.333 E372.60807
G1 X92.283 Y131.333 E372.68097
G1 X83.105 Y122.156 E373.74736
G1 X83.105 Y123.043 E373.82026
G1 X91.395 Y131.333 E374.78355
G1 X90.508 Y131.333 E374.85645
G1 X83.105 Y123.930 E375.71665
G1 X83.105 Y124.817 E375.78955
G1 X89.621 Y131.333 E376.54665
G1 X88.734 Y131.333 E376.61955
G1 X83.105 Y125.705 E377.27356
G1 X83.105 Y126.592 E377.34646
G1 X87.846 Y131.333 E377.89738
G1 X86.959 Y131.333 E377.97028
G1 X83.105 Y127.479 E378.41810
G1 X83.105 Y128.366 E378.49100
G1 X86.072 Y131.333 E378.83573
G1 X85.185 Y131.333 E378.90863
G1 X83.105 Y129.254 E379.15026
G1 X83.105 Y130.141 E379.22316
G1 X84.297 Y131.333 E379.36170
G1 X83.410 Y131.333 E379.43460
G1 X83.105 Y131.028 E379.47005
G1 Z0.350 F4200.000
M140 S45 ; wait for bed temperature to be reached
G1 Z0.550 F4200.000
G1 X137.443 Y131.987 F4200.000
G1 X82.451 Y131.987 E382.05577 F3000.000
G1 X82.451 Y87.930 E384.12735
G1 X137.443 Y87.930 E386.71307
G1 X137.443 Y131.927 E388.78183
G1 X138.071 Y132.615 F4200.000
G1 X81.823 Y132.615 E391.42664 F3000.000
G1 X81.823 Y87.302 E393.55731
G1 X138.071 Y87.302 E396.20212
G1 X138.071 Y132.555 E398.32996
G1 X138.699 Y133.244 F4200.000
G1 X81.194 Y133.244 E401.03386 F3000.000
G1 X81.194 Y86.673 E403.22362
G1 X138.699 Y86.673 E405.92752
G1 X138.699 Y133.184 E408.11445
G1 X139.192 Y133.736 F4200.000
G1 X80.702 Y133.736 E409.67743 F1500.000
G1 X80.702 Y86.181 E410.94822
G1 X139.192 Y86.181 E412.51121
G1 X139.192 Y133.676 E413.78040
G1 X138.846 Y133.536 F4200.000
G1 X136.755 Y131.606 F4200.000
G1 X137.062 Y131.300 E413.80079 F1200.000
G1 X137.062 Y130.411 E413.84262
G1 X135.866 Y131.606 E413.92218
G1 X134.977 Y131.606 E413.96401
G1 X137.062 Y129.522 E414.10273
G1 X137.062 Y128.632 E414.14456
G1 X134.088 Y131.606 E414.34243
G1 X133.199 Y131.606 E414.38426
G1 X137.062 Y127.743 E414.64129
G1 X137.062 Y126.854 E414.68312
G1 X132.310 Y131.606 E414.99931
G1 X131.421 Y131.606 E415.04114
G1 X137.062 Y125.965 E415.41648
G1 X137.062 Y125.076 E415.45831
G1 X130.532 Y131.606 E415.89282
G1 X129.642 Y131.606 E415.93465
G1 X137.062 Y124.187 E416.42831
G1 X137.062 Y123.298 E416.47014
G1 X128.753 Y131.606 E417.02296
G1 X127.864 Y131.606 E417.06479
G1 X137.062 Y122.409 E417.67677
G1 X137.062 Y121.520 E417.71860
G1 X126.975 Y131.606 E418.38973
G1 X126.086 Y131.606 E418.43156
G1 X137.062 Y120.631 E419.16186
G1 X137.062 Y119.741 E419.20369
G1 X125.197 Y131.606 E419.99314
G1 X124.308 Y131.606 E420.03497
G1 X137.062 Y118.852 E420.88358
G1 X137.062 Y117.963 E420.92541
G1 X123.419 Y131.606 E421.83318
G1 X122.530 Y131.606 E421.87501
G1 X137.062 Y117.074 E422.84193
G1 X137.062 Y116.185 E422.88376
G1 X121.640 Y131.606 E423.90984
G1 X120.751 Y131.606 E423.95167
G1 X137.062 Y115.296 E425.03691
G1 X137.062 Y114.407 E425.07874
G1 X119.862 Y131.606 E426.22314
G1 X118.973 Y131.606 E426.26497
G1 X137.062 Y113.518 E427.46853
G1 X137.062 Y112.629 E427.51036
G1 X118.084 Y131.606 E428.77307
G1 X117.195 Y131.606 E428.81490
G1 X137.062 Y111.739 E430.13677
G1 X137.062 Y110.850 E430.17861
G1 X116.306 Y131.606 E431.55963
G1 X115.417 Y131.606 E431.60147
G1 X137.062 Y109.961 E433.04165
G1 X137.062 Y109.072 E433.08348
G1 X114.528 Y131.606 E434.58283
G1 X113.639 Y131.606 E434.62466
G1 X137.062 Y108.183 E436.18316
G1 X137.062 Y107.294 E436.22499
G1 X112.749 Y131.606 E437.84265
G1 X111.860 Y131.606 E437.88448
G1 X137.062 Y106.405 E439.56130
G1 X137.062 Y105.516 E439.60313
G1 X110.971 Y131.606 E441.33911
G1 X110.082 Y131.606 E441.38094
G1 X137.062 Y104.627 E443.17607
G1 X137.062 Y103.738 E443.21790
G1 X109.193 Y131.606 E445.07220
G1 X108.304 Y131.606 E445.11403
G1 X137.062 Y102.848 E447.02748
G1 X137.062 Y101.959 E447.06931
G1 X107.415 Y131.606 E449.04192
G1 X106.526 Y131.606 E449.08375
G1 X137.062 Y101.070 E451.11551
G1 X137.062 Y100.181 E451.15734
G1 X105.637 Y131.606 E453.24827
G1 X104.747 Y131.606 E453.29010
G1 X137.062 Y99.292 E455.44018
G1 X137.062 Y98.403 E455.48201
G1 X103.858 Y131.606 E457.69125
G1 X102.969 Y131.606 E457.73308
G1 X137.062 Y97.514 E460.00147
G1 X137.062 Y96.625 E460.04331
G1 X102.080 Y131.606 E462.37086
G1 X101.191 Y131.606 E462.41269
G1 X137.062 Y95.736 E464.79940
G1 X137.062 Y94.846 E464.84123
G1 X100.302 Y131.606 E467.28710
G1 X99.413 Y131.606 E467.32894
G1 X137.062 Y93.957 E469.83396
G1 X137.062 Y93.068 E469.87579
G1 X98.524 Y131.606 E472.43998
G1 X97.635 Y131.606 E472.48181
G1 X137.062 Y92.179 E475.10515
G1 X137.062 Y91.290 E475.14699
G1 X96.746 Y131.606 E477.82949
G1 X95.856 Y131.606 E477.87132
G1 X137.062 Y90.401 E480.61298
G1 X137.062 Y89.512 E480.65481
G1 X94.967 Y131.606 E483.45562
G1 X94.078 Y131.606 E483.49746
G1 X137.062 Y88.623 E486.35743
G1 X136.485 Y88.311 E486.38830
G1 X93.189 Y131.606 E489.26902
G1 X92.300 Y131.606 E489.31086
G1 X135.596 Y88.311 E492.19158
G1 X134.706 Y88.311 E492.23341
G1 X91.411 Y131.606 E495.11414
G1 X90.522 Y131.606 E495.15597
G1 X133.817 Y88.311 E498.03669
G1 X132.928 Y88.311 E498.07853
G1 X89.633 Y131.606 E500.95925
G1 X88.744 Y131.606 E501.00108
G1 X132.039 Y88.311 E503.88181
G1 X131.150 Y88.311 E503.92364
G1 X87.855 Y131.606 E506.80437
G1 X86.965 Y131.606 E506.84620
G1 X130.261 Y88.311 E509.72692
G1 X129.372 Y88.311 E509.76875
G1 X86.076 Y131.606 E512.64948
G1 X85.187 Y131.606 E512.69131
G1 X128.483 Y88.311 E515.57204
G1 X127.594 Y88.311 E515.61387
G1 X84.298 Y131.606 E518.49459
G1 X83.409 Y131.606 E518.53642
G1 X126.704 Y88.311 E521.41715
G1 X125.815 Y88.311 E521.45898
G1 X82.832 Y131.294 E524.31895
G1 X82.832 Y130.405 E524.36078
G1 X124.926 Y88.311 E527.16159
G1 X124.037 Y88.311 E527.20342
G1 X82.832 Y129.516 E529.94507
G1 X82.832 Y128.627 E529.98691
G1 X123.148 Y88.311 E532.66940
G1 X122.259 Y88.311 E532.71123
G1 X82.832 Y127.738 E535.33457
G1 X82.832 Y126.849 E535.37640
G1 X121.370 Y88.311 E537.94058
G1 X120.481 Y88.311 E537.98241
G1 X82.832 Y125.960 E540.48743
G1 X82.832 Y125.071 E540.52926
G1 X119.592 Y88.311 E542.97513
G1 X118.703 Y88.311 E543.01696
G1 X82.832 Y124.182 E545.40366
G1 X82.832 Y123.292 E545.44549
G1 X117.813 Y88.311 E547.77304
G1 X116.924 Y88.311 E547.81487
G1 X82.832 Y122.403 E550.08326
G1 X82.832 Y121.514 E550.12509
G1 X116.035 Y88.311 E552.33433
G1 X115.146 Y88.311 E552.37616
G1 X82.832 Y120.625 E554.52623
G1 X82.832 Y119.736 E554.56806
G1 X114.257 Y88.311 E556.65898
G1 X113.368 Y88.311 E556.70081
G1 X82.832 Y118.847 E558.73257
G1 X82.832 Y117.958 E558.77440
G1 X112.479 Y88.311 E560.74700
G1 X111.590 Y88.311 E560.78883
G1 X82.832 Y117.069 E562.70227
G1 X82.832 Y116.180 E562.74411
G1 X110.701 Y88.311 E564.59839
G1 X109.811 Y88.311 E564.64022
G1 X82.832 Y115.290 E566.43535
G1 X82.832 Y114.401 E566.47718
G1 X108.922 Y88.311 E568.21315
G1 X108.033 Y88.311 E568.25498
G1 X82.832 Y113.512 E569.93179
G1 X82.832 Y112.623 E569.97362
G1 X107.144 Y88.311 E571.59128
G1 X106.255 Y88.311 E571.63311
G1 X82.832 Y111.734 E573.19160
G1 X82.832 Y110.845 E573.23344
G1 X105.366 Y88.311 E574.73277
G1 X104.477 Y88.311 E574.77460
G1 X82.832 Y109.956 E576.21478
G1 X82.832 Y109.067 E576.25662
G1 X103.588 Y88.311 E577.63764
G1 X102.699 Y88.311 E577.67947
G1 X82.832 Y108.178 E579.00133
G1 X82.832 Y107.289 E579.04316
G1 X101.810 Y88.311 E580.30587
G1 X100.920 Y88.311 E580.34770
G1 X82.832 Y106.399 E581.55125
G1 X82.832 Y105.510 E581.59308
G1 X100.031 Y88.311 E582.73747
G1 X99.142 Y88.311 E582.77930
G1 X82.832 Y104.621 E583.86454
G1 X82.832 Y103.732 E583.90637
G1 X98.253 Y88.311 E584.93244
G1 X97.364 Y88.311 E584.97427
G1 X82.832 Y102.843 E585.94119
G1 X82.832 Y101.954 E585.98302
G1 X96.475 Y88.311 E586.89078
G1 X95.586 Y88.311 E586.93261
G1 X82.832 Y101.065 E587.78122
