; generated by Slic3r 1.2.9 on 2018-11-19 at 13:44:12

; external perimeters extrusion width = 0.40mm
; perimeters extrusion width = 0.67mm
; infill extrusion width = 0.67mm
; solid infill extrusion width = 0.67mm
; top infill extrusion width = 0.67mm
; support material extrusion width = 0.40mm

M107
M140 S0 ;heated bed heater off (if you have it)
G21 ;metric values
G90 ;absolute positioning
M107 ;start with the fan off
G29
M140 S0 ;heated bed heater off (if you have it)
M104 S190 ; set extruder temp
M109 S190 ; wait for extruder temp
M140 S0 ;heated bed heater off (if you have it)
G1 Z15.0 F{travel_speed} ;move the platform down 15mm
G1 F{travel_speed}
;Put printing message on LCD screen
M117 Printing...
G21 ; set units to millimeters
G90 ; use absolute coordinates
M82 ; use absolute distances for extrusion
G92 E0
G1 Z0.350 F4200.000
G1 E-4.50000 F2400.00000
G92 E0
G1 X5.132 Y2.951 F4200.000
G1 E4.50000 F2400.00000
G1 X6.047 Y1.360 E4.65022 F1800.000
G1 X7.800 Y-0.119 E4.83791
G1 X9.952 Y-0.912 E5.02560
G1 X11.131 Y-1.018 E5.12253
G1 X58.936 Y-1.018 E9.03467
G1 X61.194 Y-0.621 E9.22236 F1800.000
G1 X63.183 Y0.522 E9.41005
G1 X64.662 Y2.275 E9.59774
G1 X65.455 Y4.427 E9.78543
G1 X65.561 Y5.607 E9.88236
G1 X65.561 Y64.472 E14.69966
G1 X65.164 Y66.731 E14.88735
G1 X64.020 Y68.719 E15.07503
G1 X62.267 Y70.198 E15.26272
G1 X60.115 Y70.991 E15.45041
G1 X58.936 Y71.097 E15.54735
G1 X11.131 Y71.097 E19.45949
G1 X8.873 Y70.700 E19.64717
G1 X6.884 Y69.556 E19.83486
G1 X5.405 Y67.804 E20.02255
G1 X4.612 Y65.652 E20.21024
G1 X4.506 Y64.472 E20.30718
G1 X4.506 Y5.607 E25.12447
G1 X4.903 Y3.348 E25.31216
G1 X5.102 Y3.003 E25.34472
G1 E20.84472 F2400.00000
G92 E0
G1 X13.356 Y7.832 F4200.000
G1 E4.50000 F2400.00000
G1 X56.711 Y7.832 E8.04802 F1800.000
G1 X56.711 Y62.247 E12.50120
G1 X13.356 Y62.247 E16.04922
G1 X13.356 Y7.892 E20.49748
G1 X12.731 Y7.207 F4200.000
G1 X57.336 Y7.207 E24.14778 F1800.000
G1 X57.336 Y62.872 E28.70323
G1 X12.731 Y62.872 E32.35353
G1 X12.731 Y7.267 E36.90407
G1 X12.106 Y6.582 F4200.000
G1 X57.961 Y6.582 E40.65665 F1800.000
G1 X57.961 Y63.497 E45.31438
G1 X12.106 Y63.497 E49.06695
G1 X12.106 Y6.642 E53.71977
G1 X11.481 Y5.957 F4200.000
G1 X58.586 Y5.957 E57.57462 F1800.000
G1 X58.586 Y64.122 E62.33463
G1 X11.481 Y64.122 E66.18948
G1 X11.481 Y6.017 E70.94458
G1 X11.828 Y6.157 F4200.000
G1 E66.44458 F2400.00000
G92 E0
G1 X56.332 Y8.515 F4200.000
G1 E4.50000 F2400.00000
G1 X56.027 Y8.210 E4.53539 F1800.000
G1 X55.142 Y8.210 E4.60802
G1 X56.332 Y9.401 E4.74612
G1 X56.332 Y10.287 E4.81875
G1 X54.256 Y8.210 E5.05957
G1 X53.370 Y8.210 E5.13219
G1 X56.332 Y11.172 E5.47572
G1 X56.332 Y12.058 E5.54835
G1 X52.485 Y8.210 E5.99460
G1 X51.599 Y8.210 E6.06723
G1 X56.332 Y12.943 E6.61619
G1 X56.332 Y13.829 E6.68882
G1 X50.714 Y8.210 E7.34049
G1 X49.828 Y8.210 E7.41312
G1 X56.332 Y14.715 E8.16750
G1 X56.332 Y15.600 E8.24013
G1 X48.942 Y8.210 E9.09723
G1 X48.057 Y8.210 E9.16986
G1 X56.332 Y16.486 E10.12968
G1 X56.332 Y17.371 E10.20231
G1 X47.171 Y8.210 E11.26483
G1 X46.286 Y8.210 E11.33746
G1 X56.332 Y18.257 E12.50270
G1 X56.332 Y19.143 E12.57533
G1 X45.400 Y8.210 E13.84329
G1 X44.514 Y8.210 E13.91592
G1 X56.332 Y20.028 E15.28659
G1 X56.332 Y20.914 E15.35922
G1 X43.629 Y8.210 E16.83260
G1 X42.743 Y8.210 E16.90523
G1 X56.332 Y21.799 E18.48133
G1 X56.332 Y22.685 E18.55396
G1 X41.857 Y8.210 E20.23277
G1 X40.972 Y8.210 E20.30540
G1 X56.332 Y23.571 E22.08692
G1 X56.332 Y24.456 E22.15955
G1 X40.086 Y8.210 E24.04379
G1 X39.201 Y8.210 E24.11642
G1 X56.332 Y25.342 E26.10338
G1 X56.332 Y26.228 E26.17601
G1 X38.315 Y8.210 E28.26567
G1 X37.429 Y8.210 E28.33830
G1 X56.332 Y27.113 E30.53068
G1 X56.332 Y27.999 E30.60331
G1 X36.544 Y8.210 E32.89841
G1 X35.658 Y8.210 E32.97104
G1 X56.332 Y28.884 E35.36885
G1 X56.332 Y29.770 E35.44148
G1 X34.773 Y8.210 E37.94200
G1 X33.887 Y8.210 E38.01463
G1 X56.332 Y30.656 E40.61787
G1 X56.332 Y31.541 E40.69050
G1 X33.001 Y8.210 E43.39645
G1 X32.116 Y8.210 E43.46908
G1 X56.332 Y32.427 E46.27774
G1 X56.332 Y33.312 E46.35037
G1 X31.230 Y8.210 E49.26175
G1 X30.345 Y8.210 E49.33438
G1 X56.332 Y34.198 E52.34847
G1 X56.332 Y35.084 E52.42110
G1 X29.459 Y8.210 E55.53791
G1 X28.573 Y8.210 E55.61054
G1 X56.332 Y35.969 E58.83006
G1 X56.332 Y36.855 E58.90269
G1 X27.688 Y8.210 E62.22492
G1 X26.802 Y8.210 E62.29755
G1 X56.332 Y37.740 E65.72250
G1 X56.332 Y38.626 E65.79513
G1 X25.917 Y8.210 E69.32279
G1 X25.031 Y8.210 E69.39542
G1 X56.332 Y39.512 E73.02580
G1 X56.332 Y40.397 E73.09843
G1 X24.145 Y8.210 E76.83152
G1 X23.260 Y8.210 E76.90415
G1 X56.332 Y41.283 E80.73995
G1 X56.332 Y42.168 E80.81258
G1 X22.374 Y8.210 E84.75110
G1 X21.488 Y8.210 E84.82373
G1 X56.332 Y43.054 E88.86496
G1 X56.332 Y43.940 E88.93759
G1 X20.603 Y8.210 E93.08154
G1 X19.717 Y8.210 E93.15417
G1 X56.332 Y44.825 E97.40083
G1 X56.332 Y45.711 E97.47346
G1 X18.832 Y8.210 E101.82283
G1 X17.946 Y8.210 E101.89546
G1 X56.332 Y46.597 E106.34755
G1 X56.332 Y47.482 E106.42018
G1 X17.060 Y8.210 E110.97498
G1 X16.175 Y8.210 E111.04761
G1 X56.332 Y48.368 E115.70513
G1 X56.332 Y49.253 E115.77776
G1 X15.289 Y8.210 E120.53799
G1 X14.404 Y8.210 E120.61062
G1 X56.332 Y50.139 E125.47356
G1 X56.332 Y51.025 E125.54619
G1 X13.735 Y8.427 E130.48673
G1 X13.735 Y9.312 E130.55936
G1 X56.332 Y51.910 E135.49989
G1 X56.332 Y52.796 E135.57252
G1 X13.735 Y10.198 E140.51305
G1 X13.735 Y11.084 E140.58568
G1 X56.332 Y53.681 E145.52622
G1 X56.332 Y54.567 E145.59885
G1 X13.735 Y11.969 E150.53938
G1 X13.735 Y12.855 E150.61201
G1 X56.332 Y55.453 E155.55254
G1 X56.332 Y56.338 E155.62517
G1 X13.735 Y13.740 E160.56571
G1 X13.735 Y14.626 E160.63833
G1 X56.332 Y57.224 E165.57887
G1 X56.332 Y58.109 E165.65150
G1 X13.735 Y15.512 E170.59203
G1 X13.735 Y16.397 E170.66466
G1 X56.332 Y58.995 E175.60519
G1 X56.332 Y59.881 E175.67782
G1 X13.735 Y17.283 E180.61836
G1 X13.735 Y18.169 E180.69099
G1 X56.332 Y60.766 E185.63152
G1 X56.332 Y61.652 E185.70415
G1 X13.735 Y19.054 E190.64468
G1 X13.735 Y19.940 E190.71731
G1 X55.663 Y61.868 E195.58025
G1 X54.778 Y61.868 E195.65288
G1 X13.735 Y20.825 E200.41310
G1 X13.735 Y21.711 E200.48573
G1 X53.892 Y61.868 E205.14324
G1 X53.006 Y61.868 E205.21587
G1 X13.735 Y22.597 E209.77067
G1 X13.735 Y23.482 E209.84330
G1 X52.121 Y61.868 E214.29538
G1 X51.235 Y61.868 E214.36801
G1 X13.735 Y24.368 E218.71738
G1 X13.735 Y25.253 E218.79001
G1 X50.350 Y61.868 E223.03666
G1 X49.464 Y61.868 E223.10929
G1 X13.735 Y26.139 E227.25323
G1 X13.735 Y27.025 E227.32586
G1 X48.578 Y61.868 E231.36709
G1 X47.693 Y61.868 E231.43972
G1 X13.735 Y27.910 E235.37823
G1 X13.735 Y28.796 E235.45086
G1 X46.807 Y61.868 E239.28665
G1 X45.922 Y61.868 E239.35928
G1 X13.735 Y29.681 E243.09237
G1 X13.735 Y30.567 E243.16500
G1 X45.036 Y61.868 E246.79537
G1 X44.150 Y61.868 E246.86800
G1 X13.735 Y31.453 E250.39565
G1 X13.735 Y32.338 E250.46828
G1 X43.265 Y61.868 E253.89323
G1 X42.379 Y61.868 E253.96586
G1 X13.735 Y33.224 E257.28808
G1 X13.735 Y34.110 E257.36071
G1 X41.494 Y61.868 E260.58023
G1 X40.608 Y61.868 E260.65286
G1 X13.735 Y34.995 E263.76966
G1 X13.735 Y35.881 E263.84229
G1 X39.722 Y61.868 E266.85637
G1 X38.837 Y61.868 E266.92900
G1 X13.735 Y36.766 E269.84037
G1 X13.735 Y37.652 E269.91300
G1 X37.951 Y61.868 E272.72166
G1 X37.066 Y61.868 E272.79429
G1 X13.735 Y38.538 E275.50024
G1 X13.735 Y39.423 E275.57287
G1 X36.180 Y61.868 E278.17610
G1 X35.294 Y61.868 E278.24873
G1 X13.735 Y40.309 E280.74924
G1 X13.735 Y41.194 E280.82187
G1 X34.409 Y61.868 E283.21967
G1 X33.523 Y61.868 E283.29230
G1 X13.735 Y42.080 E285.58739
G1 X13.735 Y42.966 E285.66002
G1 X32.637 Y61.868 E287.85240
G1 X31.752 Y61.868 E287.92503
G1 X13.735 Y43.851 E290.01469
G1 X13.735 Y44.737 E290.08732
G1 X30.866 Y61.868 E292.07426
G1 X29.981 Y61.868 E292.14689
G1 X13.735 Y45.622 E294.03113
G1 X13.735 Y46.508 E294.10375
G1 X29.095 Y61.868 E295.88527
G1 X28.209 Y61.868 E295.95790
G1 X13.735 Y47.394 E297.63671
G1 X13.735 Y48.279 E297.70934
G1 X27.324 Y61.868 E299.28543
G1 X26.438 Y61.868 E299.35806
G1 X13.735 Y49.165 E300.83143
G1 X13.735 Y50.050 E300.90406
G1 X25.553 Y61.868 E302.27473
G1 X24.667 Y61.868 E302.34736
G1 X13.735 Y50.936 E303.61531
G1 X13.735 Y51.822 E303.68794
G1 X23.781 Y61.868 E304.85317
G1 X22.896 Y61.868 E304.92580
G1 X13.735 Y52.707 E305.98832
G1 X13.735 Y53.593 E306.06095
G1 X22.010 Y61.868 E307.02076
G1 X21.125 Y61.868 E307.09339
G1 X13.735 Y54.479 E307.95048
G1 X13.735 Y55.364 E308.02311
G1 X20.239 Y61.868 E308.77749
G1 X19.353 Y61.868 E308.85012
G1 X13.735 Y56.250 E309.50178
G1 X13.735 Y57.135 E309.57441
G1 X18.468 Y61.868 E310.12336
G1 X17.582 Y61.868 E310.19599
G1 X13.735 Y58.021 E310.64223
G1 X13.735 Y58.907 E310.71486
G1 X16.696 Y61.868 E311.05838
G1 X15.811 Y61.868 E311.13101
G1 X13.735 Y59.792 E311.37182
G1 X13.735 Y60.678 E311.44445
G1 X14.925 Y61.868 E311.58255
G1 X14.040 Y61.868 E311.65518
G1 X13.735 Y61.563 E311.69056
G1 Z0.350 F4200.000
M140 S45 ; wait for bed temperature to be reached
G1 Z0.550 F4200.000
G1 E307.19056 F2400.00000
G92 E0
G1 X54.307 Y60.893 F4200.000
G1 E4.50000 F2400.00000
G1 X54.388 Y61.060 E4.50496 F900.000
G1 X54.451 Y61.355 E4.51302
G1 X54.506 Y62.534 E4.54456
G1 X52.652 Y62.534 E4.59410
G1 X52.676 Y61.341 E4.62598
G1 X52.742 Y61.020 E4.63475
G1 X52.830 Y60.869 E4.63942
G1 X52.945 Y60.743 E4.64398
G1 X53.082 Y60.646 E4.64847
G1 X53.289 Y60.573 E4.65433
G1 X53.502 Y60.543 E4.66007
G1 X53.736 Y60.549 E4.66634
G1 X53.980 Y60.612 E4.67307
G1 X54.190 Y60.758 E4.67990
G1 X54.267 Y60.848 E4.68307
G1 X54.492 Y60.890 F4200.000
G1 E0.18307 F2400.00000
G92 E0
G1 X51.788 Y60.723 F4200.000
G1 E4.50000 F2400.00000
G1 X52.550 Y59.779 E4.55704 F900.000
G1 X52.732 Y59.624 E4.56828
G1 X52.976 Y59.492 E4.58133
G1 X53.289 Y59.407 E4.59657
G1 X53.723 Y59.397 E4.61695
G1 X53.893 Y59.421 E4.62504
G1 X54.047 Y59.460 E4.63251
G1 X54.331 Y59.584 E4.64707
G1 X54.551 Y59.751 E4.66009
G1 X54.761 Y60.008 E4.67567
G1 X54.929 Y60.360 E4.69399
G1 X54.653 Y60.540 E4.70951
G1 X54.522 Y60.389 E4.71890
G1 X54.189 Y60.157 E4.73801
G1 X53.804 Y60.058 E4.75666
G1 X53.474 Y60.050 E4.77221
G1 X53.172 Y60.091 E4.78654
G1 X52.853 Y60.204 E4.80244
G1 X52.617 Y60.372 E4.81606
G1 X52.431 Y60.575 E4.82903
G1 X52.275 Y60.841 E4.84352
G1 X52.145 Y61.478 E4.87406
G1 X50.484 Y60.353 E4.96837
G1 X50.485 Y59.859 E4.99161
G1 X51.738 Y60.689 E5.06228
G1 E0.56228 F2400.00000
G92 E0
G1 X50.479 Y63.027 F4200.000
G1 E4.50000 F2400.00000
G1 X55.121 Y63.027 E4.71826 F900.000
G1 X55.127 Y63.652 E4.74767
G1 X50.479 Y63.652 E4.96621
G1 X50.479 Y63.087 E4.99280
G1 X51.521 Y62.534 F4200.000
G1 X51.521 Y61.650 E5.01641 F900.000
G1 X49.991 Y60.614 E5.06579
G1 X49.993 Y58.942 E5.11048
G1 X51.686 Y60.064 E5.16475
G1 X52.196 Y59.434 E5.18643
G1 X52.453 Y59.216 E5.19542
G1 X52.792 Y59.032 E5.20573
G1 X53.218 Y58.916 E5.21752
G1 X53.752 Y58.903 E5.23179
G1 X54.207 Y58.992 E5.24420
G1 X54.582 Y59.156 E5.25513
G1 X54.896 Y59.394 E5.26565
G1 X55.180 Y59.743 E5.27766
G1 X55.460 Y60.328 E5.29499
G1 X55.592 Y60.702 E5.30561
G1 X55.625 Y64.145 E5.39761
G1 X49.987 Y64.145 E5.54826
G1 X49.987 Y62.534 E5.59131
G1 X51.461 Y62.534 E5.63071
G1 X51.921 Y62.534 F4200.000
G1 X52.084 Y62.780 F4200.000
G1 X52.091 Y62.128 E5.66137 F1200.000
G1 X52.182 Y62.081 E5.66621
G1 X52.365 Y61.899 E5.67833
G1 X52.408 Y61.514 E5.69654
G1 E1.19654 F2400.00000
G92 E0
G1 X54.952 Y60.639 F4200.000
G1 E4.50000 F2400.00000
G1 X55.023 Y61.309 E4.56551 F1200.000
G1 X55.065 Y62.780 E4.70870
G1 E0.20870 F2400.00000
G92 E0
G1 X50.479 Y57.196 F4200.000
G1 E4.50000 F2400.00000
G1 X50.479 Y56.624 E4.52692 F900.000
G1 X52.904 Y56.624 E4.64093
G1 X52.904 Y56.660 E4.64261
G1 X55.126 Y56.562 E4.74721
G1 X55.126 Y57.196 E4.77703
G1 X50.539 Y57.196 E4.99271
G1 X51.121 Y56.131 F4200.000
G1 X52.315 Y56.131 E5.02461 F900.000
G1 X52.315 Y53.538 E5.09390
G1 X53.397 Y53.538 E5.12281
G1 X53.397 Y56.145 E5.19246
G1 X54.509 Y56.096 E5.22222
G1 X54.537 Y53.168 E5.30048
G1 X55.619 Y53.168 E5.32939
G1 X55.619 Y57.689 E5.45021
G1 X49.987 Y57.689 E5.60072
G1 X49.987 Y53.062 E5.72436
G1 X51.121 Y53.062 E5.75468
G1 X51.121 Y56.071 E5.83509
G1 X51.121 Y56.531 F4200.000
G1 X50.554 Y56.377 F4200.000
G1 X50.554 Y53.308 E6.13358 F1200.000
G1 E1.63358 F2400.00000
G92 E0
G1 X52.856 Y53.785 F4200.000
G1 E4.50000 F2400.00000
G1 X52.856 Y56.378 E4.75217 F1200.000
G1 X55.063 Y56.319 F4200.000
G1 X55.077 Y53.414 E5.03463 F1200.000
G1 E0.53463 F2400.00000
G92 E0
G1 X50.479 Y51.376 F4200.000
G1 E4.50000 F2400.00000
G1 X50.479 Y50.750 E4.52941 F900.000
G1 X52.322 Y50.750 E4.61604
G1 X52.322 Y50.769 E4.61695
G1 X55.126 Y50.705 E4.74886
G1 X55.126 Y51.376 E4.78038
G1 X50.539 Y51.376 E4.99607
G1 X54.509 Y50.226 F4200.000
G1 X54.537 Y47.347 E5.07302 F900.000
G1 X55.619 Y47.347 E5.10193
G1 X55.619 Y51.868 E5.22275
G1 X49.987 Y51.868 E5.37326
G1 X49.987 Y50.257 E5.41631
G1 X52.815 Y50.265 E5.49187
G1 X54.449 Y50.228 E5.53557
G1 X54.909 Y50.226 F4200.000
G1 X52.856 Y50.057 F4200.000
G1 X52.856 Y49.063 E5.58232 F1500.000
G1 X52.848 Y48.827 F4200.000
G1 X52.504 Y48.626 E5.59299 F900.000
G1 X52.437 Y48.562 E5.59544
G1 X52.379 Y48.478 E5.59817
G1 X52.324 Y48.298 E5.60321
G1 X52.327 Y48.193 E5.60602
G1 X52.358 Y48.077 E5.60924
G1 X52.420 Y47.967 E5.61260
G1 X52.514 Y47.868 E5.61625
G1 X52.644 Y47.785 E5.62036
G1 X52.845 Y47.736 E5.62589
G1 X53.032 Y47.789 E5.63111
G1 X53.222 Y47.941 E5.63760
G1 X53.307 Y48.076 E5.64187
G1 X53.341 Y48.263 E5.64692
G1 X53.324 Y48.377 E5.65001
G1 X53.277 Y48.485 E5.65315
G1 X53.206 Y48.578 E5.65629
G1 X52.897 Y48.793 E5.66633
G1 X52.702 Y48.455 F4200.000
G1 E1.16633 F2400.00000
G92 E0
G1 X55.077 Y47.593 F4200.000
G1 E4.50000 F2400.00000
G1 X55.063 Y50.460 E4.77881 F1200.000
G1 E0.27881 F2400.00000
G92 E0
G1 X52.653 Y44.701 F4200.000
G1 E4.50000 F2400.00000
G1 X52.671 Y43.433 E4.53389 F900.000
G1 X52.707 Y43.258 E4.53866
G1 X52.810 Y43.060 E4.54464
G1 X52.947 Y42.903 E4.55019
G1 X53.114 Y42.787 E4.55563
G1 X53.300 Y42.713 E4.56097
G1 X53.488 Y42.682 E4.56606
G1 X53.695 Y42.691 E4.57162
G1 X53.890 Y42.745 E4.57700
G1 X54.032 Y42.815 E4.58126
G1 X54.261 Y43.012 E4.58931
G1 X54.357 Y43.166 E4.59417
G1 X54.421 Y43.341 E4.59914
G1 X54.471 Y43.646 E4.60741
G1 X54.488 Y44.701 E4.63560
G1 X52.713 Y44.701 E4.68303
G1 X52.253 Y44.697 F4200.000
G1 X52.134 Y43.599 F4200.000
G1 X50.483 Y42.515 E4.77589 F900.000
G1 X50.485 Y42.026 E4.79888
G1 X51.454 Y42.665 E4.85347
G1 X51.945 Y42.597 E4.87678
G1 X52.215 Y42.384 E4.89291
G1 X52.481 Y42.018 E4.91420
G1 X52.681 Y41.830 E4.92710
G1 X52.866 Y41.704 E4.93764
G1 X53.064 Y41.624 E4.94765
G1 X53.278 Y41.572 E4.95803
G1 X53.637 Y41.553 E4.97490
G1 X53.973 Y41.606 E4.99090
G1 X54.274 Y41.724 E5.00613
G1 X54.543 Y41.913 E5.02157
G1 X54.704 Y42.080 E5.03249
G1 X54.819 Y42.245 E5.04196
G1 X54.962 Y42.581 E5.05914
G1 X54.721 Y42.758 E5.07322
G1 X54.306 Y42.401 E5.09894
G1 X54.065 Y42.282 E5.11157
G1 X53.773 Y42.202 E5.12584
G1 X53.459 Y42.188 E5.14062
G1 X53.168 Y42.235 E5.15449
G1 X52.878 Y42.350 E5.16912
G1 X52.615 Y42.533 E5.18421
G1 X52.400 Y42.780 E5.19962
G1 X52.239 Y43.092 E5.21612
G1 X52.146 Y43.540 E5.23763
G1 E0.73763 F2400.00000
G92 E0
G1 X50.479 Y45.194 F4200.000
G1 E4.50000 F2400.00000
G1 X55.115 Y45.194 E4.71799 F900.000
G1 X55.124 Y45.819 E4.74740
G1 X50.479 Y45.819 E4.96579
G1 X50.479 Y45.254 E4.99238
G1 X51.522 Y44.701 F4200.000
G1 X51.519 Y43.784 E5.01688 F900.000
G1 X49.989 Y42.780 E5.06578
G1 X49.996 Y41.113 E5.11031
G1 X51.570 Y42.151 E5.16071
G1 X51.745 Y42.127 E5.16542
G1 X51.856 Y42.039 E5.16920
G1 X52.110 Y41.691 E5.18071
G1 X52.372 Y41.444 E5.19034
G1 X52.633 Y41.267 E5.19877
G1 X52.912 Y41.153 E5.20683
G1 X53.207 Y41.083 E5.21492
G1 X53.662 Y41.058 E5.22709
G1 X54.103 Y41.128 E5.23902
G1 X54.509 Y41.287 E5.25069
G1 X54.864 Y41.537 E5.26229
G1 X55.086 Y41.766 E5.27080
G1 X55.253 Y42.005 E5.27860
G1 X55.476 Y42.529 E5.29380
G1 X55.544 Y42.790 E5.30101
G1 X55.582 Y43.296 E5.31458
G1 X55.624 Y46.312 E5.39518
G1 X49.987 Y46.312 E5.54581
G1 X49.987 Y44.701 E5.58886
G1 X51.462 Y44.701 E5.62828
G1 X51.922 Y44.700 F4200.000
G1 X52.086 Y44.947 F4200.000
G1 X52.090 Y44.252 E5.66100 F1200.000
G1 X52.164 Y44.212 E5.66496
G1 X52.358 Y44.016 E5.67794
