; generated by Slic3r 1.2.9 on 2018-11-17 at 19:24:52

; external perimeters extrusion width = 0.40mm
; perimeters extrusion width = 0.67mm
; infill extrusion width = 0.67mm
; solid infill extrusion width = 0.67mm
; top infill extrusion width = 0.67mm
; support material extrusion width = 0.40mm

M107
M140 S0 ;heated bed heater off (if you have it)
G21 ;metric values
G90 ;absolute positioning
M107 ;start with the fan off
G29
M140 S0 ;heated bed heater off (if you have it)
M104 S190 ; set extruder temp
M109 S190 ; wait for extruder temp
M140 S0 ;heated bed heater off (if you have it)
G1 Z15.0 F{travel_speed} ;move the platform down 15mm
G1 F{travel_speed}
;Put printing message on LCD screen
M117 Printing...
G21 ; set units to millimeters
G90 ; use absolute coordinates
M82 ; use absolute distances for extrusion
G92 E0
G1 Z0.400 F4200.000
G1 E-4.50000 F2400.00000
G92 E0
G1 X3.746 Y2.337 F4200.000
G1 E4.50000 F2400.00000
G1 X4.628 Y1.207 E4.65325 F1800.000
G1 X4.834 Y0.995 E4.68488
G1 X6.025 Y0.020 E4.84944
G1 X6.272 Y-0.139 E4.88074
G1 X7.133 Y-0.607 E4.98553
G1 X8.198 Y-1.010 E5.10725
G1 X8.320 Y-1.045 E5.12080
G1 X9.775 Y-1.293 E5.27859
G1 X10.446 Y-1.320 E5.35040
G1 X25.989 Y-1.258 E7.01182
G1 X39.056 Y-1.072 E8.40859 F1800.000
G1 X41.322 Y-0.630 E8.65539
G1 X43.305 Y0.553 E8.90220
G1 X44.770 Y2.338 E9.14900
G1 X45.502 Y4.291 E9.37198
G1 X47.487 Y13.963 E10.42733
G1 X47.565 Y14.427 E10.47765
G1 X47.614 Y14.893 E10.52772
G1 X47.634 Y15.410 E10.58307
G1 X47.618 Y15.921 E10.63767
G1 X45.610 Y45.067 E13.76045
G1 X45.058 Y47.309 E14.00726
G1 X43.778 Y49.231 E14.25406
G1 X41.924 Y50.606 E14.50086
G1 X38.912 Y51.320 E14.83169
G1 X9.645 Y51.271 E17.95999
G1 X9.188 Y51.255 E18.00881
G1 X7.512 Y50.945 E18.19108
G1 X5.968 Y50.253 E18.37186
G1 X4.701 Y49.291 E18.54190
G1 X3.943 Y48.443 E18.66355
G1 X3.320 Y47.473 E18.78671
G1 X2.886 Y46.501 E18.90055
G1 X2.530 Y45.090 E19.05600
G1 X2.454 Y44.157 E19.15606
G1 X2.418 Y41.240 E19.46788
G1 X2.366 Y23.918 E21.31942
G1 X2.373 Y7.103 E23.11673
G1 X2.399 Y6.547 E23.17628
G1 X2.490 Y5.620 E23.27580
G1 X2.770 Y4.402 E23.40946
G1 X3.126 Y3.468 E23.51625
G1 X3.580 Y2.605 E23.62051
G1 X3.714 Y2.388 E23.64771
G1 E19.14771 F2400.00000
G92 E0
G1 X35.285 Y43.665 F4200.000
G1 E4.50000 F2400.00000
G1 X38.503 Y43.665 E4.84392 F1800.000
G1 X38.508 Y44.206 E4.90170
G1 X35.285 Y44.206 E5.24617
G1 X35.285 Y43.725 E5.29754
G1 X35.632 Y43.865 F4200.000
G1 X35.952 Y42.426 F4200.000
G1 X36.340 Y41.944 E5.36368 F1800.000
G1 X36.645 Y42.088 E5.39969
G1 X36.499 Y42.797 E5.47707
G1 X36.001 Y42.460 E5.54137
G1 X36.321 Y42.272 F4200.000
G1 X36.450 Y41.807 F4200.000
G1 X36.683 Y41.518 E5.58108 F1800.000
G1 X36.814 Y41.407 E5.59939
G1 X36.989 Y41.313 E5.62062
G1 X37.211 Y41.252 E5.64528
G1 X37.502 Y41.245 E5.67641
G1 X37.755 Y41.294 E5.70397
G1 X37.946 Y41.378 E5.72621
G1 X38.105 Y41.498 E5.74751
G1 X38.254 Y41.681 E5.77270
G1 X38.338 Y41.857 E5.79353
G1 X38.100 Y42.071 E5.82774
G1 X37.716 Y41.836 E5.87591
G1 X37.333 Y41.801 E5.91698
G1 X36.975 Y41.888 E5.95636
G1 X36.706 Y42.079 E5.99166
G1 X36.491 Y41.851 E6.02512
G1 X36.803 Y41.690 F4200.000
G1 E1.52512 F2400.00000
G92 E0
G1 X35.588 Y41.225 F4200.000
G1 X35.191 Y40.599 F4200.000
G1 X35.031 Y40.550 F4200.000
G1 X34.885 Y40.527 F4200.000
G1 X34.885 Y40.302 F4200.000
G1 X35.285 Y39.902 F4200.000
G1 E4.50000 F2400.00000
G1 X35.285 Y39.396 E4.55401 F1800.000
G1 X37.025 Y39.396 E4.73999
G1 X37.025 Y39.417 E4.74225
G1 X38.507 Y39.353 E4.90078
G1 X38.507 Y39.902 E4.95946
G1 X35.345 Y39.902 E5.29741
G1 X35.485 Y39.555 F4200.000
G1 X38.404 Y38.957 F4200.000
G1 X38.414 Y37.021 E5.50434 F1800.000
G1 X36.931 Y37.268 F4200.000
G1 X36.931 Y38.996 E5.68911 F1800.000
G1 X35.397 Y38.996 F4200.000
G1 X35.397 Y36.950 E5.90781 F1800.000
G1 X35.285 Y36.021 F4200.000
G1 X35.285 Y35.481 E5.96559 F1800.000
G1 X36.637 Y35.492 E6.11010
G1 X38.507 Y35.449 E6.31001
G1 X38.507 Y36.021 E6.37114
G1 X35.345 Y36.021 E6.70909
G1 X35.485 Y35.675 F4200.000
G1 X38.404 Y35.051 F4200.000
G1 X38.414 Y33.140 E6.91337 F1800.000
G1 E2.41337 F2400.00000
G92 E0
G1 X36.890 Y33.059 F4200.000
G1 X35.261 Y33.899 F4200.000
G1 X32.206 Y32.748 F4200.000
G1 X34.533 Y30.838 F4200.000
G1 X35.644 Y31.113 F4200.000
G1 X35.908 Y31.376 F4200.000
G1 X35.285 Y32.317 F4200.000
G1 E4.50000 F2400.00000
G1 X35.285 Y31.776 E4.55778 F1800.000
G1 X38.496 Y31.776 E4.90096
G1 X38.505 Y32.317 E4.95875
G1 X35.345 Y32.317 E5.29649
G1 X35.485 Y31.971 F4200.000
G1 X36.993 Y29.985 F4200.000
G1 X36.727 Y30.170 E5.33114 F1800.000
G1 X36.579 Y30.458 E5.36574
G1 X36.492 Y30.876 E5.41144
G1 X35.780 Y30.409 E5.50247
G1 X36.461 Y29.924 E5.59180
G1 X36.635 Y29.680 E5.62386
G1 X36.776 Y29.547 E5.64456
G1 X36.909 Y29.457 E5.66176
G1 X37.204 Y29.363 E5.69486
G1 X37.455 Y29.349 E5.72172
G1 X37.692 Y29.386 E5.74739
G1 X37.906 Y29.470 E5.77198
G1 X38.096 Y29.604 E5.79680
G1 X38.211 Y29.723 E5.81450
G1 X38.295 Y29.842 E5.83007
G1 X38.375 Y30.031 E5.85198
G1 X38.100 Y30.232 E5.88836
G1 X37.847 Y30.013 E5.92410
G1 X37.547 Y29.905 E5.95819
G1 X37.307 Y29.896 E5.98391
G1 X37.051 Y29.969 E6.01229
G1 X36.717 Y29.816 F4200.000
G1 E1.51229 F2400.00000
G92 E0
G1 X37.798 Y28.998 F4200.000
G1 X38.319 Y28.800 F4200.000
G1 X38.732 Y28.935 F4200.000
G1 X38.907 Y29.009 F4200.000
G1 X38.907 Y28.413 F4200.000
G1 X38.507 Y28.013 F4200.000
G1 E4.50000 F2400.00000
G1 X35.285 Y28.013 E4.84436 F1800.000
G1 X35.285 Y27.508 E4.89837
G1 X37.025 Y27.508 E5.08435
G1 X37.025 Y27.529 E5.08661
G1 X38.507 Y27.464 E5.24514
G1 X38.507 Y27.953 E5.29741
G1 X38.160 Y27.813 F4200.000
G1 X38.404 Y27.068 F4200.000
G1 X38.414 Y25.132 E5.50434 F1800.000
G1 X36.931 Y25.379 F4200.000
G1 X36.931 Y27.108 E5.68911 F1800.000
G1 X35.397 Y27.108 F4200.000
G1 X35.397 Y25.062 E5.90781 F1800.000
G1 E1.40781 F2400.00000
G92 E0
G1 X36.413 Y24.820 F4200.000
G1 X36.455 Y24.793 F4200.000
G1 X36.482 Y24.804 F4200.000
G1 X36.865 Y24.374 F4200.000
G1 X37.461 Y24.286 F4200.000
G1 E4.50000 F2400.00000
G1 X37.300 Y24.226 E4.51834 F1800.000
G1 X37.171 Y24.111 E4.53677
G1 X36.976 Y23.812 E4.57493
G1 X37.250 Y23.567 E4.61421
G1 X37.462 Y23.741 E4.64357
G1 X37.739 Y23.812 E4.67408
G1 X38.137 Y23.656 E4.71974
G1 X38.330 Y23.933 E4.75588
G1 X38.170 Y24.113 E4.78156
G1 X37.978 Y24.243 E4.80630
G1 X37.838 Y24.287 E4.82205
G1 X37.520 Y24.292 E4.85600
G1 X37.412 Y24.121 F4200.000
G1 X38.868 Y23.823 F4200.000
G1 X38.597 Y22.951 E4.95358 F1800.000
G1 X38.472 Y22.698 E4.98368
G1 X38.429 Y21.324 E5.13065
G1 X36.803 Y22.059 F4200.000
G1 X36.596 Y22.286 E5.16348 F1800.000
G1 X36.084 Y22.062 E5.22322
G1 X35.669 Y22.184 E5.26943
G1 X35.502 Y21.884 E5.30614
G1 X35.700 Y21.709 E5.33437
G1 X35.833 Y21.633 E5.35069
G1 X35.981 Y21.588 E5.36725
G1 X36.167 Y21.571 E5.38722
G1 X36.335 Y21.587 E5.40522
G1 X36.457 Y21.626 E5.41899
G1 X36.555 Y21.685 E5.43117
G1 X36.650 Y21.782 E5.44565
G1 X36.774 Y22.007 E5.47307
G1 X36.502 Y22.120 F4200.000
G1 X34.973 Y22.065 F4200.000
G1 X35.173 Y22.826 E5.55717 F1800.000
G1 X35.327 Y23.132 E5.59382
G1 X35.338 Y23.901 E5.67600
G1 X35.402 Y24.568 E5.74759
G1 E1.24759 F2400.00000
G92 E0
G1 X34.870 Y22.452 F4200.000
G1 X34.870 Y22.452 F4200.000
G1 X32.628 Y22.152 F4200.000
G1 X32.647 Y22.095 F4200.000
G1 X32.665 Y22.041 F4200.000
G1 X32.734 Y21.849 F4200.000
G1 X32.810 Y21.653 F4200.000
G1 X32.859 Y21.521 F4200.000
G1 X33.393 Y21.493 F4200.000
G1 X33.888 Y21.454 F4200.000
G1 X34.404 Y21.377 F4200.000
G1 X34.584 Y21.335 F4200.000
G1 X34.877 Y21.233 F4200.000
G1 X34.885 Y21.230 F4200.000
G1 X34.885 Y20.722 F4200.000
G1 X35.285 Y20.322 F4200.000
G1 E4.50000 F2400.00000
G1 X35.285 Y19.782 E4.55778 F1800.000
G1 X38.507 Y19.782 E4.90214
G1 X38.507 Y20.322 E4.95992
G1 X35.345 Y20.322 E5.29786
G1 X35.485 Y19.976 F4200.000
G1 E0.79786 F2400.00000
G92 E0
G1 X35.285 Y17.712 F4200.000
G1 E4.50000 F2400.00000
G1 X35.285 Y17.171 E4.55778 F1800.000
G1 X38.507 Y17.171 E4.90214
G1 X38.507 Y17.712 E4.95992
G1 X35.345 Y17.712 E5.29786
G1 X35.485 Y17.366 F4200.000
G1 X35.287 Y15.721 F4200.000
G1 X35.287 Y15.181 E5.35561 F1800.000
G1 X38.508 Y15.181 E5.69986
G1 X38.508 Y15.721 E5.75761
G1 X35.347 Y15.721 E6.09545
G1 X35.487 Y15.375 F4200.000
G1 E1.59545 F2400.00000
G92 E0
G1 X34.887 Y14.781 F4200.000
G1 X32.287 Y13.448 F4200.000
G1 X32.769 Y12.176 F4200.000
G1 X34.229 Y12.003 F4200.000
G1 X34.878 Y12.104 F4200.000
G1 X36.733 Y12.767 F4200.000
G1 X37.821 Y13.156 F4200.000
G1 E4.50000 F2400.00000
G1 X35.342 Y11.080 E4.84565 F1800.000
G1 X35.285 Y11.081 E4.85168
G1 X35.285 Y10.465 E4.91749
G1 X35.373 Y10.539 E4.92979
G1 X38.507 Y10.539 E5.26471
G1 X38.507 Y11.047 E5.31904
G1 X36.012 Y11.073 E5.58573
G1 X38.507 Y13.149 E5.93265
G1 X38.507 Y13.731 E5.99477
G1 X38.459 Y13.690 E6.00147
G1 X35.285 Y13.690 E6.34069
G1 X35.285 Y13.182 E6.39501
G1 X37.761 Y13.157 E6.65966
G1 X38.154 Y12.935 F4200.000
G1 E2.15966 F2400.00000
G92 E0
G1 X37.100 Y11.462 F4200.000
G1 X38.907 Y11.443 F4200.000
G1 X38.907 Y10.139 F4200.000
G1 X38.311 Y9.664 F4200.000
G1 X37.964 Y9.755 F4200.000
G1 X37.520 Y9.829 F4200.000
G1 X37.418 Y9.537 F4200.000
G1 X38.251 Y8.510 F4200.000
G1 E4.50000 F2400.00000
G1 X38.006 Y8.792 E4.53987 F1800.000
G1 X37.841 Y8.925 E4.56261
G1 X37.669 Y9.027 E4.58394
G1 X37.332 Y9.144 E4.62204
G1 X36.871 Y9.189 E4.67153
G1 X36.632 Y9.174 E4.69716
G1 X36.415 Y9.131 E4.72080
G1 X36.071 Y8.994 E4.76038
G1 X35.780 Y8.783 E4.79875
G1 X35.513 Y8.472 E4.84258
G1 X35.765 Y8.192 E4.88279
G1 X36.181 Y8.478 E4.93673
G1 X36.501 Y8.601 E4.97341
G1 X36.841 Y8.646 E5.01007
G1 X37.118 Y8.633 E5.03970
G1 X37.370 Y8.584 E5.06714
G1 X37.606 Y8.493 E5.09417
G1 X37.818 Y8.358 E5.12108
G1 X37.951 Y8.228 E5.14095
G1 X38.207 Y8.469 E5.17850
G1 X37.897 Y8.627 F4200.000
G1 X35.365 Y8.039 F4200.000
G1 X35.365 Y7.204 E5.26779 F1800.000
G1 X35.385 Y6.949 E5.29511
G1 X35.440 Y6.684 E5.32405
G1 X35.506 Y6.488 E5.34616
G1 X35.683 Y6.243 E5.37842
G1 X35.977 Y6.206 E5.41013
G1 X37.002 Y6.206 E5.51967
G1 X38.423 Y5.631 F4200.000
G1 X38.455 Y6.616 E5.62502 F1800.000
G1 X38.454 Y7.191 E5.68648
G1 X38.409 Y8.109 E5.78472
G1 E1.28472 F2400.00000
G92 E0
G1 X36.301 Y9.517 F4200.000
G1 X32.886 Y10.516 F4200.000
G1 X32.810 Y19.378 F4200.000
G1 X32.197 Y23.155 F4200.000
G1 X32.503 Y24.135 F4200.000
G1 X32.713 Y24.962 F4200.000
G1 X32.748 Y25.393 F4200.000
G1 X32.761 Y25.814 F4200.000
G1 X30.641 Y25.949 F4200.000
G1 X26.601 Y42.148 F4200.000
G1 E4.50000 F2400.00000
G1 X26.601 Y42.742 E4.56353 F1800.000
G1 X23.414 Y42.742 E4.90421
G1 X23.414 Y42.148 E4.96774
G1 X26.541 Y42.148 E5.30200
G1 X27.315 Y41.433 F4200.000
G1 X27.315 Y43.456 E5.51820 F1800.000
G1 X22.700 Y43.456 E6.01156
G1 X22.700 Y41.433 E6.22775
G1 X27.255 Y41.433 E6.71469
G1 X27.399 Y40.719 F4200.000
G1 X27.499 Y39.687 E6.82555 F1800.000
G1 X27.569 Y39.425 E6.85452
G1 X27.690 Y39.163 E6.88541
G1 X27.850 Y38.952 E6.91373
G1 X27.997 Y38.821 E6.93480
G1 X28.155 Y38.722 E6.95467
G1 X28.431 Y38.622 E6.98604
G1 X28.927 Y38.554 E7.03953
G1 X29.436 Y38.525 E7.09402
G1 X29.998 Y38.573 E7.15429
G1 X30.108 Y38.605 E7.16659
G1 X30.200 Y38.655 E7.17782
G1 X30.404 Y38.865 E7.20914
G1 X30.482 Y39.059 E7.23142
G1 X30.490 Y39.271 E7.25411
G1 X30.471 Y39.402 E7.26827
G1 X30.373 Y39.624 E7.29415
G1 X30.278 Y39.726 E7.30909
G1 X30.120 Y39.829 E7.32923
G1 X29.953 Y39.877 E7.34782
G1 X28.029 Y39.914 E7.55348
G1 X28.029 Y44.170 E8.00844
G1 X21.985 Y44.170 E8.65447
G1 X21.985 Y39.908 E9.11006
G1 X18.630 Y39.881 E9.46872
G1 X18.258 Y39.855 E9.50863
G1 X18.130 Y39.824 E9.52267
G1 X17.990 Y39.716 E9.54154
G1 X17.891 Y39.607 E9.55733
G1 X17.817 Y39.487 E9.57244
G1 X17.770 Y39.365 E9.58639
G1 X17.785 Y39.076 E9.61732
G1 X17.817 Y38.949 E9.63125
G1 X17.954 Y38.748 E9.65728
G1 X18.054 Y38.664 E9.67124
G1 X18.264 Y38.568 E9.69591
G1 X18.731 Y38.542 E9.74590
G1 X21.425 Y38.587 E10.03389
G1 X21.768 Y38.640 E10.07096
G1 X22.000 Y38.713 E10.09692
G1 X22.191 Y38.799 E10.11936
G1 X22.364 Y38.913 E10.14148
G1 X22.512 Y39.065 E10.16414
G1 X22.653 Y39.297 E10.19316
G1 X22.787 Y39.667 E10.23524
G1 X22.903 Y40.719 E10.34843
G1 X27.339 Y40.719 E10.82263
G1 X27.798 Y40.745 F4200.000
G1 E6.32263 F2400.00000
G92 E0
G1 X22.418 Y32.881 F4200.000
G1 X22.345 Y32.785 F4200.000
G1 X22.344 Y32.440 F4200.000
G1 X22.420 Y32.440 F4200.000
G1 X23.021 Y30.193 F4200.000
G1 E4.50000 F2400.00000
G1 X23.015 Y33.543 E4.85810 F1800.000
G1 X21.682 Y33.410 E5.00131
G1 X21.667 Y30.165 E5.34820
G1 X18.346 Y30.153 E5.70317
G1 X18.113 Y30.056 E5.73014
G1 X17.966 Y29.933 E5.75067
G1 X17.839 Y29.756 E5.77394
G1 X17.782 Y29.646 E5.78718
G1 X17.776 Y29.308 E5.82329
G1 X17.889 Y29.045 E5.85389
G1 X18.085 Y28.851 E5.88338
G1 X18.249 Y28.766 E5.90304
G1 X18.528 Y28.707 E5.93353
G1 X22.933 Y28.707 E6.40440
G1 X24.085 Y28.727 E6.52761
G1 X24.234 Y28.742 E6.54353
G1 X24.345 Y28.785 E6.55627
G1 X24.552 Y28.934 E6.58359
G1 X24.644 Y29.048 E6.59920
G1 X24.710 Y29.172 E6.61423
G1 X24.750 Y29.305 E6.62913
G1 X24.765 Y29.443 E6.64391
G1 X24.754 Y29.580 E6.65859
G1 X24.716 Y29.712 E6.67329
G1 X24.652 Y29.837 E6.68833
G1 X24.456 Y30.044 E6.71880
G1 X24.376 Y30.090 E6.72860
G1 X24.250 Y30.126 E6.74262
G1 X23.080 Y30.190 E6.86784
G1 X22.621 Y30.200 F4200.000
G1 E2.36784 F2400.00000
G92 E0
G1 X24.123 Y29.535 F4200.000
G1 X24.087 Y29.466 F4200.000
G1 X24.080 Y29.457 F4200.000
G1 X24.161 Y29.472 F4200.000
G1 X28.658 Y30.165 F4200.000
G1 E4.50000 F2400.00000
G1 X28.960 Y29.367 E4.59123 F1800.000
G1 X29.066 Y28.615 E4.67236
G1 X29.059 Y28.001 E4.73806
G1 X28.987 Y27.404 E4.80228
G1 X28.740 Y26.505 E4.90194
G1 X28.523 Y26.083 E4.95266
G1 X29.007 Y26.073 E5.00437
G1 X29.684 Y26.026 E5.07693
G1 X30.234 Y25.955 E5.13620
G1 X30.251 Y30.165 E5.58620
G1 X28.718 Y30.165 E5.75013
G1 X28.935 Y29.876 F4200.000
G1 E1.25013 F2400.00000
G92 E0
G1 X25.207 Y20.322 F4200.000
G1 X24.425 Y19.555 F4200.000
G1 X24.425 Y14.184 F4200.000
G1 X25.207 Y14.184 F4200.000
G1 X25.093 Y14.070 F4200.000
G1 E4.50000 F2400.00000
G1 X25.093 Y20.208 E5.15612 F1800.000
G1 X24.564 Y20.208 E5.21262
G1 X24.549 Y20.231 E5.21557
G1 X23.758 Y20.220 E5.30008
G1 X23.758 Y14.070 E5.95745
G1 X22.488 Y14.070 E6.09320
G1 X22.488 Y12.947 E6.21325
G1 X27.139 Y12.947 E6.71037
G1 X27.139 Y14.070 E6.83041
G1 X25.153 Y14.070 E7.04270
G1 X25.807 Y14.784 F4200.000
G1 X25.807 Y19.776 E7.57636 F1800.000
G1 X29.594 Y19.802 E7.98115
G1 X30.202 Y19.857 E8.04645
G1 X30.364 Y20.002 E8.06963
G1 X30.456 Y20.143 E8.08758
G1 X30.481 Y20.228 E8.09710
G1 X30.490 Y20.408 E8.11641
G1 X30.448 Y20.604 E8.13782
G1 X30.395 Y20.698 E8.14933
G1 X30.305 Y20.792 E8.16323
G1 X30.177 Y20.869 E8.17926
G1 X30.057 Y20.902 E8.19249
G1 X29.516 Y20.922 E8.25042
G1 X24.942 Y20.922 E8.73934
G1 X24.922 Y20.950 E8.74297
G1 X23.211 Y20.926 E8.92596
G1 X18.487 Y20.922 E9.43086
G1 X18.111 Y20.876 E9.47137
G1 X18.038 Y20.839 E9.48016
G1 X17.905 Y20.721 E9.49909
G1 X17.791 Y20.527 E9.52316
G1 X17.769 Y20.418 E9.53501
G1 X17.796 Y20.194 E9.55914
G1 X17.909 Y19.993 E9.58378
G1 X17.993 Y19.914 E9.59613
G1 X18.094 Y19.854 E9.60872
G1 X18.199 Y19.819 E9.62060
G1 X19.411 Y19.786 E9.75014
G1 X23.044 Y19.781 E10.13847
G1 X23.044 Y14.784 E10.67265
G1 X21.774 Y14.784 E10.80840
G1 X21.774 Y11.402 E11.16985
G1 X18.224 Y11.380 E11.54928
G1 X18.001 Y11.244 E11.57723
G1 X17.925 Y11.170 E11.58858
G1 X17.842 Y11.044 E11.60475
G1 X17.791 Y10.902 E11.62077
G1 X17.772 Y10.734 E11.63888
G1 X17.814 Y10.496 E11.66467
G1 X17.884 Y10.362 E11.68085
G1 X17.983 Y10.250 E11.69684
G1 X18.213 Y10.098 E11.72634
G1 X20.800 Y10.106 E12.00282
G1 X21.478 Y10.154 E12.07550
G1 X21.858 Y10.262 E12.11767
G1 X22.069 Y10.350 E12.14212
G1 X22.220 Y10.443 E12.16106
G1 X22.355 Y10.563 E12.18042
G1 X22.508 Y10.777 E12.20853
G1 X22.594 Y11.041 E12.23818
G1 X22.711 Y12.232 E12.36616
G1 X27.190 Y12.232 E12.84487
G1 X27.307 Y11.168 E12.95931
G1 X27.394 Y10.864 E12.99311
G1 X27.508 Y10.631 E13.02081
G1 X27.649 Y10.451 E13.04529
G1 X27.841 Y10.298 E13.07152
G1 X28.160 Y10.153 E13.10901
G1 X28.368 Y10.117 E13.13154
G1 X29.114 Y10.089 E13.21138
G1 X29.857 Y10.092 E13.29081
G1 X30.066 Y10.121 E13.31332
G1 X30.145 Y10.151 E13.32236
G1 X30.305 Y10.284 E13.34458
G1 X30.389 Y10.380 E13.35819
G1 X30.475 Y10.553 E13.37895
