; generated by Slic3r 1.2.9 on 2018-09-27 at 00:36:23

; external perimeters extrusion width = 0.40mm
; perimeters extrusion width = 0.67mm
; infill extrusion width = 0.67mm
; solid infill extrusion width = 0.67mm
; top infill extrusion width = 0.67mm
; support material extrusion width = 0.40mm

M127
M104 S190 T0 ; set temperature
G28 ; home all axes
G1 Z5 F5000 ; lift nozzle

M73 P0
G1 Z0.400 F7800.000
G1 E-2.00000 F2400.00000
M103 ; extruder off
G1 X65.506 Y82.648 F7800.000
M101 ; extruder on
G1 E0.00000 F2400.00000
G1 X67.642 Y81.771 E0.27422 F1800.000
G1 X69.085 Y81.614 E0.44655
G1 X76.257 Y81.614 E1.29835
M101 ; extruder on
G1 X131.216 Y81.715 E7.82556 F1800.000
G1 X133.490 Y82.116 E8.09978
G1 X135.493 Y83.264 E8.37401
G1 X136.989 Y85.023 E8.64823
G1 X137.801 Y87.184 E8.92246
G1 X137.918 Y88.429 E9.07097
G1 X137.918 Y111.724 E11.83754
G1 X137.521 Y113.998 E12.11177
G1 X136.377 Y116.004 E12.38599
G1 X134.621 Y117.503 E12.66022
G1 X132.461 Y118.319 E12.93444
G1 X131.204 Y118.438 E13.08441
G1 X78.262 Y118.438 E19.37208
G1 X75.987 Y118.041 E19.64630
G1 X73.981 Y116.897 E19.92053
G1 X72.011 Y114.176 E20.31955
G1 X62.834 Y90.780 E23.30420
G1 X62.373 Y88.518 E23.57842
G1 X62.706 Y86.233 E23.85265
G1 X63.793 Y84.196 E24.12687
G1 X65.462 Y82.688 E24.39397
G1 E22.39397 F2400.00000
M103 ; extruder off
G1 X106.572 Y106.356 F7800.000
M101 ; extruder on
G1 E24.39397 F2400.00000
G1 X93.184 Y106.356 E25.98405 F1800.000
G1 X98.535 Y94.173 E27.56442
G1 X101.678 Y94.173 E27.93762
G1 X106.550 Y106.300 E29.48984
G1 X106.623 Y106.753 F7800.000
G1 X102.083 Y93.573 F7800.000
G1 X101.049 Y92.115 F7800.000
G1 X100.171 Y92.699 F7800.000
G1 X99.521 Y93.296 F7800.000
G1 X99.247 Y93.262 F7800.000
G1 X98.134 Y93.836 F7800.000
M101 ; extruder on
G1 X97.858 Y93.966 E29.52607 F1800.000
G1 X97.559 Y94.023 E29.56231
G1 X97.254 Y94.004 E29.59854
G1 X96.964 Y93.910 E29.63478
G1 X96.706 Y93.746 E29.67101
G1 X96.497 Y93.524 E29.70725
G1 X96.350 Y93.257 E29.74348
G1 X96.272 Y92.953 E29.78073
G1 X96.287 Y92.608 E29.82169
G1 X96.350 Y92.360 E29.85207
G1 X96.497 Y92.093 E29.88831
G1 X96.706 Y91.871 E29.92454
G1 X96.971 Y91.703 E29.96178
G1 X97.303 Y91.610 E30.00274
M101 ; extruder on
G1 X97.559 Y91.594 E30.03313 F1800.000
G1 X97.858 Y91.651 E30.06937
G1 X98.134 Y91.781 E30.10560
G1 X98.369 Y91.975 E30.14184
G1 X98.549 Y92.222 E30.17807
G1 X98.661 Y92.506 E30.21431
G1 X98.699 Y92.808 E30.25054
G1 X98.661 Y93.111 E30.28678
G1 X98.549 Y93.395 E30.32301
G1 X98.369 Y93.642 E30.35925
G1 X98.181 Y93.798 E30.38836
G1 X98.134 Y94.141 F7800.000
G1 E28.38836 F2400.00000
M103 ; extruder off
G1 X95.680 Y92.561 F7800.000
G1 X95.680 Y92.561 F7800.000
G1 X95.714 Y91.799 F7800.000
M101 ; extruder on
G1 E30.38836 F2400.00000
G1 X95.484 Y91.989 E30.42383 F1800.000
G1 X95.214 Y92.117 E30.45930
G1 X94.921 Y92.173 E30.49477
G1 X94.623 Y92.154 E30.53024
G1 X94.339 Y92.061 E30.56571
G1 X94.086 Y91.901 E30.60118
G1 X93.882 Y91.684 E30.63665
G1 X93.738 Y91.422 E30.67212
G1 X93.662 Y91.124 E30.70860
G1 X93.676 Y90.788 E30.74865
G1 X93.738 Y90.545 E30.77842
G1 X93.882 Y90.283 E30.81389
G1 X94.086 Y90.065 E30.84937
G1 X94.346 Y89.901 E30.88585
G1 X94.670 Y89.810 E30.92589
M101 ; extruder on
G1 X94.921 Y89.794 E30.95567 F1800.000
G1 X95.214 Y89.850 E30.99114
G1 X95.484 Y89.977 E31.02661
G1 X95.714 Y90.168 E31.06208
G1 X95.890 Y90.409 E31.09755
G1 X96.000 Y90.687 E31.13302
G1 X96.038 Y90.992 E31.16950
G1 X95.982 Y91.324 E31.20955
G1 X95.890 Y91.557 E31.23932
G1 X95.750 Y91.750 E31.26767
G1 X95.789 Y92.088 F7800.000
G1 E29.26767 F2400.00000
M103 ; extruder off
G1 X99.124 Y93.573 F7800.000
G1 X101.859 Y92.722 F7800.000
G1 X109.391 Y99.167 F7800.000
G1 X112.161 Y102.519 F7800.000
G1 X115.827 Y101.347 F7800.000
G1 X116.740 Y100.818 F7800.000
G1 X116.766 Y100.801 F7800.000
G1 X117.635 Y101.166 F7800.000
G1 X117.559 Y101.052 F7800.000
M101 ; extruder on
G1 E31.26767 F2400.00000
G1 X124.906 Y101.052 E32.14025 F1800.000
G1 X124.932 Y107.240 E32.87513
G1 X114.958 Y107.240 E34.05969
G1 X117.536 Y101.107 E34.84974
G1 X118.033 Y101.766 F7800.000
M101 ; extruder on
G1 X124.195 Y101.766 E35.58150 F1800.000
G1 X124.215 Y106.526 E36.14675
G1 X116.033 Y106.526 E37.11848
G1 X118.010 Y101.822 E37.72452
G1 X118.086 Y101.370 F7800.000
G1 X101.860 Y92.744 F7800.000
M101 ; extruder on
G1 X100.131 Y92.744 E37.92988 F1800.000
G1 X100.055 Y92.148 E38.00131
G1 X99.810 Y91.529 E38.08040
G1 X99.419 Y90.990 E38.15950
G1 X98.534 Y90.258 E38.29591
G1 X101.841 Y90.258 E38.68870
G1 X101.632 Y91.071 E38.78847
G1 X101.632 Y91.858 E38.88186
G1 X101.845 Y92.686 E38.98347
G1 X107.601 Y95.300 F7800.000
M101 ; extruder on
G1 X112.312 Y95.300 E39.54287 F1800.000
G1 X112.312 Y96.112 E39.63940
G1 X112.476 Y96.751 E39.71773
G1 X112.756 Y97.261 E39.78679
G1 X113.212 Y97.789 E39.86971
G1 X113.802 Y98.163 E39.95265
G1 X113.927 Y98.204 E39.96826
G1 X114.121 Y98.959 E40.06082
G1 X114.453 Y99.564 E40.14276
G1 X114.925 Y100.066 E40.22469
G1 X115.508 Y100.436 E40.30663
G1 X116.164 Y100.649 E40.38857
G1 X116.933 Y100.698 E40.48012
G1 X113.883 Y107.954 E41.41495
G1 X125.649 Y107.954 E42.81235
G1 X125.617 Y100.338 E43.71687
G1 X118.518 Y100.338 E44.56003
G1 X118.420 Y100.046 E44.59660
G1 X118.646 Y99.875 E44.63029
G1 X125.662 Y99.875 E45.46363
G1 X125.639 Y96.375 E45.87930
G1 X126.342 Y96.240 E45.96439
G1 X126.935 Y95.962 E46.04220
G1 X127.138 Y95.794 E46.07341
G1 X127.485 Y96.015 E46.12232
G1 X128.134 Y96.225 E46.20334
G1 X128.815 Y96.268 E46.28436
G1 X129.375 Y96.161 E46.35210
G1 X129.375 Y109.895 E47.98323
G1 X79.508 Y109.895 E53.90568
G1 X75.349 Y99.292 E55.25847
G1 X75.684 Y99.313 E55.29837
G1 X76.355 Y99.185 E55.37947
G1 X76.973 Y98.894 E55.46057
G1 X77.499 Y98.459 E55.54167
G1 X77.900 Y97.906 E55.62277
G1 X78.192 Y97.169 E55.71693
G1 X78.774 Y96.896 E55.79325
G1 X79.291 Y96.467 E55.87301
G1 X79.686 Y95.924 E55.95276
G1 X79.973 Y95.199 E56.04541
G1 X86.079 Y95.199 E56.77052
G1 X86.852 Y93.551 E56.98672
G1 X87.053 Y93.765 E57.02165
G1 X87.721 Y94.189 E57.11562
G1 X88.474 Y94.434 E57.20959
G1 X89.264 Y94.484 E57.30356
G1 X90.041 Y94.335 E57.39752
G1 X90.757 Y93.998 E57.49149
G1 X91.366 Y93.494 E57.58546
G1 X91.831 Y92.854 E57.67943
G1 X92.277 Y91.729 E57.82314
G1 X92.717 Y92.530 E57.93170
G1 X93.169 Y93.011 E58.01003
G1 X93.726 Y93.364 E58.08836
G1 X94.353 Y93.568 E58.16669
G1 X94.966 Y93.606 E58.23962
G1 X95.012 Y93.787 E58.26169
G1 X95.333 Y94.370 E58.34079
G1 X95.789 Y94.856 E58.41988
G1 X96.482 Y95.296 E58.51742
G1 X90.996 Y107.784 E60.13741
G1 X108.685 Y107.784 E62.23823
G1 X103.248 Y94.251 E63.97040
G1 X104.157 Y94.546 E64.08387
G1 X104.942 Y94.595 E64.17726
G1 X105.714 Y94.448 E64.27066
G1 X106.426 Y94.113 E64.36405
G1 X106.928 Y93.697 E64.44155
G1 X107.578 Y95.244 E64.64083
G1 X108.076 Y94.586 F7800.000
M101 ; extruder on
G1 X113.416 Y94.586 E65.27505 F1800.000
G1 X113.145 Y95.079 E65.34194
G1 X113.026 Y95.543 E65.39885
G1 X113.026 Y96.022 E65.45575
G1 X113.145 Y96.486 E65.51264
G1 X113.345 Y96.851 E65.56206
G1 X113.684 Y97.243 E65.62355
G1 X114.108 Y97.512 E65.68325
G1 X114.663 Y97.692 E65.75255
G1 X114.663 Y98.201 E65.81289
G1 X114.790 Y98.694 E65.87340
G1 X115.035 Y99.140 E65.93391
G1 X115.384 Y99.512 E65.99441
G1 X115.814 Y99.785 E66.05492
G1 X116.299 Y99.942 E66.11543
G1 X116.807 Y99.974 E66.17593
G1 X117.308 Y99.879 E66.23644
G1 X117.706 Y99.691 E66.28874
G1 X118.147 Y99.356 E66.35453
G1 X118.289 Y99.160 E66.38328
G1 X124.943 Y99.160 E67.17351
G1 X124.919 Y95.530 E67.60467
G1 X125.180 Y95.615 E67.63728
G1 X125.654 Y95.645 E67.69366
G1 X126.120 Y95.556 E67.75004
G1 X126.549 Y95.354 E67.80641
G1 X126.915 Y95.051 E67.86279
G1 X127.095 Y94.804 E67.89914
G1 X127.368 Y95.094 E67.94652
G1 X127.792 Y95.363 E68.00611
G1 X128.269 Y95.518 E68.06571
G1 X128.770 Y95.550 E68.12530
G1 X129.263 Y95.456 E68.18489
G1 X129.717 Y95.242 E68.24449
G1 X130.089 Y94.934 E68.30193
G1 X130.089 Y110.610 E70.16366
G1 X79.021 Y110.610 E76.22877
G1 X74.277 Y98.514 E77.77181
G1 X74.517 Y98.317 E77.80872
G1 X74.660 Y98.407 E77.82884
G1 X75.138 Y98.563 E77.88851
G1 X75.639 Y98.594 E77.94818
G1 X76.133 Y98.500 E78.00785
G1 X76.587 Y98.286 E78.06752
G1 X76.974 Y97.966 E78.12719
G1 X77.270 Y97.559 E78.18686
G1 X77.455 Y97.092 E78.24653
G1 X77.520 Y96.578 E78.30814
G1 X77.944 Y96.497 E78.35941
G1 X78.388 Y96.288 E78.41774
G1 X78.767 Y95.975 E78.47606
G1 X79.055 Y95.577 E78.53439
G1 X79.236 Y95.121 E78.59271
G1 X79.316 Y94.485 E78.66885
G1 X85.625 Y94.485 E79.41809
G1 X86.737 Y92.116 E79.72891
G1 X87.094 Y92.766 E79.81699
G1 X87.512 Y93.211 E79.88952
G1 X88.028 Y93.538 E79.96206
G1 X88.609 Y93.727 E80.03460
G1 X89.218 Y93.765 E80.10714
G1 X89.818 Y93.651 E80.17968
G1 X90.371 Y93.391 E80.25222
G1 X90.842 Y93.001 E80.32476
G1 X91.201 Y92.507 E80.39729
G1 X91.425 Y91.939 E80.46983
G1 X91.502 Y91.333 E80.54237
G1 X91.425 Y90.727 E80.61491
G1 X91.201 Y90.160 E80.68745
G1 X90.753 Y89.543 E80.77789
G1 X93.474 Y89.543 E81.10099
G1 X93.069 Y90.280 E81.20078
G1 X92.965 Y90.683 E81.25020
G1 X92.944 Y91.200 E81.31168
G1 X93.069 Y91.687 E81.37139
G1 X93.300 Y92.107 E81.42829
G1 X93.628 Y92.456 E81.48519
G1 X94.032 Y92.713 E81.54209
G1 X94.488 Y92.861 E81.59899
G1 X94.966 Y92.891 E81.65590
G1 X95.565 Y92.777 E81.72834
G1 X95.555 Y93.028 E81.75826
G1 X95.681 Y93.522 E81.81873
G1 X95.915 Y93.947 E81.87640
G1 X96.247 Y94.301 E81.93406
G1 X96.657 Y94.561 E81.99173
G1 X97.119 Y94.711 E82.04939
G1 X97.508 Y94.736 E82.09567
G1 X92.090 Y107.070 E83.69566
G1 X107.629 Y107.070 E85.54111
G1 X102.160 Y93.459 E87.28327
G1 X99.337 Y93.459 E87.61859
G1 X99.419 Y92.808 E87.69641
G1 X99.358 Y92.327 E87.75408
G1 X99.180 Y91.875 E87.81175
G1 X98.894 Y91.483 E87.86941
G1 X98.520 Y91.173 E87.92707
G1 X98.081 Y90.966 E87.98474
G1 X97.604 Y90.875 E88.04240
G1 X97.183 Y90.902 E88.09243
G1 X96.762 Y91.020 E88.14442
G1 X96.697 Y90.508 E88.20566
G1 X96.521 Y90.063 E88.26256
G1 X96.144 Y89.543 E88.33876
G1 X103.259 Y89.543 E89.18379
G1 X102.789 Y90.044 E89.26527
G1 X102.497 Y90.575 E89.33724
G1 X102.346 Y91.161 E89.40920
G1 X102.346 Y91.767 E89.48117
G1 X102.497 Y92.354 E89.55313
G1 X102.789 Y92.885 E89.62510
G1 X103.204 Y93.327 E89.69706
G1 X103.716 Y93.652 E89.76903
G1 X104.292 Y93.839 E89.84099
G1 X104.897 Y93.877 E89.91296
G1 X105.492 Y93.763 E89.98492
G1 X106.040 Y93.505 E90.05689
G1 X106.507 Y93.119 E90.12885
G1 X106.863 Y92.629 E90.20082
G1 X107.053 Y92.149 E90.26207
G1 X108.053 Y94.530 E90.56876
G1 X110.707 Y101.504 F7800.000
G1 X111.330 Y105.401 F7800.000
G1 X107.460 Y108.840 F7800.000
G1 X92.265 Y108.840 F7800.000
G1 X88.831 Y99.701 F7800.000
G1 X92.526 Y94.219 F7800.000
G1 X92.380 Y92.990 F7800.000
G1 X92.333 Y92.622 F7800.000
G1 X92.313 Y92.306 F7800.000
G1 X91.314 Y91.911 F7800.000
G1 X90.728 Y91.760 F7800.000
M101 ; extruder on
G1 X90.570 Y92.160 E90.61987 F1800.000
G1 X90.317 Y92.509 E90.67097
G1 X89.985 Y92.783 E90.72208
G1 X89.596 Y92.966 E90.77319
G1 X89.173 Y93.047 E90.82430
G1 X88.744 Y93.020 E90.87541
G1 X88.334 Y92.887 E90.92652
G1 X87.971 Y92.656 E90.97763
G1 X87.677 Y92.342 E91.02873
G1 X87.469 Y91.965 E91.07984
G1 X87.362 Y91.549 E91.13095
G1 X87.362 Y91.118 E91.18206
G1 X87.469 Y90.701 E91.23317
G1 X87.677 Y90.324 E91.28428
G1 X87.971 Y90.011 E91.33539
G1 X88.334 Y89.780 E91.38649
G1 X88.744 Y89.647 E91.43760
G1 X88.860 Y89.640 E91.45143
M101 ; extruder on
G1 X89.173 Y89.620 E91.48871 F1800.000
G1 X89.596 Y89.701 E91.53982
G1 X89.985 Y89.884 E91.59093
G1 X90.317 Y90.158 E91.64204
G1 X90.570 Y90.506 E91.69314
G1 X90.728 Y90.906 E91.74425
G1 X90.782 Y91.333 E91.79536
G1 X90.736 Y91.701 E91.83934
G1 X91.002 Y92.052 F7800.000
G1 E89.83934 F2400.00000
M103 ; extruder off
G1 X86.790 Y91.733 F7800.000
G1 X82.735 Y101.548 F7800.000
G1 X74.190 Y98.161 F7800.000
G1 X73.924 Y97.738 F7800.000
G1 X73.719 Y97.299 F7800.000
G1 X73.444 Y95.818 F7800.000
G1 X75.183 Y93.712 F7800.000
G1 X76.017 Y92.583 F7800.000
G1 X76.324 Y92.258 F7800.000
G1 X76.974 Y92.531 F7800.000
G1 X77.149 Y92.630 F7800.000
G1 X77.149 Y92.630 F7800.000
G1 X77.236 Y92.649 F7800.000
M101 ; extruder on
G1 E91.83934 F2400.00000
G1 X76.524 Y92.848 E91.92709 F1800.000
G1 X76.090 Y93.124 E91.98823
G1 X75.753 Y93.482 E92.04655
G1 X75.517 Y93.912 E92.10487
G1 X75.395 Y94.388 E92.16320
G1 X75.395 Y94.609 E92.18942
G1 X75.205 Y94.621 E92.21197
G1 X74.680 Y94.768 E92.27676
G1 X74.236 Y95.049 E92.33924
G1 X73.892 Y95.416 E92.39891
G1 X73.650 Y95.856 E92.45858
G1 X73.611 Y96.005 E92.47683
G1 X73.300 Y96.024 E92.51387
G1 X72.397 Y93.722 E92.80758
G1 X73.100 Y93.950 E92.89538
G1 X73.633 Y93.984 E92.95878
G1 X74.157 Y93.884 E93.02219
G1 X74.574 Y93.688 E93.07681
G1 X75.038 Y93.335 E93.14607
G1 X75.366 Y92.884 E93.21228
G1 X75.562 Y92.388 E93.27569
G1 X75.629 Y91.858 E93.33910
G1 X75.562 Y91.328 E93.40251
G1 X75.366 Y90.832 E93.46591
G1 X75.052 Y90.400 E93.52932
G1 X74.641 Y90.060 E93.59273
G1 X74.041 Y89.778 E93.67139
G1 X74.116 Y89.443 E93.71217
G1 X75.568 Y89.443 E93.88463
G1 X77.208 Y92.596 E94.30676
G1 X74.865 Y92.209 F7800.000
M101 ; extruder on
G1 X74.735 Y92.537 E94.34874 F1800.000
G1 X74.522 Y92.830 E94.39173
G1 X74.202 Y93.074 E94.43955
G1 X73.935 Y93.199 E94.47453
G1 X73.588 Y93.265 E94.51650
G1 X73.235 Y93.243 E94.55848
G1 X72.899 Y93.134 E94.60046
G1 X72.601 Y92.944 E94.64244
G1 X72.359 Y92.687 E94.68441
G1 X72.188 Y92.377 E94.72639
G1 X72.100 Y92.035 E94.76837
G1 X72.100 Y91.681 E94.81035
G1 X72.188 Y91.339 E94.85232
G1 X72.359 Y91.029 E94.89430
G1 X72.601 Y90.772 E94.93628
G1 X72.906 Y90.578 E94.97926
G1 X73.294 Y90.469 E95.02708
M101 ; extruder on
G1 X73.588 Y90.451 E95.06207 F1800.000
G1 X73.935 Y90.517 E95.10404
G1 X74.255 Y90.667 E95.14602
G1 X74.527 Y90.893 E95.18800
G1 X74.735 Y91.179 E95.22997
G1 X74.865 Y91.507 E95.27195
G1 X74.909 Y91.858 E95.31393
G1 X74.873 Y92.149 E95.34878
G1 X75.107 Y92.466 F7800.000
G1 X74.579 Y90.157 F7800.000
G1 X73.675 Y89.590 F7800.000
G1 X73.281 Y89.598 F7800.000
G1 X73.104 Y89.604 F7800.000
G1 X73.122 Y89.879 F7800.000
G1 X72.989 Y89.813 F7800.000
M101 ; extruder on
G1 X72.612 Y89.918 E95.39522 F1800.000
G1 X72.142 Y90.217 E95.46143
G1 X71.776 Y90.606 E95.52484
G1 X71.425 Y91.244 E95.61133
G1 X70.719 Y89.443 E95.84117
G1 X72.938 Y89.443 E96.10477
G1 X72.981 Y89.753 E96.14203
G1 X74.180 Y89.638 F7800.000
G1 X75.426 Y90.146 F7800.000
G1 X75.794 Y92.866 F7800.000
G1 X73.478 Y95.205 F7800.000
G1 X73.479 Y96.357 F7800.000
G1 X73.723 Y97.308 F7800.000
G1 X74.190 Y98.161 F7800.000
G1 X82.735 Y101.548 F7800.000
G1 X86.495 Y104.421 F7800.000
G1 X92.265 Y108.840 F7800.000
G1 X111.298 Y106.885 F7800.000
G1 X103.469 Y94.457 F7800.000
G1 X101.626 Y92.563 F7800.000
G1 X100.795 Y91.742 F7800.000
G1 X100.691 Y91.199 F7800.000
G1 X100.714 Y91.176 F7800.000
G1 X102.461 Y91.176 F7800.000
G1 X103.061 Y91.252 F7800.000
M101 ; extruder on
G1 X103.166 Y90.840 E96.19257 F1800.000
G1 X103.371 Y90.467 E96.24310
G1 X103.663 Y90.157 E96.29364
G1 X104.022 Y89.929 E96.34417
G1 X104.427 Y89.797 E96.39471
G1 X104.542 Y89.790 E96.40842
M101 ; extruder on
G1 X104.851 Y89.770 E96.44524 F1800.000
G1 X105.269 Y89.850 E96.49578
G1 X105.654 Y90.031 E96.54631
G1 X105.982 Y90.302 E96.59685
G1 X106.232 Y90.647 E96.64738
G1 X106.389 Y91.042 E96.69792
G1 X106.442 Y91.464 E96.74846
G1 X106.389 Y91.887 E96.79899
G1 X106.232 Y92.282 E96.84953
G1 X105.982 Y92.626 E96.90006
G1 X105.654 Y92.898 E96.95060
G1 X105.269 Y93.079 E97.00113
G1 X104.851 Y93.159 E97.05167
G1 X104.427 Y93.132 E97.10220
G1 X104.022 Y93.000 E97.15274
G1 X103.663 Y92.772 E97.20327
G1 X103.371 Y92.462 E97.25381
G1 X103.166 Y92.089 E97.30434
G1 X103.061 Y91.677 E97.35488
G1 X103.061 Y91.312 E97.39829
G1 X102.752 Y90.997 F7800.000
G1 E95.39829 F2400.00000
M103 ; extruder off
G1 X106.762 Y92.574 F7800.000
G1 X109.391 Y99.167 F7800.000
G1 X111.159 Y96.516 F7800.000
G1 X112.297 Y95.341 F7800.000
G1 X112.748 Y94.992 F7800.000
G1 X113.252 Y95.121 F7800.000
G1 X115.681 Y97.059 F7800.000
M101 ; extruder on
G1 E97.39829 F2400.00000
G1 X115.468 Y96.832 E97.43526 F1800.000
G1 X115.290 Y96.916 E97.45856
G1 X114.989 Y96.973 E97.49504
G1 X114.653 Y96.938 E97.53509
G1 X114.415 Y96.861 E97.56486
G1 X114.155 Y96.696 E97.60134
G1 X113.935 Y96.441 E97.64139
