; generated by Slic3r 1.2.9 on 2018-11-05 at 16:49:39

; external perimeters extrusion width = 0.40mm
; perimeters extrusion width = 0.67mm
; infill extrusion width = 0.67mm
; solid infill extrusion width = 0.67mm
; top infill extrusion width = 0.67mm
; support material extrusion width = 0.40mm

M107
M190 S55 ; set bed temperature
G21 ;metric values
G90 ;absolute positioning
M107 ;start with the fan off
G28 X0 Y0 ;move X/Y to min endstops
G29
M104 S190 ; set extruder temp
M109 S190 ; wait for extruder temp
G1 Z15.0 F{travel_speed} ;move the platform down 15mm
G1 F{travel_speed}
;Put printing message on LCD screen
M117 Printing...
G21 ; set units to millimeters
G90 ; use absolute coordinates
M82 ; use absolute distances for extrusion
G92 E0
G1 Z0.400 F4200.000
G1 E-4.50000 F2400.00000
G92 E0
G1 X55.096 Y50.720 F4200.000
G1 E4.50000 F2400.00000
G1 X56.852 Y49.220 E4.74680 F1800.000
G1 X59.012 Y48.405 E4.99360
G1 X60.269 Y48.286 E5.12857
G1 X119.603 Y48.286 E11.47064
G1 X121.877 Y48.683 E11.71744
G1 X123.568 Y49.582 E11.92210 F1800.000
G1 X143.568 Y64.218 E14.57116
G1 X145.169 Y65.882 E14.81797
G1 X146.155 Y68.170 E15.08434
G1 X147.817 Y75.599 E15.89804
G1 X147.976 Y76.883 E16.03627
G1 X148.059 Y79.906 E16.35957
G1 X148.061 Y86.464 E17.06054
G1 X147.439 Y89.286 E17.36940
G1 X127.978 Y131.304 E22.31899
G1 X127.393 Y132.478 E22.45920
G1 X127.009 Y133.145 E22.54143
G1 X123.391 Y138.675 E23.24783
G1 X121.705 Y140.442 E23.50891
G1 X105.497 Y152.154 E25.64630
G1 X103.421 Y153.164 E25.89310
G1 X101.565 Y153.426 E26.09347
G1 X96.772 Y153.426 E26.60579
G1 X94.720 Y153.105 E26.82771
G1 X58.218 Y141.393 E30.92531
G1 X56.173 Y140.320 E31.17211
G1 X54.613 Y138.618 E31.41891
G1 X53.722 Y136.488 E31.66571
G1 X53.555 Y135.000 E31.82577
G1 X53.555 Y55.000 E40.37686
G1 X53.952 Y52.725 E40.62367
G1 X55.066 Y50.772 E40.86406
G1 E36.36406 F2400.00000
G92 E0
G1 X105.751 Y106.026 F4200.000
G1 E4.50000 F2400.00000
G1 X105.646 Y106.857 E4.58957 F1800.000
G1 X105.338 Y107.636 E4.67913
G1 X104.845 Y108.314 E4.76870
G1 X104.200 Y108.848 E4.85827
G1 X103.441 Y109.205 E4.94783
G1 X102.618 Y109.362 E5.03740
G1 X101.782 Y109.309 E5.12696
G1 X100.985 Y109.050 E5.21653
G1 X100.278 Y108.601 E5.30610
G1 X99.704 Y107.991 E5.39566
G1 X99.300 Y107.256 E5.48523
G1 X99.092 Y106.445 E5.57480
G1 X99.092 Y105.607 E5.66436
G1 X99.300 Y104.795 E5.75393
G1 X99.704 Y104.061 E5.84350
G1 X100.278 Y103.450 E5.93306
G1 X100.985 Y103.001 E6.02263
G1 X101.782 Y102.742 E6.11219
G1 X102.618 Y102.689 E6.20176 F1800.000
G1 X103.441 Y102.846 E6.29133
G1 X104.200 Y103.203 E6.38089
G1 X104.845 Y103.737 E6.47046
G1 X105.338 Y104.415 E6.56003
G1 X105.646 Y105.194 E6.64959
G1 X105.744 Y105.966 E6.73274
G1 X105.031 Y106.026 F4200.000
G1 X104.949 Y106.678 E6.80302 F1800.000
G1 X104.707 Y107.289 E6.87330
G1 X104.320 Y107.821 E6.94358
G1 X103.814 Y108.240 E7.01386
G1 X103.219 Y108.520 E7.08414
G1 X102.573 Y108.643 E7.15442
G1 X101.917 Y108.602 E7.22470
G1 X101.291 Y108.399 E7.29498
G1 X100.736 Y108.047 E7.36526
G1 X100.286 Y107.567 E7.43554
G1 X99.970 Y106.991 E7.50582
G1 X99.806 Y106.354 E7.57610
G1 X99.806 Y105.697 E7.64638
G1 X99.970 Y105.060 E7.71666
G1 X100.286 Y104.484 E7.78694
G1 X100.736 Y104.005 E7.85722
G1 X101.292 Y103.652 E7.92750
G1 X101.917 Y103.449 E7.99777
G1 X102.573 Y103.408 E8.06805 F1800.000
G1 X103.219 Y103.531 E8.13834
G1 X103.814 Y103.811 E8.20861
G1 X104.320 Y104.230 E8.27889
G1 X104.707 Y104.762 E8.34917
G1 X104.949 Y105.373 E8.41945
G1 X105.024 Y105.966 E8.48332
G1 X104.312 Y106.026 F4200.000
G1 X104.252 Y106.499 E8.53431 F1800.000
G1 X104.076 Y106.943 E8.58530
G1 X103.796 Y107.328 E8.63630
G1 X103.428 Y107.633 E8.68729
G1 X102.996 Y107.836 E8.73828
G1 X102.528 Y107.925 E8.78927
G1 X102.052 Y107.895 E8.84027
G1 X101.598 Y107.748 E8.89126
G1 X101.195 Y107.492 E8.94225
G1 X100.869 Y107.144 E8.99324
G1 X100.639 Y106.726 E9.04424
G1 X100.520 Y106.264 E9.09523
G1 X100.520 Y105.787 E9.14622
G1 X100.639 Y105.325 E9.19721
G1 X100.869 Y104.907 E9.24821
G1 X101.195 Y104.559 E9.29920
G1 X101.598 Y104.304 E9.35019
G1 X102.052 Y104.156 E9.40119
G1 X102.528 Y104.126 E9.45218 F1800.000
G1 X102.996 Y104.216 E9.50317
G1 X103.428 Y104.419 E9.55416
G1 X103.796 Y104.723 E9.60516
G1 X104.076 Y105.109 E9.65615
G1 X104.252 Y105.552 E9.70714
G1 X104.304 Y105.966 E9.75172
G1 X104.649 Y106.240 F4200.000
G1 X115.230 Y75.458 F4200.000
G1 X115.230 Y132.458 E15.84437 F1800.000
G1 X62.812 Y132.458 E21.44731
G1 X62.812 Y87.503 E26.25249
G1 X63.401 Y88.130 E26.34454
G1 X64.261 Y88.676 E26.45339
G1 X65.230 Y88.991 E26.56224
G1 X66.246 Y89.055 E26.67110
G1 X67.246 Y88.864 E26.77996
G1 X68.168 Y88.430 E26.88881
G1 X68.952 Y87.781 E26.99766
G1 X69.551 Y86.957 E27.10651
G1 X69.923 Y86.017 E27.21465
G1 X70.266 Y86.075 E27.25180
G1 X70.284 Y86.534 E27.30092
G1 X70.460 Y88.060 E27.46505
G1 X70.752 Y89.567 E27.62918
G1 X71.159 Y91.048 E27.79330
G1 X71.671 Y92.475 E27.95538
G1 X72.305 Y93.893 E28.12142
G1 X73.040 Y95.243 E28.28568
G1 X73.874 Y96.532 E28.44981
G1 X74.805 Y97.753 E28.61394
G1 X75.827 Y98.899 E28.77807
G1 X76.933 Y99.964 E28.94220
G1 X78.118 Y100.941 E29.10632
G1 X79.374 Y101.825 E29.27045
G1 X80.694 Y102.609 E29.43458
G1 X82.070 Y103.291 E29.59871
G1 X83.494 Y103.865 E29.76284
G1 X84.958 Y104.328 E29.92696
G1 X86.453 Y104.678 E30.09109
G1 X87.970 Y104.912 E30.25522
G1 X89.501 Y105.030 E30.41935
G1 X91.037 Y105.030 E30.58348
G1 X92.569 Y104.912 E30.74774
G1 X94.104 Y104.673 E30.91378
G1 X95.581 Y104.328 E31.07586
G1 X97.044 Y103.865 E31.23998
G1 X98.469 Y103.291 E31.40411
G1 X99.395 Y102.832 E31.51456
G1 X99.608 Y103.120 E31.55284
G1 X99.122 Y103.638 E31.62880
G1 X98.631 Y104.530 E31.73765
G1 X98.378 Y105.516 E31.84650
G1 X98.378 Y106.535 E31.95535
G1 X98.631 Y107.521 E32.06421
G1 X99.122 Y108.414 E32.17306
G1 X99.819 Y109.156 E32.28192
G1 X100.679 Y109.702 E32.39077
G1 X101.647 Y110.016 E32.49962
G1 X102.663 Y110.080 E32.60848
G1 X103.664 Y109.890 E32.71733
G1 X104.585 Y109.456 E32.82618
G1 X105.370 Y108.807 E32.93503
G1 X105.969 Y107.983 E33.04389
G1 X106.343 Y107.036 E33.15274
G1 X106.471 Y106.026 E33.26159
G1 X106.343 Y105.015 E33.37045
G1 X105.968 Y104.068 E33.47930
G1 X105.370 Y103.245 E33.58815
G1 X104.585 Y102.595 E33.69701
G1 X103.664 Y102.162 E33.80586
G1 X102.663 Y101.971 E33.91471
G1 X101.647 Y102.035 E34.02357
G1 X101.373 Y102.124 E34.05441
G1 X101.208 Y101.794 E34.09383
G1 X102.421 Y100.941 E34.25233
G1 X103.605 Y99.964 E34.41646
G1 X104.712 Y98.899 E34.58059
G1 X105.733 Y97.753 E34.74472
G1 X106.664 Y96.532 E34.90885
G1 X107.499 Y95.243 E35.07298
G1 X108.232 Y93.894 E35.23710
G1 X108.860 Y92.493 E35.40123
G1 X109.379 Y91.048 E35.56536
G1 X109.786 Y89.567 E35.72949
G1 X110.079 Y88.060 E35.89362
G1 X110.255 Y86.534 E36.05775
G1 X110.313 Y85.000 E36.22187
G1 X110.255 Y83.466 E36.38600
G1 X110.079 Y81.940 E36.55013
G1 X109.786 Y80.433 E36.71426
G1 X109.379 Y78.952 E36.87839
G1 X108.860 Y77.507 E37.04251
G1 X108.232 Y76.106 E37.20664
G1 X107.499 Y74.757 E37.37077
G1 X106.664 Y73.468 E37.53490
G1 X105.733 Y72.247 E37.69903
G1 X104.712 Y71.101 E37.86315
G1 X103.605 Y70.036 E38.02728
G1 X102.421 Y69.059 E38.19133
G1 X101.210 Y68.206 E38.34967
G1 X101.375 Y67.877 E38.38908
G1 X101.647 Y67.965 E38.41965
G1 X102.663 Y68.029 E38.52850
G1 X103.664 Y67.838 E38.63736
G1 X104.585 Y67.405 E38.74621
G1 X105.370 Y66.755 E38.85506
G1 X105.968 Y65.932 E38.96392
G1 X106.343 Y64.985 E39.07277
G1 X106.471 Y63.974 E39.18162
G1 X106.343 Y62.964 E39.29048
G1 X105.968 Y62.017 E39.39933
G1 X105.370 Y61.193 E39.50818
G1 X104.585 Y60.544 E39.61704
G1 X103.664 Y60.110 E39.72589
G1 X102.663 Y59.920 E39.83474
G1 X101.647 Y59.984 E39.94360
G1 X100.679 Y60.298 E40.05245
G1 X99.819 Y60.844 E40.16130
G1 X99.122 Y61.586 E40.27015
G1 X98.631 Y62.479 E40.37901
G1 X98.378 Y63.465 E40.48786
G1 X98.378 Y64.484 E40.59671
G1 X98.631 Y65.470 E40.70557
G1 X99.122 Y66.362 E40.81442
G1 X99.608 Y66.880 E40.89038
G1 X99.395 Y67.168 E40.92866
G1 X98.469 Y66.709 E41.03911
G1 X97.044 Y66.135 E41.20324
G1 X95.581 Y65.672 E41.36736
G1 X94.085 Y65.322 E41.53149
G1 X92.568 Y65.088 E41.69562
G1 X91.037 Y64.970 E41.85975
G1 X89.501 Y64.970 E42.02388
G1 X87.970 Y65.088 E42.18801
G1 X86.453 Y65.322 E42.35213
G1 X84.958 Y65.672 E42.51626
G1 X83.494 Y66.135 E42.68039
G1 X82.070 Y66.709 E42.84452
G1 X80.694 Y67.391 E43.00865
G1 X79.374 Y68.175 E43.17277
G1 X78.118 Y69.059 E43.33690
G1 X76.933 Y70.036 E43.50103
G1 X75.827 Y71.101 E43.66516
G1 X74.805 Y72.247 E43.82929
G1 X73.874 Y73.468 E43.99341
G1 X73.039 Y74.758 E44.15768
G1 X72.298 Y76.123 E44.32371
G1 X71.678 Y77.507 E44.48579
G1 X71.159 Y78.952 E44.64992
G1 X70.752 Y80.434 E44.81419
G1 X70.458 Y81.959 E44.98022
G1 X70.284 Y83.466 E45.14230
G1 X70.266 Y83.925 E45.19142
G1 X69.923 Y83.983 E45.22858
G1 X69.551 Y83.043 E45.33671
G1 X68.952 Y82.219 E45.44556
G1 X68.168 Y81.570 E45.55441
G1 X67.246 Y81.136 E45.66327
G1 X66.246 Y80.945 E45.77212
G1 X65.230 Y81.009 E45.88097
G1 X64.261 Y81.324 E45.98983
G1 X63.401 Y81.870 E46.09868
G1 X62.812 Y82.497 E46.19073
G1 X62.812 Y57.542 E48.85813
G1 X117.060 Y57.542 E54.65667
G1 X117.060 Y72.179 E56.22111
G1 X137.060 Y72.179 E58.35889
G1 X137.060 Y75.434 E58.70687
G1 X117.060 Y75.434 E60.84464
G1 X117.060 Y75.458 E60.84713
G1 X115.290 Y75.458 E61.03632
G1 X104.845 Y66.263 F4200.000
G1 X104.200 Y66.797 E61.12588 F1800.000
G1 X103.441 Y67.154 E61.21545
G1 X102.618 Y67.311 E61.30502
G1 X101.782 Y67.258 E61.39458
G1 X100.985 Y66.999 E61.48415
G1 X100.278 Y66.550 E61.57371
G1 X99.704 Y65.939 E61.66328
G1 X99.300 Y65.205 E61.75285
G1 X99.092 Y64.393 E61.84241
G1 X99.092 Y63.555 E61.93198
G1 X99.300 Y62.744 E62.02154
G1 X99.704 Y62.009 E62.11111
G1 X100.278 Y61.399 E62.20068
G1 X100.985 Y60.950 E62.29024
G1 X101.782 Y60.691 E62.37981
G1 X102.618 Y60.638 E62.46938 F1800.000
G1 X103.441 Y60.795 E62.55894
G1 X104.200 Y61.152 E62.64851
G1 X104.845 Y61.686 E62.73808
G1 X105.338 Y62.364 E62.82764
G1 X105.646 Y63.143 E62.91721
G1 X105.751 Y63.974 E63.00678
G1 X105.646 Y64.806 E63.09634
G1 X105.338 Y65.585 E63.18591
G1 X104.880 Y66.214 E63.26906
G1 X104.320 Y65.770 F4200.000
G1 X103.814 Y66.189 E63.33934 F1800.000
G1 X103.219 Y66.469 E63.40962
G1 X102.573 Y66.592 E63.47990
G1 X101.917 Y66.551 E63.55018
G1 X101.292 Y66.348 E63.62046
G1 X100.736 Y65.995 E63.69074
G1 X100.286 Y65.516 E63.76102
G1 X99.970 Y64.940 E63.83130
G1 X99.806 Y64.303 E63.90158
G1 X99.806 Y63.646 E63.97186
G1 X99.970 Y63.009 E64.04213
G1 X100.286 Y62.433 E64.11241
G1 X100.736 Y61.953 E64.18270
G1 X101.291 Y61.601 E64.25297
G1 X101.917 Y61.398 E64.32325
G1 X102.573 Y61.356 E64.39353 F1800.000
G1 X103.219 Y61.480 E64.46381
G1 X103.814 Y61.760 E64.53409
G1 X104.320 Y62.179 E64.60437
G1 X104.707 Y62.711 E64.67465
G1 X104.949 Y63.322 E64.74493
G1 X105.031 Y63.974 E64.81521
G1 X104.949 Y64.627 E64.88549
G1 X104.707 Y65.238 E64.95577
G1 X104.356 Y65.721 E65.01963
G1 X103.796 Y65.277 F4200.000
G1 X103.428 Y65.581 E65.07063 F1800.000
G1 X102.996 Y65.784 E65.12162
G1 X102.528 Y65.874 E65.17261
G1 X102.052 Y65.844 E65.22361
G1 X101.598 Y65.696 E65.27460
G1 X101.195 Y65.441 E65.32559
G1 X100.869 Y65.093 E65.37658
G1 X100.639 Y64.675 E65.42758
G1 X100.520 Y64.213 E65.47857
G1 X100.520 Y63.736 E65.52956
G1 X100.639 Y63.274 E65.58055
G1 X100.869 Y62.856 E65.63155
G1 X101.195 Y62.508 E65.68254
G1 X101.598 Y62.252 E65.73353
G1 X102.052 Y62.105 E65.78452
G1 X102.528 Y62.075 E65.83552 F1800.000
G1 X102.996 Y62.164 E65.88651
G1 X103.428 Y62.367 E65.93750
G1 X103.796 Y62.672 E65.98850
G1 X104.076 Y63.057 E66.03949
G1 X104.252 Y63.501 E66.09048
G1 X104.312 Y63.974 E66.14147
G1 X104.252 Y64.448 E66.19247
G1 X104.076 Y64.891 E66.24346
G1 X103.831 Y65.229 E66.28804
G1 X103.895 Y65.665 F4200.000
G1 X101.148 Y69.036 F4200.000
G1 X101.988 Y69.628 E66.39780 F1800.000
G1 X103.130 Y70.569 E66.55602
G1 X104.197 Y71.596 E66.71429
G1 X105.182 Y72.702 E66.87257
G1 X106.079 Y73.879 E67.03085
G1 X106.884 Y75.122 E67.18912
G1 X107.592 Y76.423 E67.34740
G1 X108.197 Y77.774 E67.50568
G1 X108.698 Y79.168 E67.66395
G1 X109.090 Y80.596 E67.82223
G1 X109.372 Y82.049 E67.98050
G1 X109.542 Y83.520 E68.13878
G1 X109.599 Y85.000 E68.29706
G1 X109.542 Y86.480 E68.45533
G1 X109.372 Y87.951 E68.61361
G1 X109.090 Y89.404 E68.77189
G1 X108.698 Y90.832 E68.93016
G1 X108.197 Y92.226 E69.08844
G1 X107.592 Y93.577 E69.24671
G1 X106.884 Y94.878 E69.40499
G1 X106.079 Y96.121 E69.56327
G1 X105.182 Y97.298 E69.72154
G1 X104.197 Y98.404 E69.87982
G1 X103.130 Y99.431 E70.03810
G1 X101.987 Y100.373 E70.19637
G1 X100.776 Y101.225 E70.35465
G1 X99.503 Y101.981 E70.51292
G1 X98.176 Y102.638 E70.67120
G1 X96.803 Y103.192 E70.82948
G1 X95.391 Y103.639 E70.98775
G1 X93.968 Y103.972 E71.14402
G1 X92.487 Y104.202 E71.30420
G1 X91.010 Y104.315 E71.46258
G1 X89.529 Y104.315 E71.62085
G1 X88.052 Y104.202 E71.77913
G1 X86.589 Y103.976 E71.93740
G1 X85.147 Y103.639 E72.09568
G1 X83.735 Y103.192 E72.25396
G1 X82.362 Y102.638 E72.41223
G1 X81.035 Y101.981 E72.57051
G1 X79.762 Y101.225 E72.72878
G1 X78.551 Y100.373 E72.88706
G1 X77.409 Y99.431 E73.04534
G1 X76.342 Y98.404 E73.20361
G1 X75.357 Y97.298 E73.36189
G1 X74.459 Y96.121 E73.52017
G1 X73.654 Y94.878 E73.67844
G1 X72.946 Y93.576 E73.83682
G1 X72.334 Y92.208 E73.99700
G1 X71.840 Y90.832 E74.15327
G1 X71.448 Y89.404 E74.31154
G1 X71.166 Y87.951 E74.46982
G1 X70.996 Y86.480 E74.62809
G1 X70.939 Y85.000 E74.78637
G1 X70.996 Y83.520 E74.94465
G1 X71.164 Y82.068 E75.10091
G1 X71.448 Y80.597 E75.26109
G1 X71.840 Y79.168 E75.41947
G1 X72.341 Y77.774 E75.57775
G1 X72.939 Y76.440 E75.73401
G1 X73.653 Y75.123 E75.89419
G1 X74.459 Y73.879 E76.05257
G1 X75.357 Y72.702 E76.21085
G1 X76.342 Y71.596 E76.36912
G1 X77.409 Y70.569 E76.52740
G1 X78.551 Y69.627 E76.68567
G1 X79.762 Y68.775 E76.84395
G1 X81.035 Y68.019 E77.00223
G1 X82.362 Y67.362 E77.16050
G1 X83.735 Y66.808 E77.31878
G1 X85.147 Y66.361 E77.47705
G1 X86.589 Y66.024 E77.63533
G1 X88.052 Y65.798 E77.79361
G1 X89.529 Y65.685 E77.95188
G1 X91.010 Y65.685 E78.11016 F1800.000
G1 X92.486 Y65.798 E78.26844
G1 X93.949 Y66.024 E78.42671
G1 X95.391 Y66.361 E78.58499
G1 X96.803 Y66.808 E78.74326
G1 X98.176 Y67.362 E78.90154
G1 X99.503 Y68.019 E79.05982
G1 X100.786 Y68.781 E79.21928
G1 X101.099 Y69.002 E79.26025
G1 X100.737 Y69.620 F4200.000
G1 X101.554 Y70.196 E79.36712 F1800.000
G1 X102.654 Y71.103 E79.51950
G1 X103.682 Y72.092 E79.67193
G1 X104.630 Y73.156 E79.82435
G1 X105.495 Y74.290 E79.97678
G1 X106.270 Y75.487 E80.12920
G1 X106.951 Y76.740 E80.28162
G1 X107.535 Y78.041 E80.43405
G1 X108.017 Y79.383 E80.58647
G1 X108.394 Y80.759 E80.73890
G1 X108.666 Y82.158 E80.89132
G1 X108.830 Y83.575 E81.04375
G1 X108.884 Y85.000 E81.19617
G1 X108.830 Y86.425 E81.34859
G1 X108.666 Y87.842 E81.50102
G1 X108.394 Y89.241 E81.65344
G1 X108.017 Y90.617 E81.80587
G1 X107.535 Y91.959 E81.95829
G1 X106.951 Y93.260 E82.11072
G1 X106.270 Y94.513 E82.26314
G1 X105.495 Y95.710 E82.41556
G1 X104.630 Y96.844 E82.56799
G1 X103.682 Y97.908 E82.72041
G1 X102.654 Y98.897 E82.87284
G1 X101.554 Y99.804 E83.02526
G1 X100.388 Y100.625 E83.17768
G1 X99.162 Y101.353 E83.33011
G1 X97.884 Y101.986 E83.48253
G1 X96.561 Y102.519 E83.63496
G1 X95.202 Y102.950 E83.78738
G1 X93.831 Y103.270 E83.93783
G1 X92.405 Y103.492 E84.09216
G1 X90.982 Y103.601 E84.24465
G1 X89.556 Y103.601 E84.39707
G1 X88.134 Y103.492 E84.54950
G1 X86.725 Y103.274 E84.70192
G1 X85.337 Y102.950 E84.85434
G1 X83.977 Y102.519 E85.00677
G1 X82.654 Y101.986 E85.15919
G1 X81.376 Y101.353 E85.31162
G1 X80.151 Y100.625 E85.46404
G1 X78.984 Y99.804 E85.61647
G1 X77.884 Y98.897 E85.76889
G1 X76.857 Y97.908 E85.92131
G1 X75.908 Y96.844 E86.07374
G1 X75.043 Y95.710 E86.22616
G1 X74.268 Y94.513 E86.37859
G1 X73.587 Y93.259 E86.53107
G1 X72.997 Y91.941 E86.68540
G1 X72.522 Y90.617 E86.83585
G1 X72.144 Y89.241 E86.98828
G1 X71.872 Y87.842 E87.14070
G1 X71.709 Y86.425 E87.29313
G1 X71.654 Y85.000 E87.44555
G1 X71.709 Y83.575 E87.59797
G1 X71.870 Y82.177 E87.74843
G1 X72.144 Y80.759 E87.90276
G1 X72.522 Y79.383 E88.05524
G1 X73.004 Y78.041 E88.20767
G1 X73.580 Y76.757 E88.35812
G1 X74.268 Y75.488 E88.51245
G1 X75.043 Y74.290 E88.66493
