; generated by Slic3r 1.2.9 on 2018-11-03 at 19:29:50

; external perimeters extrusion width = 0.40mm
; perimeters extrusion width = 0.67mm
; infill extrusion width = 0.67mm
; solid infill extrusion width = 0.67mm
; top infill extrusion width = 0.67mm
; support material extrusion width = 0.40mm

M107
M190 S55 ; set bed temperature
G21 ;metric values
G90 ;absolute positioning
M107 ;start with the fan off
G28 X0 Y0 ;move X/Y to min endstops
G29
M104 S190 ; set extruder temp
M109 S190 ; wait for extruder temp
G1 Z15.0 F{travel_speed} ;move the platform down 15mm
G1 F{travel_speed}
;Put printing message on LCD screen
M117 Printing...
G21 ; set units to millimeters
G90 ; use absolute coordinates
M82 ; use absolute distances for extrusion
G92 E0
G1 Z0.400 F4200.000
G1 E-4.50000 F2400.00000
G92 E0
G1 X78.103 Y78.465 F4200.000
G1 E4.50000 F2400.00000
G1 X79.417 Y77.206 E4.69456 F1800.000
G1 X80.804 Y76.027 E4.88912
G1 X81.934 Y75.163 E5.04117
G1 X83.437 Y74.137 E5.23572
G1 X84.999 Y73.201 E5.43030
G1 X86.600 Y72.366 E5.62334
G1 X88.642 Y71.465 E5.86189
G1 X89.976 Y70.970 E6.01393
G1 X91.713 Y70.427 E6.20850
G1 X93.479 Y69.988 E6.40305
G1 X95.269 Y69.655 E6.59760
G1 X97.471 Y69.392 E6.83467
G1 X99.289 Y69.296 E7.02923
G1 X101.109 Y69.308 E7.22379
G1 X102.529 Y69.392 E7.37584 F1800.000
G1 X104.338 Y69.596 E7.57038
G1 X106.131 Y69.906 E7.76494
G1 X108.287 Y70.427 E8.00201
G1 X109.647 Y70.843 E8.15405
G1 X111.358 Y71.465 E8.34861
G1 X113.387 Y72.359 E8.58561
G1 X114.653 Y73.009 E8.73771
G1 X116.226 Y73.925 E8.93227
G1 X118.066 Y75.164 E9.16934
G1 X119.196 Y76.027 E9.32138
G1 X120.583 Y77.206 E9.51593
G1 X122.174 Y78.751 E9.75300
G1 X123.134 Y79.801 E9.90508
G1 X124.290 Y81.206 E10.09960
G1 X125.361 Y82.678 E10.29417
G1 X126.545 Y84.554 E10.53123
G1 X127.413 Y86.153 E10.72578
G1 X128.025 Y87.438 E10.87787
G1 X128.859 Y89.493 E11.11489
G1 X129.430 Y91.221 E11.30944
G1 X129.805 Y92.593 E11.46153
G1 X130.262 Y94.763 E11.69855
G1 X130.519 Y96.565 E11.89311
G1 X130.645 Y97.982 E12.04515
G1 X130.711 Y100.199 E12.28222
G1 X130.669 Y101.621 E12.43426
G1 X130.519 Y103.435 E12.62882
G1 X130.192 Y105.628 E12.86588
G1 X129.899 Y107.020 E13.01792
G1 X129.430 Y108.779 E13.21248
G1 X128.858 Y110.508 E13.40710
G1 X128.025 Y112.562 E13.64410
G1 X127.232 Y114.201 E13.83866
G1 X126.545 Y115.447 E13.99075
G1 X125.361 Y117.322 E14.22777
G1 X124.532 Y118.478 E14.37982
G1 X123.393 Y119.899 E14.57448
G1 X121.897 Y121.535 E14.81144
G1 X120.876 Y122.525 E14.96347
G1 X119.516 Y123.713 E15.15651
G1 X118.066 Y124.836 E15.35258
G1 X116.226 Y126.075 E15.58965
G1 X115.001 Y126.799 E15.74175
G1 X113.387 Y127.640 E15.93625
G1 X111.358 Y128.535 E16.17332
G1 X110.024 Y129.030 E16.32536
G1 X108.287 Y129.573 E16.51991
G1 X106.131 Y130.094 E16.75698
G1 X104.731 Y130.345 E16.90902
G1 X102.925 Y130.572 E17.10358
G1 X100.711 Y130.704 E17.34065
G1 X99.289 Y130.704 E17.49269
G1 X97.485 Y130.608 E17.68572
G1 X95.661 Y130.404 E17.88193
G1 X93.479 Y130.012 E18.11887
G1 X91.713 Y129.573 E18.31343
G1 X90.352 Y129.157 E18.46555
G1 X88.274 Y128.385 E18.70253
G1 X86.971 Y127.811 E18.85466
G1 X85.347 Y126.991 E19.04916
G1 X83.437 Y125.863 E19.28620
G1 X82.257 Y125.068 E19.43831
G1 X80.815 Y123.982 E19.63127
G1 X79.417 Y122.794 E19.82735
G1 X77.826 Y121.249 E20.06442
G1 X76.866 Y120.199 E20.21649
G1 X75.710 Y118.794 E20.41102
G1 X74.417 Y116.992 E20.64808
G1 X73.657 Y115.789 E20.80015
G1 X72.768 Y114.200 E20.99472
G1 X71.815 Y112.198 E21.23175
G1 X71.280 Y110.880 E21.38382
G1 X70.686 Y109.160 E21.57834
G1 X70.195 Y107.407 E21.77293
G1 X69.738 Y105.237 E22.00997
G1 X69.528 Y103.829 E22.16206
G1 X69.354 Y102.017 E22.35662
G1 X69.289 Y99.801 E22.59363
G1 X69.331 Y98.379 E22.74570
G1 X69.481 Y96.565 E22.94023
G1 X69.738 Y94.763 E23.13479
G1 X70.195 Y92.593 E23.37186
G1 X70.570 Y91.221 E23.52389
G1 X71.141 Y89.493 E23.71845
G1 X71.975 Y87.438 E23.95552
G1 X72.587 Y86.153 E24.10756
G1 X73.455 Y84.554 E24.30212
G1 X74.639 Y82.678 E24.53919
G1 X75.469 Y81.522 E24.69126
G1 X76.606 Y80.102 E24.88578
G1 X78.061 Y78.508 E25.11644
G1 E20.61644 F2400.00000
G92 E0
G1 X115.395 Y114.945 F4200.000
G1 E4.50000 F2400.00000
G1 X114.483 Y115.831 E4.63592 F1800.000
G1 X113.519 Y116.661 E4.77185
G1 X112.509 Y117.433 E4.90778
G1 X111.454 Y118.143 E5.04370
G1 X110.371 Y118.783 E5.17818
G1 X109.227 Y119.371 E5.31563
G1 X108.064 Y119.883 E5.45147
G1 X106.872 Y120.326 E5.58740
G1 X105.656 Y120.698 E5.72332
G1 X104.420 Y120.996 E5.85925
G1 X103.168 Y121.221 E5.99517
G1 X101.905 Y121.372 E6.13110
G1 X100.636 Y121.447 E6.26702
G1 X99.364 Y121.447 E6.40295
G1 X98.095 Y121.372 E6.53887
G1 X96.832 Y121.221 E6.67480
G1 X95.594 Y120.999 E6.80928
G1 X94.344 Y120.697 E6.94672
G1 X93.128 Y120.326 E7.08257
G1 X91.936 Y119.883 E7.21849
G1 X90.772 Y119.371 E7.35442
G1 X89.653 Y118.796 E7.48890
G1 X88.545 Y118.143 E7.62635
G1 X87.491 Y117.433 E7.76219
G1 X86.481 Y116.661 E7.89811
G1 X85.517 Y115.831 E8.03404
G1 X84.615 Y114.955 E8.16852
G1 X83.746 Y114.007 E8.30597
G1 X82.945 Y113.020 E8.44181
G1 X82.212 Y111.997 E8.57630
G1 X81.525 Y110.911 E8.71374
G1 X80.911 Y109.798 E8.84958
G1 X80.370 Y108.662 E8.98407
G1 X79.886 Y107.470 E9.12151
G1 X79.479 Y106.266 E9.25736
G1 X79.144 Y105.040 E9.39328
G1 X78.882 Y103.795 E9.52921
G1 X78.694 Y102.538 E9.66513
G1 X78.581 Y101.271 E9.80106
G1 X78.544 Y100.000 E9.93698
G1 X78.581 Y98.729 E10.07291
G1 X78.694 Y97.462 E10.20883
G1 X78.882 Y96.205 E10.34476
G1 X79.144 Y94.960 E10.48068
G1 X79.479 Y93.734 E10.61660
G1 X79.882 Y92.542 E10.75109
G1 X80.365 Y91.350 E10.88853
G1 X80.911 Y90.202 E11.02438
G1 X81.525 Y89.089 E11.16030
G1 X82.204 Y88.013 E11.29623
G1 X82.945 Y86.980 E11.43215
G1 X83.747 Y85.993 E11.56808
G1 X84.605 Y85.055 E11.70400
G1 X85.517 Y84.169 E11.83993
G1 X86.481 Y83.339 E11.97585
G1 X87.491 Y82.567 E12.11178
G1 X88.546 Y81.857 E12.24770
G1 X89.629 Y81.217 E12.38219
G1 X90.773 Y80.629 E12.51963
G1 X91.936 Y80.117 E12.65547
G1 X93.128 Y79.674 E12.79140
G1 X94.344 Y79.302 E12.92732
G1 X95.580 Y79.004 E13.06325
G1 X96.832 Y78.779 E13.19917
G1 X98.095 Y78.628 E13.33510
G1 X99.364 Y78.553 E13.47102
G1 X100.636 Y78.553 E13.60695
G1 X101.892 Y78.628 E13.74143
G1 X103.169 Y78.779 E13.87887 F1800.000
G1 X104.420 Y79.004 E14.01472
G1 X105.656 Y79.302 E14.15064
G1 X106.872 Y79.674 E14.28657
G1 X108.064 Y80.117 E14.42249
G1 X109.228 Y80.629 E14.55842
G1 X110.359 Y81.210 E14.69434
G1 X111.454 Y81.857 E14.83027
G1 X112.509 Y82.567 E14.96619
G1 X113.519 Y83.339 E15.10212
G1 X114.483 Y84.169 E15.23804
G1 X115.395 Y85.055 E15.37397
G1 X116.253 Y85.993 E15.50989
G1 X117.055 Y86.980 E15.64582
G1 X117.788 Y88.002 E15.78030
G1 X118.475 Y89.089 E15.91775
G1 X119.089 Y90.202 E16.05359
G1 X119.636 Y91.350 E16.18952
G1 X120.114 Y92.529 E16.32544
G1 X120.521 Y93.734 E16.46137
G1 X120.856 Y94.960 E16.59729
G1 X121.115 Y96.191 E16.73177
G1 X121.306 Y97.463 E16.86922
G1 X121.419 Y98.729 E17.00506
G1 X121.456 Y100.000 E17.14099
G1 X121.419 Y101.271 E17.27691
G1 X121.306 Y102.538 E17.41284
G1 X121.118 Y103.795 E17.54876
G1 X120.856 Y105.040 E17.68469
G1 X120.521 Y106.266 E17.82061
G1 X120.114 Y107.471 E17.95654
G1 X119.636 Y108.650 E18.09246
G1 X119.089 Y109.798 E18.22839
G1 X118.475 Y110.911 E18.36431
G1 X117.796 Y111.987 E18.50024
G1 X117.055 Y113.020 E18.63616
G1 X116.253 Y114.007 E18.77209
G1 X115.436 Y114.901 E18.90160
G1 X115.893 Y115.458 F4200.000
G1 X114.965 Y116.358 E19.03978 F1800.000
G1 X113.970 Y117.216 E19.18024
G1 X112.925 Y118.014 E19.32069
G1 X111.835 Y118.748 E19.46114
G1 X110.716 Y119.409 E19.60013
G1 X109.534 Y120.016 E19.74210
G1 X108.332 Y120.546 E19.88249
G1 X107.101 Y121.003 E20.02294
G1 X105.844 Y121.387 E20.16339
G1 X104.567 Y121.695 E20.30384
G1 X103.273 Y121.928 E20.44429
G1 X101.969 Y122.083 E20.58474
G1 X100.657 Y122.161 E20.72520
G1 X99.343 Y122.161 E20.86565
G1 X98.031 Y122.083 E21.00610
G1 X96.727 Y121.928 E21.14655
G1 X95.447 Y121.698 E21.28554
G1 X94.156 Y121.387 E21.42750
G1 X92.899 Y121.003 E21.56790
G1 X91.668 Y120.546 E21.70835
G1 X90.465 Y120.016 E21.84880
G1 X89.308 Y119.422 E21.98779
G1 X88.164 Y118.747 E22.12976
G1 X87.075 Y118.014 E22.27015
G1 X86.030 Y117.216 E22.41060
G1 X85.035 Y116.358 E22.55105
G1 X84.102 Y115.453 E22.69004
G1 X83.205 Y114.473 E22.83201
G1 X82.377 Y113.453 E22.97240
G1 X81.619 Y112.397 E23.11139
G1 X80.910 Y111.274 E23.25336
G1 X80.276 Y110.124 E23.39375
G1 X79.716 Y108.950 E23.53274
G1 X79.216 Y107.719 E23.67471
G1 X78.796 Y106.475 E23.81510
G1 X78.449 Y105.208 E23.95556
G1 X78.179 Y103.922 E24.09601
G1 X77.985 Y102.622 E24.23646
G1 X77.868 Y101.313 E24.37691
G1 X77.829 Y100.000 E24.51736
G1 X77.868 Y98.687 E24.65781
G1 X77.985 Y97.378 E24.79826
G1 X78.179 Y96.078 E24.93871
G1 X78.449 Y94.792 E25.07916
G1 X78.796 Y93.525 E25.21961
G1 X79.212 Y92.293 E25.35860
G1 X79.711 Y91.062 E25.50057
G1 X80.276 Y89.876 E25.64097
G1 X80.910 Y88.725 E25.78142
G1 X81.611 Y87.614 E25.92187
G1 X82.377 Y86.547 E26.06232
G1 X83.205 Y85.526 E26.20277
G1 X84.092 Y84.557 E26.34322
G1 X85.035 Y83.642 E26.48367
G1 X86.030 Y82.784 E26.62412
G1 X87.075 Y81.986 E26.76457
G1 X88.165 Y81.252 E26.90502
G1 X89.284 Y80.591 E27.04401
G1 X90.466 Y79.984 E27.18598
G1 X91.668 Y79.454 E27.32638
G1 X92.899 Y78.997 E27.46683
G1 X94.156 Y78.613 E27.60728
G1 X95.433 Y78.305 E27.74773
G1 X96.727 Y78.072 E27.88818
G1 X98.031 Y77.917 E28.02863
G1 X99.343 Y77.839 E28.16908
G1 X100.657 Y77.839 E28.30953
G1 X101.955 Y77.916 E28.44852
G1 X103.274 Y78.072 E28.59049 F1800.000
G1 X104.567 Y78.305 E28.73088
G1 X105.844 Y78.613 E28.87133
G1 X107.101 Y78.997 E29.01179
G1 X108.332 Y79.454 E29.15224
G1 X109.535 Y79.984 E29.29269
G1 X110.704 Y80.584 E29.43314
G1 X111.835 Y81.252 E29.57359
G1 X112.925 Y81.986 E29.71404
G1 X113.970 Y82.784 E29.85449
G1 X114.965 Y83.642 E29.99494
G1 X115.908 Y84.557 E30.13539
G1 X116.795 Y85.526 E30.27584
G1 X117.623 Y86.547 E30.41630
G1 X118.381 Y87.603 E30.55528
G1 X119.090 Y88.726 E30.69725
G1 X119.724 Y89.876 E30.83765
G1 X120.290 Y91.062 E30.97810
G1 X120.783 Y92.280 E31.11855
G1 X121.204 Y93.525 E31.25900
G1 X121.551 Y94.792 E31.39945
G1 X121.818 Y96.065 E31.53844
G1 X122.015 Y97.378 E31.68041
G1 X122.132 Y98.687 E31.82080
G1 X122.171 Y100.000 E31.96125
G1 X122.132 Y101.313 E32.10170
G1 X122.015 Y102.622 E32.24215
G1 X121.821 Y103.922 E32.38260
G1 X121.551 Y105.208 E32.52306
G1 X121.204 Y106.475 E32.66351
G1 X120.783 Y107.720 E32.80396
G1 X120.290 Y108.938 E32.94441
G1 X119.724 Y110.124 E33.08486
G1 X119.090 Y111.275 E33.22531
G1 X118.389 Y112.386 E33.36576
G1 X117.623 Y113.453 E33.50621
G1 X116.795 Y114.474 E33.64666
G1 X115.934 Y115.414 E33.78296
G1 X116.390 Y115.970 F4200.000
G1 X115.447 Y116.886 E33.92342 F1800.000
G1 X114.420 Y117.771 E34.06839
G1 X113.342 Y118.594 E34.21337
G1 X112.217 Y119.352 E34.35835
G1 X111.061 Y120.034 E34.50184
G1 X109.842 Y120.661 E34.64833
G1 X108.601 Y121.208 E34.79328
G1 X107.329 Y121.680 E34.93825
G1 X106.032 Y122.076 E35.08323
G1 X104.714 Y122.395 E35.22821
G1 X103.379 Y122.635 E35.37318
G1 X102.032 Y122.795 E35.51816
G1 X100.678 Y122.875 E35.66314
G1 X99.322 Y122.875 E35.80812
G1 X97.968 Y122.795 E35.95309
G1 X96.621 Y122.635 E36.09807
G1 X95.300 Y122.397 E36.24156
G1 X93.967 Y122.076 E36.38806
G1 X92.671 Y121.680 E36.53300
G1 X91.399 Y121.208 E36.67798
G1 X90.158 Y120.661 E36.82295
G1 X88.963 Y120.048 E36.96645
G1 X87.783 Y119.352 E37.11294
G1 X86.658 Y118.594 E37.25788
G1 X85.580 Y117.771 E37.40286
G1 X84.553 Y116.886 E37.54784
G1 X83.590 Y115.950 E37.69133
G1 X82.664 Y114.940 E37.83782
G1 X81.809 Y113.887 E37.98277
G1 X81.027 Y112.796 E38.12626
G1 X80.295 Y111.638 E38.27275
G1 X79.640 Y110.450 E38.41769
G1 X79.063 Y109.238 E38.56119
G1 X78.547 Y107.968 E38.70768
G1 X78.112 Y106.684 E38.85262
G1 X77.755 Y105.375 E38.99760
G1 X77.476 Y104.048 E39.14258
G1 X77.275 Y102.707 E39.28756
G1 X77.155 Y101.356 E39.43253
G1 X77.115 Y100.000 E39.57751
G1 X77.155 Y98.644 E39.72249
G1 X77.275 Y97.293 E39.86746
G1 X77.476 Y95.952 E40.01244
G1 X77.755 Y94.625 E40.15742
G1 X78.112 Y93.316 E40.30240
G1 X78.542 Y92.044 E40.44589
G1 X79.057 Y90.774 E40.59238
G1 X79.640 Y89.550 E40.73732
G1 X80.295 Y88.362 E40.88230
G1 X81.019 Y87.215 E41.02728
G1 X81.809 Y86.113 E41.17226
G1 X82.664 Y85.060 E41.31723
G1 X83.580 Y84.059 E41.46221
G1 X84.553 Y83.114 E41.60719
G1 X85.580 Y82.229 E41.75216
G1 X86.658 Y81.406 E41.89714
G1 X87.783 Y80.648 E42.04212
G1 X88.939 Y79.966 E42.18561
G1 X90.158 Y79.339 E42.33211
G1 X91.399 Y78.792 E42.47705
G1 X92.671 Y78.320 E42.62203
G1 X93.968 Y77.924 E42.76700
G1 X95.286 Y77.605 E42.91198
G1 X96.621 Y77.365 E43.05696
G1 X97.968 Y77.205 E43.20193
G1 X99.322 Y77.125 E43.34691
G1 X100.678 Y77.125 E43.49189
G1 X102.018 Y77.204 E43.63538
G1 X103.379 Y77.366 E43.78187 F1800.000
G1 X104.714 Y77.605 E43.92682
G1 X106.032 Y77.924 E44.07179
G1 X107.329 Y78.320 E44.21677
G1 X108.601 Y78.792 E44.36175
G1 X109.842 Y79.339 E44.50673
G1 X111.049 Y79.958 E44.65170
G1 X112.217 Y80.648 E44.79668
G1 X113.342 Y81.406 E44.94166
G1 X114.420 Y82.229 E45.08663
G1 X115.447 Y83.114 E45.23161
G1 X116.420 Y84.059 E45.37659
G1 X117.336 Y85.060 E45.52157
G1 X118.191 Y86.113 E45.66654
G1 X118.973 Y87.204 E45.81004
G1 X119.705 Y88.362 E45.95653
G1 X120.360 Y89.550 E46.10147
G1 X120.943 Y90.774 E46.24645
G1 X121.453 Y92.031 E46.39143
G1 X121.888 Y93.316 E46.53640
G1 X122.245 Y94.625 E46.68138
G1 X122.522 Y95.938 E46.82487
G1 X122.725 Y97.294 E46.97137
G1 X122.845 Y98.644 E47.11631
G1 X122.885 Y100.000 E47.26129
G1 X122.845 Y101.356 E47.40626
G1 X122.725 Y102.707 E47.55124
G1 X122.524 Y104.048 E47.69622
G1 X122.245 Y105.375 E47.84120
G1 X121.888 Y106.684 E47.98617
G1 X121.453 Y107.969 E48.13115
G1 X120.943 Y109.226 E48.27613
G1 X120.360 Y110.450 E48.42110
G1 X119.705 Y111.638 E48.56608
G1 X118.981 Y112.785 E48.71106
G1 X118.191 Y113.887 E48.85604
G1 X117.336 Y114.940 E49.00101
G1 X116.432 Y115.928 E49.14410
G1 X116.887 Y116.483 F4200.000
G1 X115.929 Y117.413 E49.28682 F1800.000
G1 X114.870 Y118.326 E49.43632
G1 X113.758 Y119.175 E49.58582
G1 X112.598 Y119.956 E49.73533
G1 X111.406 Y120.660 E49.88332
G1 X110.149 Y121.306 E50.03434
G1 X108.869 Y121.870 E50.18383
G1 X107.558 Y122.357 E50.33334
G1 X106.221 Y122.765 E50.48284
G1 X104.861 Y123.094 E50.63234
G1 X103.484 Y123.341 E50.78185
G1 X102.096 Y123.507 E50.93135
G1 X100.699 Y123.589 E51.08085
G1 X99.301 Y123.589 E51.23036
G1 X97.904 Y123.507 E51.37986
G1 X96.516 Y123.341 E51.52936
G1 X95.153 Y123.096 E51.67736
G1 X93.779 Y122.765 E51.82838
G1 X92.442 Y122.357 E51.97787
G1 X91.131 Y121.870 E52.12737
G1 X89.851 Y121.306 E52.27688
G1 X88.619 Y120.674 E52.42487
G1 X87.402 Y119.956 E52.57589
G1 X86.242 Y119.175 E52.72538
G1 X85.130 Y118.326 E52.87489
G1 X84.071 Y117.413 E53.02439
G1 X83.077 Y116.448 E53.17239
G1 X82.123 Y115.406 E53.32341
G1 X81.242 Y114.320 E53.47290
G1 X80.434 Y113.195 E53.62089
G1 X79.679 Y112.001 E53.77192
G1 X79.004 Y110.776 E53.92141
G1 X78.409 Y109.526 E54.06940
G1 X77.877 Y108.217 E54.22042
G1 X77.429 Y106.892 E54.36991
G1 X77.060 Y105.543 E54.51942
G1 X76.772 Y104.175 E54.66892
G1 X76.566 Y102.791 E54.81842
G1 X76.442 Y101.398 E54.96793
G1 X76.400 Y100.000 E55.11743
G1 X76.442 Y98.602 E55.26693
G1 X76.566 Y97.209 E55.41644
G1 X76.772 Y95.825 E55.56594
G1 X77.060 Y94.457 E55.71544
G1 X77.429 Y93.108 E55.86495
G1 X77.873 Y91.796 E56.01294
G1 X78.403 Y90.486 E56.16396
G1 X79.004 Y89.224 E56.31345
G1 X79.680 Y87.999 E56.46296
G1 X80.426 Y86.816 E56.61246
G1 X81.242 Y85.680 E56.76196
G1 X82.123 Y84.594 E56.91147
G1 X83.067 Y83.562 E57.06097
G1 X84.071 Y82.587 E57.21047
G1 X85.130 Y81.674 E57.35998
G1 X86.242 Y80.825 E57.50948
G1 X87.402 Y80.044 E57.65898
G1 X88.594 Y79.340 E57.80698
G1 X89.851 Y78.694 E57.95800
G1 X91.131 Y78.130 E58.10749
G1 X92.442 Y77.643 E58.25699
G1 X93.779 Y77.235 E58.40650
G1 X95.139 Y76.906 E58.55600
G1 X96.516 Y76.659 E58.70550
G1 X97.904 Y76.493 E58.85501
G1 X99.301 Y76.411 E59.00451
G1 X100.699 Y76.411 E59.15401
G1 X102.081 Y76.493 E59.30201
G1 X103.485 Y76.659 E59.45303 F1800.000
G1 X104.861 Y76.906 E59.60252
G1 X106.221 Y77.235 E59.75203
G1 X107.558 Y77.643 E59.90153
G1 X108.869 Y78.130 E60.05103
G1 X110.149 Y78.694 E60.20053
