; generated by Slic3r 1.2.9 on 2018-11-05 at 23:02:00

; external perimeters extrusion width = 0.40mm
; perimeters extrusion width = 0.67mm
; infill extrusion width = 0.67mm
; solid infill extrusion width = 0.67mm
; top infill extrusion width = 0.67mm
; support material extrusion width = 0.40mm

M107
M190 S55 ; set bed temperature
G21 ;metric values
G90 ;absolute positioning
M107 ;start with the fan off
G28 X0 Y0 ;move X/Y to min endstops
G29
M104 S190 ; set extruder temp
M109 S190 ; wait for extruder temp
G1 Z15.0 F{travel_speed} ;move the platform down 15mm
G1 F{travel_speed}
;Put printing message on LCD screen
M117 Printing...
G21 ; set units to millimeters
G90 ; use absolute coordinates
M82 ; use absolute distances for extrusion
G92 E0
G1 Z0.400 F4200.000
G1 E-4.50000 F2400.00000
G92 E0
G1 X55.096 Y60.720 F4200.000
G1 E4.50000 F2400.00000
G1 X56.852 Y59.220 E4.74680 F1800.000
G1 X58.243 Y58.599 E4.90962
G1 X95.236 Y46.887 E9.05725
G1 X97.263 Y46.574 E9.27642
G1 X102.056 Y46.574 E9.78875
G1 X104.330 Y46.971 E10.03555 F1800.000
G1 X106.068 Y47.905 E10.24634
G1 X121.784 Y59.616 E12.34140
G1 X123.341 Y61.248 E12.58244
G1 X127.453 Y67.352 E13.36911
G1 X127.946 Y68.214 E13.47526
G1 X146.639 Y107.422 E18.11811
G1 X147.435 Y109.136 E18.32008
G1 X148.061 Y111.966 E18.62988
G1 X148.061 Y121.529 E19.65206
G1 X147.934 Y122.829 E19.79173
G1 X146.190 Y131.664 E20.75434
G1 X145.359 Y133.819 E21.00114
G1 X143.568 Y135.782 E21.28524
G1 X123.568 Y150.418 E23.93431
G1 X121.498 Y151.441 E24.18111
G1 X119.603 Y151.714 E24.38577
G1 X60.269 Y151.714 E30.72783
G1 X57.995 Y151.317 E30.97463
G1 X55.989 Y150.173 E31.22144
G1 X54.490 Y148.417 E31.46824
G1 X53.674 Y146.257 E31.71504
G1 X53.555 Y145.000 E31.85001
G1 X53.555 Y65.000 E40.40110
G1 X53.952 Y62.725 E40.64791
G1 X55.066 Y60.772 E40.88829
G1 E36.38829 F2400.00000
G92 E0
G1 X104.200 Y133.203 F4200.000
G1 E4.50000 F2400.00000
G1 X104.845 Y133.737 E4.58957 F1800.000
G1 X105.338 Y134.415 E4.67913
G1 X105.646 Y135.194 E4.76870
G1 X105.751 Y136.026 E4.85827
G1 X105.646 Y136.857 E4.94783
G1 X105.338 Y137.636 E5.03740
G1 X104.845 Y138.314 E5.12696
G1 X104.200 Y138.848 E5.21653
G1 X103.441 Y139.205 E5.30610
G1 X102.618 Y139.362 E5.39566
G1 X101.782 Y139.309 E5.48523
G1 X100.985 Y139.050 E5.57480
G1 X100.278 Y138.601 E5.66436
G1 X99.704 Y137.991 E5.75393
G1 X99.300 Y137.256 E5.84350
G1 X99.092 Y136.445 E5.93306
G1 X99.092 Y135.607 E6.02263
G1 X99.300 Y134.795 E6.11219
G1 X99.704 Y134.061 E6.20176
G1 X100.278 Y133.450 E6.29133
G1 X100.985 Y133.001 E6.38089
G1 X101.782 Y132.742 E6.47046
G1 X102.618 Y132.689 E6.56003 F1800.000
G1 X103.441 Y132.846 E6.64959
G1 X104.145 Y133.178 E6.73274
G1 X103.814 Y133.811 F4200.000
G1 X104.320 Y134.230 E6.80303 F1800.000
G1 X104.707 Y134.762 E6.87330
G1 X104.949 Y135.373 E6.94358
G1 X105.031 Y136.026 E7.01386
G1 X104.949 Y136.678 E7.08414
G1 X104.707 Y137.289 E7.15442
G1 X104.320 Y137.821 E7.22470
G1 X103.814 Y138.240 E7.29498
G1 X103.219 Y138.520 E7.36526
G1 X102.573 Y138.644 E7.43554
G1 X101.917 Y138.602 E7.50582
G1 X101.292 Y138.399 E7.57610
G1 X100.736 Y138.047 E7.64638
G1 X100.286 Y137.567 E7.71665
G1 X99.970 Y136.991 E7.78694
G1 X99.806 Y136.354 E7.85722
G1 X99.806 Y135.697 E7.92750
G1 X99.970 Y135.060 E7.99777
G1 X100.286 Y134.484 E8.06806
G1 X100.736 Y134.005 E8.13834
G1 X101.291 Y133.652 E8.20861
G1 X101.917 Y133.449 E8.27889
G1 X102.573 Y133.408 E8.34918 F1800.000
G1 X103.219 Y133.531 E8.41945
G1 X103.760 Y133.785 E8.48332
G1 X103.428 Y134.419 F4200.000
G1 X103.796 Y134.723 E8.53431 F1800.000
G1 X104.076 Y135.109 E8.58530
G1 X104.252 Y135.552 E8.63630
G1 X104.312 Y136.026 E8.68729
G1 X104.252 Y136.499 E8.73828
G1 X104.076 Y136.943 E8.78927
G1 X103.796 Y137.328 E8.84027
G1 X103.428 Y137.633 E8.89126
G1 X102.996 Y137.836 E8.94225
G1 X102.528 Y137.925 E8.99324
G1 X102.052 Y137.895 E9.04424
G1 X101.598 Y137.748 E9.09523
G1 X101.195 Y137.492 E9.14622
G1 X100.869 Y137.144 E9.19721
G1 X100.639 Y136.726 E9.24821
G1 X100.520 Y136.264 E9.29920
G1 X100.520 Y135.787 E9.35019
G1 X100.639 Y135.325 E9.40119
G1 X100.869 Y134.907 E9.45218
G1 X101.195 Y134.559 E9.50317
G1 X101.598 Y134.304 E9.55416
G1 X102.052 Y134.156 E9.60516
G1 X102.528 Y134.126 E9.65615 F1800.000
G1 X102.996 Y134.216 E9.70714
G1 X103.374 Y134.393 E9.75172
G1 X103.790 Y134.248 F4200.000
G1 X117.060 Y127.821 F4200.000
G1 X117.060 Y142.458 E11.31616 F1800.000
G1 X62.812 Y142.458 E17.11470
G1 X62.812 Y117.503 E19.78210
G1 X63.401 Y118.130 E19.87416
G1 X64.261 Y118.676 E19.98301
G1 X65.230 Y118.991 E20.09186
G1 X66.246 Y119.055 E20.20072
G1 X67.246 Y118.864 E20.30957
G1 X68.168 Y118.430 E20.41842
G1 X68.952 Y117.781 E20.52728
G1 X69.551 Y116.957 E20.63613
G1 X69.923 Y116.017 E20.74426
G1 X70.266 Y116.075 E20.78142
G1 X70.283 Y116.515 E20.82848
G1 X70.459 Y118.058 E20.99452
G1 X70.752 Y119.567 E21.15878
G1 X71.159 Y121.048 E21.32291
G1 X71.678 Y122.493 E21.48704
G1 X72.306 Y123.894 E21.65117
G1 X73.040 Y125.243 E21.81530
G1 X73.874 Y126.532 E21.97942
G1 X74.805 Y127.753 E22.14355
G1 X75.814 Y128.885 E22.30563
G1 X76.932 Y129.963 E22.47167
G1 X78.118 Y130.941 E22.63593
G1 X79.374 Y131.825 E22.80006
G1 X80.694 Y132.609 E22.96419
G1 X82.052 Y133.282 E23.12627
G1 X83.493 Y133.864 E23.29230
G1 X84.958 Y134.328 E23.45657
G1 X86.453 Y134.678 E23.62070
G1 X87.970 Y134.912 E23.78482
G1 X89.482 Y135.028 E23.94690
G1 X91.036 Y135.030 E24.11294
G1 X92.568 Y134.912 E24.27720
G1 X94.085 Y134.678 E24.44133
G1 X95.581 Y134.328 E24.60546
G1 X97.044 Y133.865 E24.76959
G1 X98.469 Y133.291 E24.93372
G1 X99.395 Y132.832 E25.04416
G1 X99.608 Y133.120 E25.08244
G1 X99.122 Y133.638 E25.15840
G1 X98.631 Y134.530 E25.26726
G1 X98.378 Y135.516 E25.37611
G1 X98.378 Y136.535 E25.48496
G1 X98.631 Y137.521 E25.59381
G1 X99.122 Y138.414 E25.70267
G1 X99.819 Y139.156 E25.81153
G1 X100.679 Y139.702 E25.92037
G1 X101.647 Y140.016 E26.02923
G1 X102.663 Y140.080 E26.13808
G1 X103.664 Y139.890 E26.24694
G1 X104.585 Y139.456 E26.35579
G1 X105.370 Y138.807 E26.46464
G1 X105.968 Y137.983 E26.57349
G1 X106.343 Y137.036 E26.68235
G1 X106.471 Y136.026 E26.79120
G1 X106.343 Y135.015 E26.90005
G1 X105.968 Y134.068 E27.00891
G1 X105.370 Y133.245 E27.11776
G1 X104.585 Y132.595 E27.22661
G1 X103.664 Y132.162 E27.33546
G1 X102.663 Y131.971 E27.44432
G1 X101.647 Y132.035 E27.55317
G1 X101.369 Y132.125 E27.58447
G1 X101.204 Y131.795 E27.62391
G1 X102.420 Y130.942 E27.78268
G1 X103.605 Y129.964 E27.94695
G1 X104.712 Y128.899 E28.11107
G1 X105.733 Y127.753 E28.27520
G1 X106.664 Y126.532 E28.43933
G1 X107.499 Y125.243 E28.60346
G1 X108.232 Y123.894 E28.76759
G1 X108.860 Y122.493 E28.93171
G1 X109.379 Y121.048 E29.09584
G1 X109.781 Y119.586 E29.25792
G1 X110.078 Y118.061 E29.42396
G1 X110.255 Y116.534 E29.58822
G1 X110.314 Y115.000 E29.75235
G1 X110.255 Y113.466 E29.91648
G1 X110.079 Y111.940 E30.08061
G1 X109.786 Y110.433 E30.24474
G1 X109.379 Y108.952 E30.40886
G1 X108.860 Y107.507 E30.57299
G1 X108.232 Y106.106 E30.73712
G1 X107.508 Y104.774 E30.89920
G1 X106.665 Y103.469 E31.06523
G1 X105.733 Y102.247 E31.22950
G1 X104.712 Y101.101 E31.39363
G1 X103.619 Y100.049 E31.55571
G1 X102.422 Y99.060 E31.72174
G1 X101.208 Y98.206 E31.88038
G1 X101.373 Y97.876 E31.91980
G1 X101.647 Y97.965 E31.95064
G1 X102.663 Y98.029 E32.05950
G1 X103.664 Y97.838 E32.16835
G1 X104.585 Y97.405 E32.27720
G1 X105.370 Y96.755 E32.38606
G1 X105.969 Y95.932 E32.49491
G1 X106.343 Y94.985 E32.60376
G1 X106.471 Y93.974 E32.71261
G1 X106.343 Y92.964 E32.82147
G1 X105.969 Y92.017 E32.93032
G1 X105.370 Y91.193 E33.03917
G1 X104.585 Y90.544 E33.14803
G1 X103.664 Y90.110 E33.25688
G1 X102.663 Y89.920 E33.36573
G1 X101.647 Y89.984 E33.47459
G1 X100.679 Y90.298 E33.58344
G1 X99.819 Y90.844 E33.69229
G1 X99.122 Y91.586 E33.80115
G1 X98.631 Y92.479 E33.91000
G1 X98.378 Y93.465 E34.01885
G1 X98.378 Y94.484 E34.12770
G1 X98.631 Y95.470 E34.23656
G1 X99.122 Y96.362 E34.34541
G1 X99.608 Y96.880 E34.42137
G1 X99.395 Y97.168 E34.45965
G1 X98.469 Y96.709 E34.57009
G1 X97.044 Y96.135 E34.73422
G1 X95.581 Y95.672 E34.89835
G1 X94.085 Y95.322 E35.06248
G1 X92.568 Y95.088 E35.22661
G1 X91.056 Y94.972 E35.38869
G1 X89.503 Y94.970 E35.55472
G1 X87.970 Y95.088 E35.71899
G1 X86.453 Y95.322 E35.88311
G1 X84.958 Y95.672 E36.04724
G1 X83.494 Y96.135 E36.21137
G1 X82.070 Y96.709 E36.37550
G1 X80.694 Y97.391 E36.53963
G1 X79.374 Y98.175 E36.70376
G1 X78.133 Y99.048 E36.86584
G1 X76.934 Y100.035 E37.03187
G1 X75.827 Y101.101 E37.19614
G1 X74.805 Y102.247 E37.36026
G1 X73.874 Y103.468 E37.52439
G1 X73.050 Y104.741 E37.68647
G1 X72.307 Y106.105 E37.85251
G1 X71.678 Y107.507 E38.01677
G1 X71.159 Y108.952 E38.18090
G1 X70.752 Y110.433 E38.34503
G1 X70.460 Y111.940 E38.50916
G1 X70.284 Y113.466 E38.67328
G1 X70.266 Y113.925 E38.72240
G1 X69.923 Y113.983 E38.75956
G1 X69.551 Y113.043 E38.86769
G1 X68.952 Y112.219 E38.97654
G1 X68.168 Y111.570 E39.08539
G1 X67.246 Y111.136 E39.19425
G1 X66.246 Y110.945 E39.30310
G1 X65.230 Y111.009 E39.41196
G1 X64.261 Y111.324 E39.52081
G1 X63.401 Y111.870 E39.62966
G1 X62.812 Y112.497 E39.72171
G1 X62.812 Y67.542 E44.52689
G1 X115.230 Y67.542 E50.12983
G1 X115.230 Y124.542 E56.22248
G1 X117.060 Y124.542 E56.41808
G1 X117.060 Y124.566 E56.42057
G1 X137.060 Y124.566 E58.55834
G1 X137.060 Y127.821 E58.90633
G1 X117.120 Y127.821 E61.03769
G1 X103.441 Y97.154 F4200.000
G1 X102.618 Y97.311 E61.12726 F1800.000
G1 X101.782 Y97.258 E61.21682
G1 X100.985 Y96.999 E61.30639
G1 X100.278 Y96.550 E61.39595
G1 X99.704 Y95.939 E61.48552
G1 X99.300 Y95.205 E61.57509
G1 X99.092 Y94.393 E61.66465
G1 X99.092 Y93.555 E61.75422
G1 X99.300 Y92.744 E61.84378
G1 X99.704 Y92.009 E61.93335
G1 X100.278 Y91.399 E62.02292
G1 X100.985 Y90.950 E62.11249
G1 X101.782 Y90.691 E62.20205
G1 X102.618 Y90.638 E62.29162 F1800.000
G1 X103.441 Y90.795 E62.38118
G1 X104.200 Y91.152 E62.47075
G1 X104.845 Y91.686 E62.56032
G1 X105.338 Y92.364 E62.64989
G1 X105.646 Y93.143 E62.73945
G1 X105.751 Y93.974 E62.82902
G1 X105.646 Y94.806 E62.91858
G1 X105.338 Y95.585 E63.00815
G1 X104.845 Y96.263 E63.09771
G1 X104.200 Y96.797 E63.18728
G1 X103.496 Y97.128 E63.27043
G1 X103.219 Y96.469 F4200.000
G1 X102.573 Y96.592 E63.34071 F1800.000
G1 X101.917 Y96.551 E63.41099
G1 X101.292 Y96.348 E63.48127
G1 X100.736 Y95.995 E63.55155
G1 X100.286 Y95.516 E63.62183
G1 X99.970 Y94.940 E63.69211
G1 X99.806 Y94.303 E63.76239
G1 X99.806 Y93.646 E63.83267
G1 X99.970 Y93.009 E63.90295
G1 X100.286 Y92.433 E63.97323
G1 X100.736 Y91.953 E64.04351
G1 X101.292 Y91.601 E64.11379
G1 X101.917 Y91.398 E64.18407
G1 X102.573 Y91.356 E64.25435 F1800.000
G1 X103.219 Y91.480 E64.32462
G1 X103.814 Y91.760 E64.39491
G1 X104.320 Y92.179 E64.46518
G1 X104.707 Y92.711 E64.53547
G1 X104.949 Y93.322 E64.60574
G1 X105.031 Y93.974 E64.67602
G1 X104.949 Y94.627 E64.74630
G1 X104.707 Y95.238 E64.81658
G1 X104.320 Y95.770 E64.88686
G1 X103.814 Y96.189 E64.95714
G1 X103.273 Y96.443 E65.02101
G1 X102.996 Y95.784 F4200.000
G1 X102.528 Y95.874 E65.07200 F1800.000
G1 X102.052 Y95.844 E65.12299
G1 X101.598 Y95.696 E65.17399
G1 X101.195 Y95.441 E65.22498
G1 X100.869 Y95.093 E65.27597
G1 X100.639 Y94.675 E65.32696
G1 X100.520 Y94.213 E65.37796
G1 X100.520 Y93.736 E65.42895
G1 X100.639 Y93.274 E65.47994
G1 X100.869 Y92.856 E65.53093
G1 X101.195 Y92.508 E65.58193
G1 X101.598 Y92.252 E65.63292
G1 X102.052 Y92.105 E65.68391
G1 X102.528 Y92.075 E65.73490 F1800.000
G1 X102.996 Y92.164 E65.78590
G1 X103.428 Y92.367 E65.83689
G1 X103.796 Y92.672 E65.88788
G1 X104.076 Y93.057 E65.93888
G1 X104.252 Y93.501 E65.98987
G1 X104.312 Y93.974 E66.04086
G1 X104.252 Y94.448 E66.09185
G1 X104.076 Y94.891 E66.14284
G1 X103.796 Y95.277 E66.19384
G1 X103.428 Y95.581 E66.24483
G1 X103.051 Y95.759 E66.28941
G1 X102.897 Y96.172 F4200.000
G1 X100.854 Y98.830 F4200.000
G1 X101.988 Y99.628 E66.43760 F1800.000
G1 X103.143 Y100.582 E66.59778
G1 X104.197 Y101.596 E66.75405
G1 X105.182 Y102.702 E66.91232
G1 X106.080 Y103.880 E67.07070
G1 X106.893 Y105.139 E67.23088
G1 X107.592 Y106.423 E67.38715
G1 X108.197 Y107.774 E67.54542
G1 X108.698 Y109.168 E67.70370
G1 X109.090 Y110.596 E67.86197
G1 X109.372 Y112.049 E68.02025
G1 X109.542 Y113.520 E68.17853
G1 X109.599 Y115.000 E68.33680
G1 X109.542 Y116.480 E68.49508
G1 X109.372 Y117.952 E68.65345
G1 X109.085 Y119.422 E68.81364
G1 X108.698 Y120.832 E68.96990
G1 X108.197 Y122.226 E69.12818
G1 X107.592 Y123.577 E69.28645
G1 X106.884 Y124.878 E69.44473
G1 X106.079 Y126.121 E69.60301
G1 X105.182 Y127.298 E69.76128
G1 X104.197 Y128.404 E69.91956
G1 X103.130 Y129.431 E70.07784
G1 X101.987 Y130.373 E70.23621
G1 X100.760 Y131.234 E70.39639
G1 X99.503 Y131.981 E70.55266
G1 X98.176 Y132.638 E70.71093
G1 X96.803 Y133.192 E70.86921
G1 X95.391 Y133.639 E71.02749
G1 X93.949 Y133.976 E71.18576
G1 X92.486 Y134.202 E71.34404
G1 X91.009 Y134.316 E71.50241
G1 X89.510 Y134.314 E71.66260
G1 X88.052 Y134.202 E71.81886
G1 X86.589 Y133.976 E71.97714
G1 X85.147 Y133.639 E72.13542
G1 X83.735 Y133.192 E72.29379
G1 X82.345 Y132.630 E72.45397
G1 X81.035 Y131.981 E72.61024
G1 X79.762 Y131.225 E72.76851
G1 X78.551 Y130.373 E72.92679
G1 X77.408 Y129.430 E73.08517
G1 X76.329 Y128.390 E73.24535
G1 X75.357 Y127.298 E73.40161
G1 X74.459 Y126.121 E73.55989
G1 X73.654 Y124.878 E73.71817
G1 X72.947 Y123.577 E73.87644
G1 X72.341 Y122.226 E74.03472
G1 X71.840 Y120.832 E74.19299
G1 X71.448 Y119.404 E74.35127
G1 X71.166 Y117.950 E74.50965
G1 X70.995 Y116.461 E74.66983
G1 X70.939 Y115.000 E74.82609
G1 X70.996 Y113.520 E74.98437
G1 X71.166 Y112.049 E75.14265
G1 X71.448 Y110.596 E75.30092
G1 X71.840 Y109.168 E75.45920
G1 X72.341 Y107.774 E75.61747
G1 X72.947 Y106.422 E75.77585
G1 X73.664 Y105.106 E75.93603
G1 X74.459 Y103.879 E76.09230
G1 X75.357 Y102.702 E76.25057
G1 X76.342 Y101.596 E76.40885
G1 X77.409 Y100.569 E76.56722
G1 X78.566 Y99.616 E76.72741
G1 X79.762 Y98.775 E76.88367
G1 X81.035 Y98.019 E77.04195
G1 X82.362 Y97.362 E77.20023
G1 X83.735 Y96.808 E77.35850
G1 X85.147 Y96.361 E77.51678
G1 X86.589 Y96.024 E77.67505
G1 X88.052 Y95.798 E77.83333
G1 X89.530 Y95.684 E77.99171 F1800.000
G1 X91.028 Y95.686 E78.15189
G1 X92.486 Y95.798 E78.30815
G1 X93.949 Y96.024 E78.46643
G1 X95.391 Y96.361 E78.62471
G1 X96.803 Y96.808 E78.78298
G1 X98.176 Y97.362 E78.94126
G1 X99.503 Y98.019 E79.09953
G1 X100.805 Y98.796 E79.26157
G1 X100.443 Y99.414 F4200.000
G1 X101.554 Y100.196 E79.40680 F1800.000
G1 X102.667 Y101.116 E79.56113
G1 X103.682 Y102.092 E79.71158
G1 X104.630 Y103.156 E79.86400
G1 X105.495 Y104.291 E80.01649
G1 X106.279 Y105.504 E80.17082
G1 X106.951 Y106.740 E80.32127
G1 X107.535 Y108.041 E80.47370
G1 X108.017 Y109.383 E80.62612
G1 X108.394 Y110.759 E80.77854
G1 X108.666 Y112.158 E80.93097
G1 X108.830 Y113.575 E81.08339
G1 X108.884 Y115.000 E81.23582
G1 X108.830 Y116.425 E81.38824
G1 X108.666 Y117.842 E81.54072
G1 X108.390 Y119.259 E81.69505
G1 X108.017 Y120.617 E81.84551
G1 X107.535 Y121.959 E81.99793
G1 X106.951 Y123.260 E82.15036
G1 X106.270 Y124.513 E82.30278
G1 X105.495 Y125.710 E82.45521
G1 X104.630 Y126.844 E82.60763
G1 X103.682 Y127.908 E82.76005
G1 X102.654 Y128.897 E82.91248
G1 X101.554 Y129.805 E83.06496
G1 X100.372 Y130.634 E83.21929
G1 X99.162 Y131.353 E83.36974
G1 X97.884 Y131.986 E83.52217
G1 X96.561 Y132.519 E83.67459
G1 X95.202 Y132.950 E83.82702
G1 X93.813 Y133.274 E83.97944
G1 X92.404 Y133.492 E84.13186
G1 X90.982 Y133.601 E84.28435
G1 X89.538 Y133.600 E84.43868
G1 X88.134 Y133.492 E84.58913
G1 X86.725 Y133.274 E84.74156
G1 X85.337 Y132.950 E84.89398
G1 X83.976 Y132.519 E85.04646
G1 X82.638 Y131.978 E85.20079
G1 X81.376 Y131.353 E85.35125
G1 X80.151 Y130.625 E85.50367
G1 X78.984 Y129.804 E85.65610
G1 X77.884 Y128.897 E85.80858
G1 X76.844 Y127.894 E85.96291
G1 X75.908 Y126.844 E86.11336
G1 X75.043 Y125.710 E86.26579
G1 X74.268 Y124.513 E86.41821
G1 X73.587 Y123.260 E86.57064
G1 X73.004 Y121.959 E86.72306
G1 X72.522 Y120.617 E86.87548
G1 X72.144 Y119.241 E87.02791
G1 X71.872 Y117.841 E87.18039
G1 X71.708 Y116.407 E87.33472
G1 X71.654 Y115.000 E87.48517
G1 X71.709 Y113.575 E87.63760
G1 X71.872 Y112.158 E87.79002
G1 X72.144 Y110.759 E87.94245
G1 X72.522 Y109.383 E88.09487
