; generated by Slic3r 1.2.9 on 2018-10-31 at 22:06:40

; external perimeters extrusion width = 0.40mm
; perimeters extrusion width = 0.67mm
; infill extrusion width = 0.67mm
; solid infill extrusion width = 0.67mm
; top infill extrusion width = 0.67mm
; support material extrusion width = 0.40mm

M107
M190 S55 ; set bed temperature
G21 ;metric values
G90 ;absolute positioning
M107 ;start with the fan off
G28 X0 Y0 ;move X/Y to min endstops
G29
M104 S190 ; set extruder temp
M109 S190 ; wait for extruder temp
G1 Z15.0 F{travel_speed} ;move the platform down 15mm
G1 F{travel_speed}
;Put printing message on LCD screen
M117 Printing...
G21 ; set units to millimeters
G90 ; use absolute coordinates
M82 ; use absolute distances for extrusion
G92 E0
G1 Z0.400 F4200.000
G1 E-4.50000 F2400.00000
G92 E0
G1 X77.088 Y75.555 F4200.000
G1 E4.50000 F2400.00000
G1 X79.871 Y73.189 E4.89043 F1800.000
G1 X80.520 Y72.702 E4.97715
G1 X82.908 Y71.126 E5.28299
G1 X83.492 Y70.781 E5.35548
G1 X85.658 Y69.646 E5.61688
G1 X86.154 Y69.412 E5.67551
G1 X88.183 Y68.553 E5.91097
G1 X88.721 Y68.351 E5.97238
G1 X90.630 Y67.729 E6.18708
G1 X91.097 Y67.595 E6.23894
G1 X92.921 Y67.143 E6.43982
G1 X95.117 Y66.738 E6.67845
G1 X97.237 Y66.487 E6.90671
G1 X97.848 Y66.447 E6.97215
G1 X101.076 Y66.383 E7.31721
G1 X101.665 Y66.397 E7.38020
G1 X103.613 Y66.542 E7.58900 F1800.000
G1 X105.114 Y66.735 E7.75074
G1 X106.966 Y67.075 E7.95205
G1 X109.085 Y67.597 E8.18532
G1 X110.804 Y68.128 E8.37763
G1 X112.480 Y68.743 E8.56838
G1 X114.194 Y69.479 E8.76781
G1 X115.689 Y70.231 E8.94670
G1 X117.323 Y71.139 E9.14652
G1 X118.825 Y72.102 E9.33716
G1 X120.003 Y72.938 E9.49162
G1 X120.426 Y73.263 E9.54864
G1 X122.677 Y75.146 E9.86238
G1 X123.216 Y75.649 E9.94112
G1 X125.314 Y77.837 E10.26519
G1 X125.718 Y78.299 E10.33073
G1 X126.699 Y79.529 E10.49892
G1 X128.096 Y81.511 E10.75813
G1 X129.189 Y83.307 E10.98282
G1 X130.013 Y84.851 E11.16988
G1 X130.965 Y86.924 E11.41373
G1 X131.153 Y87.382 E11.46667
G1 X131.827 Y89.226 E11.67643
G1 X131.989 Y89.732 E11.73327
G1 X132.560 Y91.782 E11.96070
G1 X132.682 Y92.303 E12.01791
G1 X133.128 Y94.601 E12.26814
G1 X133.219 Y95.224 E12.33548
G1 X133.480 Y97.890 E12.62183
G1 X133.512 Y98.634 E12.70138
G1 X133.469 Y101.908 E13.05134
G1 X133.379 Y102.916 E13.15954
G1 X132.591 Y107.676 E13.67528
G1 X131.969 Y109.588 E13.89015
G1 X126.843 Y119.817 E15.11312
G1 X125.698 Y121.443 E15.32566
G1 X122.332 Y124.971 E15.84693
G1 X121.571 Y125.656 E15.95632
G1 X118.969 Y127.661 E16.30745
G1 X118.349 Y128.085 E16.38775
G1 X116.055 Y129.474 E16.67436
G1 X115.502 Y129.774 E16.74160
G1 X113.393 Y130.795 E16.99206
G1 X112.859 Y131.025 E17.05421
G1 X110.885 Y131.777 E17.28010
G1 X110.415 Y131.937 E17.33306
G1 X108.536 Y132.498 E17.54266
G1 X108.078 Y132.617 E17.59330
G1 X105.834 Y133.103 E17.83868
G1 X103.673 Y133.420 E18.07211
G1 X102.002 Y133.567 E18.25145
G1 X99.969 Y133.632 E18.46889
G1 X97.613 Y133.554 E18.72081
G1 X96.086 Y133.414 E18.88479
G1 X94.227 Y133.150 E19.08547
G1 X92.056 Y132.707 E19.32228
G1 X90.644 Y132.337 E19.47832
G1 X88.875 Y131.768 E19.67691
G1 X86.890 Y130.998 E19.90457
G1 X85.275 Y130.263 E20.09421
G1 X83.700 Y129.447 E20.28377
G1 X82.161 Y128.546 E20.47439
G1 X80.956 Y127.762 E20.62803
G1 X80.608 Y127.519 E20.67346
G1 X79.167 Y126.434 E20.86626
G1 X78.039 Y125.497 E21.02300
G1 X77.633 Y125.132 E21.08135
G1 X75.489 Y123.035 E21.40194
G1 X74.976 Y122.473 E21.48320
G1 X72.999 Y120.044 E21.81805
G1 X72.641 Y119.562 E21.88220
G1 X71.498 Y117.845 E22.10264
G1 X70.425 Y115.988 E22.33193
G1 X69.626 Y114.394 E22.52247
G1 X69.340 Y113.739 E22.59882
G1 X67.974 Y110.090 E23.01531
G1 X67.752 Y109.382 E23.09467
G1 X67.217 Y107.263 E23.32827
G1 X67.095 Y106.672 E23.39273
G1 X66.710 Y104.253 E23.65460
G1 X66.639 Y103.609 E23.72384
G1 X66.465 Y100.769 E24.02797
G1 X66.465 Y99.949 E24.11560
G1 X66.686 Y96.320 E24.50422
G1 X66.930 Y94.891 E24.65921
G1 X69.029 Y87.515 E25.47893
G1 X69.485 Y86.344 E25.61318
G1 X70.961 Y83.398 E25.96541
G1 X71.669 Y82.278 E26.10703
G1 X76.141 Y76.542 E26.88448
G1 X77.046 Y75.598 E27.02429
G1 E22.52429 F2400.00000
G92 E0
G1 X108.992 Y108.618 F4200.000
G1 E4.50000 F2400.00000
G1 X108.229 Y109.350 E4.61300 F1800.000
G1 X107.407 Y110.014 E4.72594
G1 X106.524 Y110.610 E4.83985
G1 X105.607 Y111.122 E4.95202
G1 X104.644 Y111.557 E5.06503
G1 X103.648 Y111.909 E5.17796
G1 X102.616 Y112.177 E5.29187
G1 X101.582 Y112.354 E5.40404
G1 X100.529 Y112.444 E5.51705
G1 X99.471 Y112.444 E5.63005
G1 X98.418 Y112.354 E5.74306
G1 X97.376 Y112.176 E5.85606
G1 X96.353 Y111.909 E5.96907
G1 X95.356 Y111.557 E6.08208
G1 X94.393 Y111.122 E6.19508
G1 X93.476 Y110.610 E6.30726
G1 X92.593 Y110.014 E6.42117
G1 X91.771 Y109.350 E6.53410
G1 X91.008 Y108.618 E6.64710
G1 X90.309 Y107.825 E6.76011
G1 X89.681 Y106.975 E6.87311
G1 X89.126 Y106.074 E6.98612
G1 X88.650 Y105.130 E7.09913
G1 X88.256 Y104.149 E7.21213
G1 X87.947 Y103.138 E7.32514
G1 X87.724 Y102.105 E7.43814
G1 X87.590 Y101.056 E7.55115
G1 X87.545 Y100.008 E7.66332
G1 X87.590 Y98.943 E7.77723
G1 X87.724 Y97.895 E7.89016
G1 X87.947 Y96.862 E8.00317
G1 X88.256 Y95.851 E8.11610
G1 X88.654 Y94.863 E8.23001
G1 X89.126 Y93.926 E8.34218
G1 X89.681 Y93.025 E8.45519
G1 X90.309 Y92.175 E8.56820
G1 X91.008 Y91.382 E8.68120
G1 X91.771 Y90.650 E8.79421
G1 X92.594 Y89.986 E8.90721
G1 X93.469 Y89.394 E9.02014
G1 X94.400 Y88.875 E9.13405
G1 X95.356 Y88.443 E9.24623
G1 X96.353 Y88.091 E9.35923
G1 X97.376 Y87.824 E9.47224
G1 X98.418 Y87.646 E9.58525
G1 X99.471 Y87.556 E9.69825
G1 X100.529 Y87.556 E9.81126
G1 X101.574 Y87.645 E9.92343
G1 X102.625 Y87.825 E10.03734 F1800.000
G1 X103.647 Y88.091 E10.15027
G1 X104.644 Y88.443 E10.26328
G1 X105.607 Y88.878 E10.37628
G1 X106.530 Y89.394 E10.48929
G1 X107.406 Y89.986 E10.60229
G1 X108.223 Y90.645 E10.71447
G1 X108.993 Y91.382 E10.82838
G1 X109.691 Y92.175 E10.94131
G1 X110.319 Y93.025 E11.05431
G1 X110.874 Y93.926 E11.16732
G1 X111.346 Y94.863 E11.27950
G1 X111.744 Y95.851 E11.39341
G1 X112.053 Y96.862 E11.50634
G1 X112.276 Y97.895 E11.61934
G1 X112.410 Y98.944 E11.73235
G1 X112.455 Y100.000 E11.84535
G1 X112.410 Y101.056 E11.95836
G1 X112.276 Y102.105 E12.07136
G1 X112.053 Y103.138 E12.18437
G1 X111.744 Y104.149 E12.29738
G1 X111.350 Y105.130 E12.41038
G1 X110.874 Y106.074 E12.52339
G1 X110.319 Y106.975 E12.63639
G1 X109.691 Y107.825 E12.74940
G1 X109.032 Y108.573 E12.85599
G1 X109.486 Y109.134 F4200.000
G1 X108.701 Y109.886 E12.97224 F1800.000
G1 X107.832 Y110.588 E13.09168
G1 X106.898 Y111.219 E13.21207
G1 X105.929 Y111.760 E13.33071
G1 X104.911 Y112.220 E13.45020
G1 X103.857 Y112.593 E13.56964
G1 X102.767 Y112.876 E13.69003
G1 X101.673 Y113.063 E13.80867
G1 X100.559 Y113.158 E13.92817
G1 X99.441 Y113.158 E14.04766
G1 X98.327 Y113.063 E14.16715
G1 X97.225 Y112.874 E14.28664
G1 X96.144 Y112.593 E14.40613
G1 X95.089 Y112.220 E14.52562
G1 X94.071 Y111.760 E14.64511
G1 X93.102 Y111.219 E14.76375
G1 X92.168 Y110.588 E14.88415
G1 X91.299 Y109.886 E15.00358
G1 X90.492 Y109.113 E15.12307
G1 X89.753 Y108.274 E15.24257
G1 X89.088 Y107.375 E15.36206
G1 X88.502 Y106.423 E15.48155
G1 X87.999 Y105.425 E15.60104
G1 X87.582 Y104.387 E15.72053
G1 X87.255 Y103.319 E15.84002
G1 X87.019 Y102.226 E15.95951
G1 X86.877 Y101.117 E16.07900
G1 X86.830 Y100.008 E16.19764
G1 X86.877 Y98.883 E16.31804
G1 X87.019 Y97.774 E16.43747
G1 X87.255 Y96.681 E16.55697
G1 X87.582 Y95.613 E16.67640
G1 X88.003 Y94.568 E16.79680
G1 X88.502 Y93.577 E16.91544
G1 X89.088 Y92.625 E17.03493
G1 X89.753 Y91.726 E17.15442
G1 X90.492 Y90.887 E17.27391
G1 X91.299 Y90.114 E17.39340
G1 X92.169 Y89.411 E17.51289
G1 X93.094 Y88.786 E17.63233
G1 X94.078 Y88.237 E17.75272
G1 X95.089 Y87.780 E17.87136
G1 X96.144 Y87.407 E17.99086
G1 X97.225 Y87.126 E18.11035
G1 X98.327 Y86.937 E18.22984
G1 X99.441 Y86.842 E18.34933
G1 X100.559 Y86.842 E18.46882
G1 X101.665 Y86.936 E18.58746
G1 X102.775 Y87.126 E18.70785 F1800.000
G1 X103.856 Y87.407 E18.82729
G1 X104.911 Y87.780 E18.94678
G1 X105.929 Y88.240 E19.06627
G1 X106.905 Y88.785 E19.18576
G1 X107.831 Y89.411 E19.30526
G1 X108.695 Y90.109 E19.42390
G1 X109.509 Y90.888 E19.54429
G1 X110.247 Y91.726 E19.66373
G1 X110.911 Y92.625 E19.78322
G1 X111.498 Y93.577 E19.90271
G1 X111.997 Y94.568 E20.02135
G1 X112.418 Y95.613 E20.14174
G1 X112.745 Y96.681 E20.26118
G1 X112.981 Y97.774 E20.38067
G1 X113.123 Y98.883 E20.50016
G1 X113.170 Y100.000 E20.61965
G1 X113.123 Y101.117 E20.73914
G1 X112.981 Y102.226 E20.85864
G1 X112.745 Y103.319 E20.97813
G1 X112.418 Y104.387 E21.09762
G1 X112.001 Y105.425 E21.21711
G1 X111.498 Y106.423 E21.33660
G1 X110.911 Y107.375 E21.45609
G1 X110.247 Y108.274 E21.57558
G1 X109.528 Y109.091 E21.69190
G1 X109.980 Y109.649 F4200.000
G1 X109.173 Y110.423 E21.81139 F1800.000
G1 X108.257 Y111.163 E21.93734
G1 X107.273 Y111.827 E22.06422
G1 X106.251 Y112.398 E22.18932
G1 X105.177 Y112.884 E22.31530
G1 X104.066 Y113.276 E22.44124
G1 X102.917 Y113.575 E22.56812
G1 X101.764 Y113.772 E22.69323
G1 X100.589 Y113.872 E22.81920
G1 X99.411 Y113.872 E22.94518
G1 X98.236 Y113.772 E23.07116
G1 X97.075 Y113.573 E23.19713
G1 X95.934 Y113.276 E23.32311
G1 X94.823 Y112.884 E23.44909
G1 X93.749 Y112.398 E23.57506
G1 X92.727 Y111.827 E23.70016
G1 X91.743 Y111.163 E23.82705
G1 X90.827 Y110.423 E23.95299
G1 X89.976 Y109.607 E24.07896
G1 X89.197 Y108.723 E24.20494
G1 X88.496 Y107.775 E24.33092
G1 X87.878 Y106.772 E24.45689
G1 X87.348 Y105.719 E24.58287
G1 X86.908 Y104.626 E24.70885
G1 X86.563 Y103.499 E24.83483
G1 X86.315 Y102.347 E24.96080
G1 X86.165 Y101.178 E25.08678
G1 X86.116 Y100.008 E25.21188
G1 X86.165 Y98.822 E25.33876
G1 X86.315 Y97.653 E25.46470
G1 X86.563 Y96.501 E25.59068
G1 X86.908 Y95.375 E25.71663
G1 X87.351 Y94.274 E25.84351
G1 X87.878 Y93.228 E25.96861
G1 X88.496 Y92.225 E26.09459
G1 X89.197 Y91.277 E26.22056
G1 X89.976 Y90.393 E26.34654
G1 X90.827 Y89.577 E26.47252
G1 X91.744 Y88.837 E26.59849
G1 X92.720 Y88.177 E26.72443
G1 X93.756 Y87.599 E26.85132
G1 X94.823 Y87.116 E26.97642
G1 X95.934 Y86.724 E27.10240
G1 X97.075 Y86.427 E27.22837
G1 X98.236 Y86.228 E27.35435
G1 X99.411 Y86.128 E27.48032
G1 X100.589 Y86.128 E27.60630
G1 X101.755 Y86.227 E27.73140
G1 X102.926 Y86.427 E27.85829 F1800.000
G1 X104.066 Y86.724 E27.98423
G1 X105.177 Y87.116 E28.11021
G1 X106.251 Y87.602 E28.23618
G1 X107.280 Y88.177 E28.36216
G1 X108.256 Y88.837 E28.48814
G1 X109.167 Y89.572 E28.61324
G1 X110.024 Y90.393 E28.74012
G1 X110.803 Y91.277 E28.86606
G1 X111.504 Y92.225 E28.99204
G1 X112.122 Y93.228 E29.11802
G1 X112.649 Y94.274 E29.24312
G1 X113.092 Y95.375 E29.37000
G1 X113.437 Y96.501 E29.49594
G1 X113.685 Y97.653 E29.62192
G1 X113.835 Y98.822 E29.74789
G1 X113.885 Y100.000 E29.87387
G1 X113.835 Y101.178 E29.99985
G1 X113.685 Y102.347 E30.12582
G1 X113.437 Y103.499 E30.25180
G1 X113.092 Y104.626 E30.37778
G1 X112.652 Y105.719 E30.50376
G1 X112.122 Y106.772 E30.62973
G1 X111.504 Y107.775 E30.75571
G1 X110.803 Y108.723 E30.88168
G1 X110.024 Y109.608 E31.00773
G1 X110.475 Y110.165 F4200.000
G1 X109.646 Y110.960 E31.13047 F1800.000
G1 X108.682 Y111.738 E31.26292
G1 X107.647 Y112.436 E31.39628
G1 X106.573 Y113.036 E31.52785
G1 X105.444 Y113.547 E31.66031
G1 X104.275 Y113.960 E31.79276
G1 X103.068 Y114.273 E31.92613
G1 X101.854 Y114.481 E32.05769
G1 X100.620 Y114.586 E32.19016
G1 X99.380 Y114.586 E32.32262
G1 X98.146 Y114.481 E32.45508
G1 X96.924 Y114.272 E32.58754
G1 X95.725 Y113.960 E32.72001
G1 X94.556 Y113.547 E32.85247
G1 X93.427 Y113.036 E32.98493
G1 X92.353 Y112.436 E33.11650
G1 X91.318 Y111.738 E33.24986
G1 X90.354 Y110.960 E33.38231
G1 X89.460 Y110.102 E33.51477
G1 X88.641 Y109.172 E33.64724
G1 X87.904 Y108.175 E33.77970
G1 X87.254 Y107.120 E33.91216
G1 X86.696 Y106.014 E34.04462
G1 X86.234 Y104.864 E34.17708
G1 X85.871 Y103.679 E34.30955
G1 X85.610 Y102.467 E34.44201
G1 X85.453 Y101.238 E34.57447
G1 X85.401 Y100.008 E34.70604
G1 X85.453 Y98.762 E34.83940
G1 X85.610 Y97.533 E34.97185
G1 X85.871 Y96.321 E35.10432
G1 X86.234 Y95.136 E35.23677
G1 X86.700 Y93.979 E35.37013
G1 X87.254 Y92.880 E35.50170
G1 X87.904 Y91.825 E35.63416
G1 X88.641 Y90.828 E35.76662
G1 X89.460 Y89.898 E35.89908
G1 X90.354 Y89.040 E36.03155
G1 X91.319 Y88.262 E36.16401
G1 X92.345 Y87.568 E36.29646
G1 X93.435 Y86.960 E36.42982
G1 X94.556 Y86.453 E36.56139
G1 X95.725 Y86.040 E36.69385
G1 X96.924 Y85.728 E36.82632
G1 X98.146 Y85.519 E36.95878
G1 X99.380 Y85.414 E37.09124
G1 X100.620 Y85.414 E37.22370
G1 X101.846 Y85.518 E37.35527
G1 X103.076 Y85.728 E37.48863 F1800.000
G1 X104.275 Y86.040 E37.62108
G1 X105.444 Y86.453 E37.75355
G1 X106.573 Y86.964 E37.88601
G1 X107.655 Y87.568 E38.01847
G1 X108.681 Y88.262 E38.15093
G1 X109.639 Y89.035 E38.28250
G1 X110.540 Y89.898 E38.41587
G1 X111.359 Y90.828 E38.54832
G1 X112.096 Y91.825 E38.68078
G1 X112.746 Y92.880 E38.81324
G1 X113.300 Y93.979 E38.94481
G1 X113.766 Y95.136 E39.07817
G1 X114.129 Y96.321 E39.21062
G1 X114.390 Y97.533 E39.34308
G1 X114.547 Y98.762 E39.47555
G1 X114.600 Y100.000 E39.60801
G1 X114.547 Y101.238 E39.74047
G1 X114.390 Y102.467 E39.87293
G1 X114.129 Y103.679 E40.00539
G1 X113.766 Y104.864 E40.13786
G1 X113.304 Y106.014 E40.27032
G1 X112.746 Y107.120 E40.40278
G1 X112.096 Y108.175 E40.53524
G1 X111.359 Y109.172 E40.66770
G1 X110.518 Y110.124 E40.80347
G1 X110.088 Y110.063 F4200.000
G1 X111.528 Y96.807 F4200.000
G1 X103.186 Y88.465 E42.07101 F1800.000
G1 X101.871 Y88.166 E42.21589
G1 X111.848 Y98.142 E43.73182
G1 X111.983 Y99.292 E43.85625
G1 X100.713 Y88.022 E45.56876
G1 X99.667 Y87.992 E45.68118
G1 X112.011 Y100.336 E47.55696
G1 X111.958 Y101.299 E47.66052
G1 X98.706 Y88.046 E49.67426
G1 X97.812 Y88.168 E49.77115
G1 X111.840 Y102.196 E51.90270
G1 X111.660 Y103.031 E51.99450
G1 X96.974 Y88.345 E54.22607
G1 X96.183 Y88.568 E54.31444
G1 X111.430 Y103.816 E56.63127
G1 X111.159 Y104.560 E56.71635
G1 X95.432 Y88.833 E59.10595
G1 X94.733 Y89.149 E59.18842
G1 X110.851 Y105.267 E61.63761
G1 X110.510 Y105.942 E61.71881
G1 X94.066 Y89.498 E64.21756
G1 X93.429 Y89.876 E64.29715
G1 X110.124 Y106.570 E66.83387
G1 X109.708 Y107.170 E66.91226
G1 X92.823 Y90.285 E69.47789
G1 X92.259 Y90.737 E69.55550
G1 X109.266 Y107.743 E72.13959
G1 X108.781 Y108.273 E72.21680
G1 X91.727 Y91.219 E74.80821
G1 X91.219 Y91.727 E74.88535
G1 X108.273 Y108.781 E77.47676
G1 X107.741 Y109.263 E77.55399
G1 X90.734 Y92.257 E80.13807
G1 X90.292 Y92.830 E80.21583
G1 X107.176 Y109.715 E82.78146
G1 X106.570 Y110.124 E82.86003
G1 X89.876 Y93.430 E85.39669
G1 X89.489 Y94.058 E85.47597
G1 X105.934 Y110.503 E87.97475
G1 X105.267 Y110.851 E88.05559
G1 X89.149 Y94.733 E90.50477
G1 X88.842 Y95.441 E90.58769
G1 X104.567 Y111.167 E92.97724
G1 X103.817 Y111.432 E93.06273
G1 X88.570 Y96.184 E95.37955
G1 X88.340 Y96.969 E95.46744
G1 X103.026 Y111.655 E97.69895
G1 X102.188 Y111.832 E97.79097
G1 X88.160 Y97.805 E99.92251
G1 X88.042 Y98.702 E100.01972
G1 X101.294 Y111.954 E102.03345
G1 X100.333 Y112.008 E102.13686
G1 X87.989 Y99.664 E104.01255
G1 X88.017 Y100.708 E104.12469
G1 X99.287 Y111.978 E105.83718
G1 X98.129 Y111.835 E105.96258
G1 X88.152 Y101.858 E107.47855
G1 X88.472 Y103.193 E107.62606
G1 X96.814 Y111.535 E108.89357
G1 X95.180 Y110.916 F4200.000
G1 X89.069 Y104.805 E109.82226 F1800.000
G1 X91.073 Y107.824 F4200.000
G1 X92.264 Y109.015 E110.00325 F1800.000
G1 X110.932 Y95.195 F4200.000
G1 X104.819 Y89.083 E110.93198 F1800.000
G1 X107.753 Y91.002 F4200.000
G1 X108.928 Y92.177 E111.11043 F1800.000
G1 Z0.400 F4200.000
G1 E106.61043 F2400.00000
G92 E0
G1 X112.145 Y89.530 F4200.000
G1 E4.50000 F2400.00000
G1 X111.823 Y90.172 E4.57686 F1800.000
G1 X112.788 Y91.434 E4.74665
G1 X113.743 Y89.530 E4.97433
G1 X115.340 Y89.530 E5.14511
G1 X113.656 Y92.890 E5.54692
G1 X114.417 Y94.559 E5.74300
G1 X116.938 Y89.530 E6.34438
G1 X118.536 Y89.530 E6.51515
G1 X115.035 Y96.514 E7.35018
G1 X115.433 Y98.907 E7.60956
G1 X119.043 Y91.704 E8.47074
G1 X119.043 Y94.892 E8.81147
G1 X116.908 Y99.153 E9.32086
G1 X119.043 Y98.080 E9.57628
G1 X118.506 Y99.153 E9.70454
G1 X119.611 Y100.134 F4200.000
G1 X119.914 Y99.530 E9.77685 F1800.000
G1 X121.512 Y99.530 E9.94762
G1 X119.611 Y103.322 E10.40105
G1 X119.611 Y106.510 E10.74178
