; generated by Slic3r 1.2.9 on 2018-11-03 at 10:34:34

; external perimeters extrusion width = 0.40mm
; perimeters extrusion width = 0.67mm
; infill extrusion width = 0.67mm
; solid infill extrusion width = 0.67mm
; top infill extrusion width = 0.67mm
; support material extrusion width = 0.40mm

M107
M190 S55 ; set bed temperature
G21 ;metric values
G90 ;absolute positioning
M107 ;start with the fan off
G28 X0 Y0 ;move X/Y to min endstops
G29
M104 S190 ; set extruder temp
M109 S190 ; wait for extruder temp
G1 Z15.0 F{travel_speed} ;move the platform down 15mm
G1 F{travel_speed}
;Put printing message on LCD screen
M117 Printing...
G21 ; set units to millimeters
G90 ; use absolute coordinates
M82 ; use absolute distances for extrusion
G92 E0
G1 Z0.400 F4200.000
G1 E-4.50000 F2400.00000
G92 E0
G1 X73.158 Y72.698 F4200.000
G1 E4.50000 F2400.00000
G1 X76.058 Y70.100 E4.91618 F1800.000
G1 X76.629 Y69.642 E4.99442
G1 X79.121 Y67.857 E5.32209
G1 X79.639 Y67.521 E5.38809
G1 X81.900 Y66.198 E5.66809
G1 X82.368 Y65.948 E5.72482
G1 X84.477 Y64.928 E5.97521
G1 X84.902 Y64.741 E6.02489
G1 X86.901 Y63.939 E6.25512
G1 X89.227 Y63.165 E6.51711
G1 X91.465 Y62.574 E6.76459
G1 X92.037 Y62.452 E6.82706
G1 X95.525 Y61.869 E7.20502
G1 X96.075 Y61.800 E7.26433
G1 X98.087 Y61.642 E7.48007
G1 X99.711 Y61.591 E7.65367
G1 X101.626 Y61.617 E7.85838
G1 X103.491 Y61.731 E8.05818 F1800.000
G1 X104.018 Y61.787 E8.11473
G1 X106.996 Y62.219 E8.43645
G1 X107.460 Y62.303 E8.48680
G1 X109.181 Y62.684 E8.67528
G1 X110.866 Y63.134 E8.86161
G1 X112.605 Y63.682 E9.05653
G1 X114.231 Y64.293 E9.24223
G1 X115.860 Y64.992 E9.43168
G1 X117.280 Y65.683 E9.60046
G1 X118.898 Y66.525 E9.79550
G1 X120.132 Y67.252 E9.94853
G1 X121.965 Y68.468 E10.18364
G1 X124.284 Y70.216 E10.49408
G1 X125.740 Y71.452 E10.69824
G1 X127.105 Y72.760 E10.90026
G1 X128.360 Y74.080 E11.09497
G1 X128.672 Y74.436 E11.14554
G1 X130.654 Y76.858 E11.48002
G1 X130.952 Y77.251 E11.53277
G1 X132.077 Y78.869 E11.74349
G1 X133.157 Y80.611 E11.96253
G1 X133.994 Y82.129 E12.14781
G1 X135.107 Y84.457 E12.42360
G1 X135.972 Y86.600 E12.67065
G1 X136.616 Y88.502 E12.88527
G1 X136.751 Y88.950 E12.93527
G1 X137.301 Y91.041 E13.16635
G1 X137.405 Y91.504 E13.21715
G1 X137.842 Y93.821 E13.46911
G1 X137.916 Y94.313 E13.52233
G1 X138.209 Y96.916 E13.80231
G1 X138.250 Y97.555 E13.87071
G1 X138.302 Y100.639 E14.20044
G1 X138.268 Y101.440 E14.28610
G1 X137.854 Y105.452 E14.71723
G1 X137.643 Y106.568 E14.83865
G1 X135.638 Y113.756 E15.63634
G1 X135.173 Y114.961 E15.77434
G1 X132.980 Y119.335 E16.29734
G1 X132.296 Y120.425 E16.43490
G1 X127.727 Y126.354 E17.23505
G1 X126.651 Y127.460 E17.39997
G1 X121.248 Y131.864 E18.14499
G1 X120.408 Y132.448 E18.25440
G1 X118.143 Y133.779 E18.53519
G1 X117.669 Y134.033 E18.59258
G1 X115.559 Y135.056 E18.84325
G1 X115.134 Y135.244 E18.89292
G1 X113.134 Y136.047 E19.12338
G1 X112.718 Y136.199 E19.17065
G1 X110.404 Y136.942 E19.43045
G1 X108.568 Y137.418 E19.63321
G1 X106.406 Y137.855 E19.86891
G1 X103.956 Y138.196 E20.13334
G1 X102.288 Y138.336 E20.31226
G1 X100.319 Y138.409 E20.52287
G1 X98.403 Y138.385 E20.72765
G1 X96.537 Y138.272 E20.92752
G1 X94.330 Y138.010 E21.16504
G1 X92.859 Y137.758 E21.32461
G1 X91.127 Y137.390 E21.51387
G1 X89.434 Y136.952 E21.70082
G1 X87.777 Y136.448 E21.88593
G1 X86.068 Y135.825 E22.08029
G1 X84.476 Y135.159 E22.26477
G1 X82.931 Y134.437 E22.44701
G1 X82.532 Y134.232 E22.49505
G1 X80.033 Y132.842 E22.80068
G1 X79.604 Y132.583 E22.85422
G1 X78.172 Y131.633 E23.03790
G1 X76.653 Y130.521 E23.23912
G1 X74.391 Y128.658 E23.55231
G1 X73.991 Y128.301 E23.60969
G1 X72.703 Y127.046 E23.80188
G1 X71.659 Y125.941 E23.96436
G1 X70.442 Y124.537 E24.16298
G1 X70.135 Y124.154 E24.21545
G1 X68.229 Y121.581 E24.55767
G1 X67.939 Y121.157 E24.61262
G1 X67.050 Y119.742 E24.79117
G1 X66.764 Y119.240 E24.85301
G1 X65.146 Y116.093 E25.23125
G1 X64.906 Y115.573 E25.29243
G1 X64.043 Y113.437 E25.53867
G1 X63.396 Y111.540 E25.75291
G1 X63.259 Y111.087 E25.80352
G1 X62.708 Y108.999 E26.03436
G1 X62.559 Y108.277 E26.11317
G1 X61.826 Y103.364 E26.64407
G1 X61.754 Y102.497 E26.73706
G1 X61.697 Y99.423 E27.06571
G1 X61.723 Y98.693 E27.14377
G1 X62.075 Y94.803 E27.56133
G1 X62.291 Y93.619 E27.68997
G1 X64.257 Y86.507 E28.47863
G1 X64.726 Y85.288 E28.61822
G1 X67.135 Y80.482 E29.19289
G1 X67.836 Y79.371 E29.33333
G1 X72.336 Y73.579 E30.11728
G1 X73.117 Y72.742 E30.23959
G1 E25.73959 F2400.00000
G92 E0
G1 X108.992 Y108.618 F4200.000
G1 E4.50000 F2400.00000
G1 X108.229 Y109.350 E4.61301 F1800.000
G1 X107.408 Y110.013 E4.72579
G1 X106.510 Y110.617 E4.84150
G1 X105.607 Y111.122 E4.95201
G1 X104.644 Y111.557 E5.06502
G1 X103.647 Y111.909 E5.17803
G1 X102.624 Y112.176 E5.29103
G1 X101.582 Y112.354 E5.40404
G1 X100.529 Y112.444 E5.51704
G1 X99.471 Y112.444 E5.63005
G1 X98.418 Y112.354 E5.74305
G1 X97.376 Y112.176 E5.85606
G1 X96.353 Y111.909 E5.96907
G1 X95.356 Y111.557 E6.08207
G1 X94.393 Y111.122 E6.19508
G1 X93.470 Y110.606 E6.30808
G1 X92.594 Y110.014 E6.42109
G1 X91.771 Y109.350 E6.53410
G1 X91.008 Y108.618 E6.64710
G1 X90.309 Y107.825 E6.76011
G1 X89.681 Y106.975 E6.87311
G1 X89.126 Y106.074 E6.98612
G1 X88.650 Y105.130 E7.09913
G1 X88.256 Y104.149 E7.21213
G1 X87.947 Y103.138 E7.32514
G1 X87.724 Y102.105 E7.43814
G1 X87.590 Y101.056 E7.55115
G1 X87.545 Y100.000 E7.66415
G1 X87.590 Y98.944 E7.77716
G1 X87.724 Y97.895 E7.89017
G1 X87.947 Y96.862 E8.00317
G1 X88.256 Y95.851 E8.11618
G1 X88.650 Y94.870 E8.22918
G1 X89.116 Y93.946 E8.33969
G1 X89.682 Y93.024 E8.45541
G1 X90.309 Y92.175 E8.56819
G1 X91.008 Y91.382 E8.68120
G1 X91.771 Y90.650 E8.79420
G1 X92.594 Y89.986 E8.90721
G1 X93.470 Y89.394 E9.02022
G1 X94.393 Y88.878 E9.13322
G1 X95.335 Y88.453 E9.24373
G1 X96.355 Y88.090 E9.35945
G1 X97.376 Y87.824 E9.47223
G1 X98.418 Y87.646 E9.58524
G1 X99.471 Y87.556 E9.69824
G1 X100.529 Y87.556 E9.81125
G1 X101.559 Y87.644 E9.92176
G1 X102.626 Y87.825 E10.03748 F1800.000
G1 X103.647 Y88.091 E10.15025
G1 X104.644 Y88.443 E10.26326
G1 X105.607 Y88.878 E10.37627
G1 X106.530 Y89.394 E10.48927
G1 X107.406 Y89.986 E10.60228
G1 X108.211 Y90.636 E10.71279
G1 X108.994 Y91.383 E10.82851
G1 X109.691 Y92.175 E10.94129
G1 X110.319 Y93.025 E11.05429
G1 X110.874 Y93.926 E11.16730
G1 X111.350 Y94.870 E11.28030
G1 X111.744 Y95.851 E11.39331
G1 X112.046 Y96.839 E11.50382
G1 X112.276 Y97.897 E11.61954
G1 X112.410 Y98.944 E11.73232
G1 X112.455 Y100.000 E11.84532
G1 X112.410 Y101.056 E11.95833
G1 X112.276 Y102.105 E12.07134
G1 X112.053 Y103.138 E12.18434
G1 X111.744 Y104.149 E12.29735
G1 X111.350 Y105.130 E12.41035
G1 X110.874 Y106.074 E12.52336
G1 X110.319 Y106.975 E12.63637
G1 X109.691 Y107.825 E12.74937
G1 X109.032 Y108.573 E12.85596
G1 X109.528 Y109.090 F4200.000
G1 X108.701 Y109.886 E12.97869 F1800.000
G1 X107.833 Y110.588 E13.09801
G1 X106.884 Y111.226 E13.22022
G1 X105.929 Y111.760 E13.33715
G1 X104.911 Y112.220 E13.45664
G1 X103.856 Y112.593 E13.57613
G1 X102.775 Y112.874 E13.69562
G1 X101.673 Y113.063 E13.81512
G1 X100.559 Y113.158 E13.93461
G1 X99.441 Y113.158 E14.05410
G1 X98.327 Y113.063 E14.17359
G1 X97.225 Y112.874 E14.29308
G1 X96.144 Y112.593 E14.41257
G1 X95.089 Y112.220 E14.53206
G1 X94.071 Y111.760 E14.65155
G1 X93.095 Y111.215 E14.77105
G1 X92.169 Y110.589 E14.89054
G1 X91.299 Y109.886 E15.01003
G1 X90.492 Y109.113 E15.12952
G1 X89.753 Y108.274 E15.24901
G1 X89.088 Y107.375 E15.36850
G1 X88.502 Y106.423 E15.48799
G1 X87.999 Y105.425 E15.60748
G1 X87.582 Y104.387 E15.72698
G1 X87.255 Y103.319 E15.84647
G1 X87.019 Y102.226 E15.96596
G1 X86.877 Y101.117 E16.08545
G1 X86.830 Y100.000 E16.20494
G1 X86.877 Y98.883 E16.32443
G1 X87.019 Y97.774 E16.44392
G1 X87.255 Y96.681 E16.56341
G1 X87.582 Y95.613 E16.68291
G1 X87.999 Y94.575 E16.80240
G1 X88.492 Y93.598 E16.91933
G1 X89.089 Y92.624 E17.04153
G1 X89.753 Y91.726 E17.16086
G1 X90.492 Y90.887 E17.28035
G1 X91.299 Y90.114 E17.39984
G1 X92.169 Y89.411 E17.51934
G1 X93.095 Y88.785 E17.63883
G1 X94.071 Y88.240 E17.75832
G1 X95.068 Y87.790 E17.87525
G1 X96.145 Y87.407 E17.99745
G1 X97.225 Y87.126 E18.11678
G1 X98.327 Y86.937 E18.23627
G1 X99.441 Y86.842 E18.35576
G1 X100.559 Y86.842 E18.47526
G1 X101.649 Y86.935 E18.59219
G1 X102.776 Y87.126 E18.71439 F1800.000
G1 X103.856 Y87.407 E18.83372
G1 X104.911 Y87.780 E18.95321
G1 X105.929 Y88.240 E19.07270
G1 X106.905 Y88.785 E19.19219
G1 X107.831 Y89.411 E19.31168
G1 X108.682 Y90.099 E19.42862
G1 X109.509 Y90.888 E19.55082
G1 X110.247 Y91.726 E19.67015
G1 X110.911 Y92.625 E19.78964
G1 X111.498 Y93.577 E19.90913
G1 X112.001 Y94.575 E20.02862
G1 X112.418 Y95.613 E20.14811
G1 X112.738 Y96.659 E20.26505
G1 X112.981 Y97.776 E20.38725
G1 X113.123 Y98.883 E20.50658
G1 X113.170 Y100.000 E20.62607
G1 X113.123 Y101.117 E20.74556
G1 X112.981 Y102.226 E20.86505
G1 X112.745 Y103.319 E20.98454
G1 X112.418 Y104.387 E21.10403
G1 X112.001 Y105.425 E21.22353
G1 X111.498 Y106.423 E21.34302
G1 X110.911 Y107.375 E21.46251
G1 X110.247 Y108.274 E21.58200
G1 X109.568 Y109.045 E21.69184
G1 X110.064 Y109.562 F4200.000
G1 X109.173 Y110.423 E21.82428 F1800.000
G1 X108.257 Y111.163 E21.95015
G1 X107.258 Y111.835 E22.07884
G1 X106.251 Y112.398 E22.20220
G1 X105.177 Y112.884 E22.32817
G1 X104.066 Y113.276 E22.45415
G1 X102.925 Y113.573 E22.58013
G1 X101.764 Y113.772 E22.70610
G1 X100.589 Y113.872 E22.83208
G1 X99.411 Y113.872 E22.95806
G1 X98.236 Y113.772 E23.08403
G1 X97.075 Y113.573 E23.21001
G1 X95.934 Y113.276 E23.33599
G1 X94.823 Y112.884 E23.46196
G1 X93.749 Y112.398 E23.58794
G1 X92.720 Y111.823 E23.71392
G1 X91.744 Y111.163 E23.83989
G1 X90.827 Y110.423 E23.96587
G1 X89.976 Y109.607 E24.09184
G1 X89.197 Y108.723 E24.21782
G1 X88.496 Y107.775 E24.34380
G1 X87.878 Y106.772 E24.46978
G1 X87.348 Y105.719 E24.59575
G1 X86.908 Y104.626 E24.72173
G1 X86.563 Y103.499 E24.84770
G1 X86.315 Y102.347 E24.97368
G1 X86.165 Y101.178 E25.09966
G1 X86.115 Y100.000 E25.22563
G1 X86.165 Y98.822 E25.35161
G1 X86.315 Y97.653 E25.47759
G1 X86.563 Y96.501 E25.60356
G1 X86.908 Y95.374 E25.72954
G1 X87.348 Y94.281 E25.85552
G1 X87.867 Y93.250 E25.97887
G1 X88.497 Y92.224 E26.10756
G1 X89.197 Y91.277 E26.23344
G1 X89.976 Y90.393 E26.35942
G1 X90.827 Y89.577 E26.48539
G1 X91.744 Y88.837 E26.61137
G1 X92.720 Y88.177 E26.73735
G1 X93.749 Y87.602 E26.86332
G1 X94.801 Y87.127 E26.98668
G1 X95.935 Y86.724 E27.11536
G1 X97.075 Y86.427 E27.24124
G1 X98.236 Y86.228 E27.36722
G1 X99.411 Y86.128 E27.49320
G1 X100.589 Y86.128 E27.61917
G1 X101.739 Y86.226 E27.74253
G1 X102.926 Y86.427 E27.87121 F1800.000
G1 X104.066 Y86.724 E27.99709
G1 X105.177 Y87.116 E28.12307
G1 X106.251 Y87.602 E28.24905
G1 X107.280 Y88.177 E28.37502
G1 X108.256 Y88.837 E28.50100
G1 X109.154 Y89.562 E28.62435
G1 X110.025 Y90.393 E28.75304
G1 X110.803 Y91.277 E28.87892
G1 X111.504 Y92.225 E29.00490
G1 X112.122 Y93.228 E29.13087
G1 X112.652 Y94.281 E29.25685
G1 X113.092 Y95.374 E29.38283
G1 X113.430 Y96.478 E29.50618
G1 X113.685 Y97.654 E29.63487
G1 X113.835 Y98.822 E29.76075
G1 X113.885 Y100.000 E29.88672
G1 X113.835 Y101.178 E30.01270
G1 X113.685 Y102.347 E30.13868
G1 X113.437 Y103.499 E30.26465
G1 X113.092 Y104.626 E30.39063
G1 X112.652 Y105.719 E30.51661
G1 X112.122 Y106.772 E30.64258
G1 X111.504 Y107.775 E30.76856
G1 X110.803 Y108.723 E30.89454
G1 X110.104 Y109.517 E31.00761
G1 X110.600 Y110.034 F4200.000
G1 X109.646 Y110.960 E31.14977 F1800.000
G1 X108.682 Y111.738 E31.28220
G1 X107.633 Y112.444 E31.41737
G1 X106.573 Y113.036 E31.54715
G1 X105.444 Y113.547 E31.67961
G1 X104.275 Y113.960 E31.81207
G1 X103.076 Y114.272 E31.94453
G1 X101.854 Y114.481 E32.07700
G1 X100.620 Y114.586 E32.20946
G1 X99.380 Y114.586 E32.34192
G1 X98.146 Y114.481 E32.47438
G1 X96.924 Y114.272 E32.60684
G1 X95.725 Y113.960 E32.73931
G1 X94.556 Y113.547 E32.87177
G1 X93.427 Y113.036 E33.00423
G1 X92.345 Y112.432 E33.13669
G1 X91.319 Y111.738 E33.26915
G1 X90.354 Y110.960 E33.40162
G1 X89.460 Y110.102 E33.53408
G1 X88.641 Y109.172 E33.66654
G1 X87.904 Y108.175 E33.79900
G1 X87.254 Y107.120 E33.93146
G1 X86.696 Y106.014 E34.06393
G1 X86.234 Y104.864 E34.19639
G1 X85.871 Y103.679 E34.32885
G1 X85.610 Y102.467 E34.46131
G1 X85.453 Y101.238 E34.59377
G1 X85.400 Y100.000 E34.72624
G1 X85.453 Y98.762 E34.85870
G1 X85.610 Y97.533 E34.99116
G1 X85.871 Y96.321 E35.12362
G1 X86.234 Y95.136 E35.25608
G1 X86.696 Y93.986 E35.38855
G1 X87.243 Y92.902 E35.51832
G1 X87.904 Y91.824 E35.65350
G1 X88.641 Y90.828 E35.78592
G1 X89.460 Y89.898 E35.91839
G1 X90.354 Y89.040 E36.05085
G1 X91.319 Y88.262 E36.18331
G1 X92.345 Y87.568 E36.31577
G1 X93.427 Y86.964 E36.44823
G1 X94.534 Y86.464 E36.57801
G1 X95.725 Y86.040 E36.71318
G1 X96.924 Y85.728 E36.84561
G1 X98.146 Y85.519 E36.97807
G1 X99.380 Y85.414 E37.11053
G1 X100.620 Y85.414 E37.24300
G1 X101.829 Y85.516 E37.37277
G1 X103.076 Y85.728 E37.50795 F1800.000
G1 X104.275 Y86.040 E37.64037
G1 X105.444 Y86.453 E37.77283
G1 X106.573 Y86.964 E37.90530
G1 X107.655 Y87.568 E38.03776
G1 X108.681 Y88.262 E38.17022
G1 X109.626 Y89.025 E38.30000
G1 X110.541 Y89.898 E38.43517
G1 X111.359 Y90.828 E38.56760
G1 X112.096 Y91.825 E38.70006
G1 X112.746 Y92.880 E38.83252
G1 X113.304 Y93.986 E38.96498
G1 X113.766 Y95.136 E39.09745
G1 X114.121 Y96.297 E39.22722
G1 X114.390 Y97.533 E39.36240
G1 X114.547 Y98.762 E39.49482
G1 X114.600 Y100.000 E39.62728
G1 X114.547 Y101.238 E39.75975
G1 X114.390 Y102.467 E39.89221
G1 X114.129 Y103.679 E40.02467
G1 X113.766 Y104.864 E40.15713
G1 X113.304 Y106.014 E40.28959
G1 X112.746 Y107.120 E40.42206
G1 X112.096 Y108.175 E40.55452
G1 X111.359 Y109.172 E40.68698
G1 X110.640 Y109.989 E40.80330
G1 X110.213 Y109.934 F4200.000
G1 X111.528 Y96.807 F4200.000
G1 X103.186 Y88.465 E42.07088 F1800.000
G1 X101.872 Y88.166 E42.21565
G1 X111.847 Y98.142 E43.73142
G1 X111.983 Y99.292 E43.85589
G1 X100.712 Y88.022 E45.56841
G1 X99.666 Y87.992 E45.68083
G1 X112.011 Y100.336 E47.55663
G1 X111.958 Y101.299 E47.66018
G1 X98.706 Y88.046 E49.67393
G1 X97.812 Y88.168 E49.77082
G1 X111.840 Y102.196 E51.90237
G1 X111.660 Y103.031 E51.99417
G1 X96.974 Y88.345 E54.22574
G1 X96.183 Y88.569 E54.31407
G1 X111.430 Y103.816 E56.63083
G1 X111.159 Y104.560 E56.71591
G1 X95.434 Y88.835 E59.10528
G1 X94.733 Y89.149 E59.18784
G1 X110.851 Y105.267 E61.63702
G1 X110.510 Y105.942 E61.71822
G1 X94.066 Y89.497 E64.21700
G1 X93.429 Y89.876 E64.29658
G1 X110.124 Y106.570 E66.83329
G1 X109.708 Y107.170 E66.91168
G1 X92.823 Y90.285 E69.47730
G1 X92.259 Y90.737 E69.55491
G1 X109.265 Y107.743 E72.13898
G1 X108.781 Y108.273 E72.21620
G1 X91.727 Y91.219 E74.80760
G1 X91.219 Y91.727 E74.88473
G1 X108.273 Y108.781 E77.47613
G1 X107.740 Y109.263 E77.55336
G1 X90.734 Y92.257 E80.13743
G1 X90.292 Y92.830 E80.21519
G1 X107.176 Y109.714 E82.78078
G1 X106.570 Y110.123 E82.85936
G1 X89.877 Y93.430 E85.39583
G1 X89.491 Y94.059 E85.47514
G1 X105.934 Y110.503 E87.97370
G1 X105.267 Y110.851 E88.05454
G1 X89.149 Y94.733 E90.50370
G1 X88.841 Y95.440 E90.58661
G1 X104.567 Y111.167 E92.97618
G1 X103.817 Y111.432 E93.06167
G1 X88.570 Y96.184 E95.37848
G1 X88.340 Y96.969 E95.46637
G1 X103.026 Y111.655 E97.69791
G1 X102.188 Y111.832 E97.78996
G1 X88.160 Y97.805 E99.92149
G1 X88.042 Y98.702 E100.01870
G1 X101.294 Y111.954 E102.03242
G1 X100.333 Y112.008 E102.13582
G1 X87.989 Y99.664 E104.01158
G1 X88.017 Y100.708 E104.12378
G1 X99.287 Y111.978 E105.83626
G1 X98.129 Y111.835 E105.96165
G1 X88.152 Y101.858 E107.47761
G1 X88.472 Y103.193 E107.62512
G1 X96.814 Y111.535 E108.89262
G1 X95.180 Y110.916 F4200.000
G1 X89.069 Y104.805 E109.82131 F1800.000
G1 X91.073 Y107.824 F4200.000
G1 X92.264 Y109.015 E110.00229 F1800.000
G1 X110.932 Y95.196 F4200.000
G1 X104.819 Y89.083 E110.93108 F1800.000
G1 X107.786 Y91.035 F4200.000
G1 X108.929 Y92.178 E111.10479 F1800.000
G1 Z0.400 F4200.000
G1 E106.60479 F2400.00000
G92 E0
G1 X113.398 Y92.418 F4200.000
G1 E4.50000 F2400.00000
G1 X114.265 Y90.688 E4.70685 F1800.000
G1 X112.493 Y91.035 E4.89984
G1 X114.265 Y87.500 E5.32251
G1 X114.045 Y84.752 E5.61724
G1 X111.508 Y89.814 E6.22255
G1 X110.450 Y88.737 E6.38392
G1 X112.447 Y84.752 E6.86046
G1 X110.850 Y84.752 E7.03123
G1 X109.326 Y87.792 E7.39473
