; generated by Slic3r 1.2.9 on 2018-11-04 at 18:04:03

; external perimeters extrusion width = 0.40mm
; perimeters extrusion width = 0.67mm
; infill extrusion width = 0.67mm
; solid infill extrusion width = 0.67mm
; top infill extrusion width = 0.67mm
; support material extrusion width = 0.40mm

M107
M190 S55 ; set bed temperature
G21 ;metric values
G90 ;absolute positioning
M107 ;start with the fan off
G28 X0 Y0 ;move X/Y to min endstops
G29
M104 S190 ; set extruder temp
M109 S190 ; wait for extruder temp
G1 Z15.0 F{travel_speed} ;move the platform down 15mm
G1 F{travel_speed}
;Put printing message on LCD screen
M117 Printing...
G21 ; set units to millimeters
G90 ; use absolute coordinates
M82 ; use absolute distances for extrusion
G92 E0
G1 Z0.400 F4200.000
G1 E-4.50000 F2400.00000
G92 E0
G1 X77.385 Y77.769 F4200.000
G1 E4.50000 F2400.00000
G1 X78.742 Y76.468 E4.70094 F1800.000
G1 X80.173 Y75.250 E4.90182
G1 X81.351 Y74.351 E5.06021
G1 X82.904 Y73.291 E5.26110
G1 X84.516 Y72.325 E5.46203
G1 X86.182 Y71.457 E5.66289
G1 X88.266 Y70.539 E5.90629
G1 X90.032 Y69.895 E6.10718
G1 X91.833 Y69.358 E6.30805
G1 X93.663 Y68.928 E6.50893
G1 X95.121 Y68.666 E6.66734
G1 X97.382 Y68.396 E6.91074
G1 X99.259 Y68.297 E7.11164
G1 X101.138 Y68.309 E7.31249
G1 X103.013 Y68.432 E7.51336 F1800.000
G1 X104.485 Y68.607 E7.67179
G1 X106.337 Y68.928 E7.87272
G1 X108.551 Y69.463 E8.11609
G1 X110.345 Y70.023 E8.31698
G1 X111.734 Y70.539 E8.47540
G1 X113.818 Y71.457 E8.71876
G1 X115.484 Y72.325 E8.91965
G1 X116.760 Y73.079 E9.07803
G1 X118.649 Y74.351 E9.32143
G1 X119.827 Y75.250 E9.47985
G1 X121.258 Y76.468 E9.68070
G1 X122.892 Y78.054 E9.92410
G1 X124.161 Y79.460 E10.12654
G1 X125.327 Y80.916 E10.32588
G1 X126.191 Y82.120 E10.48433
G1 X127.406 Y84.045 E10.72766
G1 X128.121 Y85.343 E10.88603
G1 X128.940 Y87.034 E11.08692
G1 X129.796 Y89.145 E11.33033
G1 X130.387 Y90.929 E11.53122
G1 X130.778 Y92.359 E11.68969
G1 X131.246 Y94.586 E11.93294
G1 X131.512 Y96.447 E12.13389
G1 X131.667 Y98.320 E12.33474
G1 X131.711 Y99.801 E12.49316
G1 X131.644 Y102.077 E12.73656
G1 X131.512 Y103.553 E12.89493
G1 X131.246 Y105.414 E13.09583
G1 X130.777 Y107.642 E13.33920
G1 X130.271 Y109.452 E13.54009
G1 X129.796 Y110.855 E13.69850
G1 X128.940 Y112.966 E13.94190
G1 X128.122 Y114.657 E14.14270
G1 X127.406 Y115.955 E14.30116
G1 X126.190 Y117.880 E14.54457
G1 X125.327 Y119.084 E14.70294
G1 X124.151 Y120.551 E14.90383
G1 X122.614 Y122.231 E15.14724
G1 X121.551 Y123.264 E15.30566
G1 X120.147 Y124.489 E15.50492
G1 X118.649 Y125.649 E15.70739
G1 X116.760 Y126.921 E15.95080
G1 X115.136 Y127.867 E16.15168
G1 X113.817 Y128.543 E16.31008
G1 X111.734 Y129.461 E16.55346
G1 X110.345 Y129.977 E16.71184
G1 X108.551 Y130.537 E16.91273
G1 X106.726 Y130.990 E17.11367
G1 X104.485 Y131.393 E17.35703
G1 X102.618 Y131.604 E17.55792
G1 X101.138 Y131.691 E17.71637
G1 X98.861 Y131.691 E17.95970
G1 X97.382 Y131.604 E18.11807
G1 X95.515 Y131.393 E18.31896
G1 X93.273 Y130.990 E18.56237
G1 X91.449 Y130.537 E18.76326
G1 X90.032 Y130.105 E18.92164
G1 X87.898 Y129.312 E19.16500
G1 X86.170 Y128.537 E19.36743
G1 X84.516 Y127.675 E19.56682
G1 X83.240 Y126.921 E19.72519
G1 X81.351 Y125.649 E19.96859
G1 X79.865 Y124.499 E20.16946
G1 X78.742 Y123.532 E20.32786
G1 X77.108 Y121.946 E20.57125
G1 X75.849 Y120.551 E20.77210
G1 X74.915 Y119.401 E20.93053
G1 X73.588 Y117.551 E21.17389
G1 X72.796 Y116.297 E21.33231
G1 X71.879 Y114.657 E21.53320
G1 X70.899 Y112.601 E21.77660
G1 X70.343 Y111.228 E21.93498
G1 X69.729 Y109.452 E22.13587
G1 X69.129 Y107.256 E22.37922
G1 X68.754 Y105.414 E22.58010
G1 X68.535 Y103.948 E22.73854
G1 X68.333 Y101.680 E22.98190
G1 X68.289 Y99.786 E23.18441
G1 X68.356 Y97.923 E23.38365
G1 X68.488 Y96.447 E23.54210
G1 X68.754 Y94.586 E23.74299
G1 X69.223 Y92.358 E23.98639
G1 X69.729 Y90.548 E24.18726
G1 X70.204 Y89.145 E24.34566
G1 X71.060 Y87.034 E24.58906
G1 X71.879 Y85.343 E24.78993
G1 X72.594 Y84.045 E24.94833
G1 X73.810 Y82.120 E25.19173
G1 X74.673 Y80.916 E25.35010
G1 X75.849 Y79.449 E25.55100
G1 X77.343 Y77.812 E25.78794
G1 E21.28794 F2400.00000
G92 E0
G1 X114.173 Y114.173 F4200.000
G1 E4.50000 F2400.00000
G1 X113.126 Y115.148 E4.65294 F1800.000
G1 X112.012 Y116.046 E4.80588
G1 X110.836 Y116.863 E4.95895
G1 X109.590 Y117.600 E5.11367
G1 X108.327 Y118.233 E5.26470
G1 X107.005 Y118.780 E5.41764
G1 X105.647 Y119.232 E5.57058
G1 X104.261 Y119.586 E5.72352
G1 X102.853 Y119.840 E5.87646
G1 X101.430 Y119.993 E6.02940
G1 X100.000 Y120.044 E6.18234
G1 X98.570 Y119.993 E6.33528
G1 X97.147 Y119.840 E6.48822
G1 X95.739 Y119.586 E6.64116
G1 X94.353 Y119.232 E6.79411
G1 X92.995 Y118.780 E6.94705
G1 X91.673 Y118.233 E7.09999
G1 X90.394 Y117.592 E7.25293
G1 X89.163 Y116.862 E7.40587
G1 X87.988 Y116.046 E7.55881
G1 X86.874 Y115.148 E7.71175
G1 X85.827 Y114.173 E7.86469
G1 X84.852 Y113.126 E8.01763
G1 X83.954 Y112.012 E8.17057
G1 X83.137 Y110.836 E8.32364
G1 X82.400 Y109.590 E8.47836
G1 X81.767 Y108.327 E8.62939
G1 X81.220 Y107.005 E8.78233
G1 X80.767 Y105.646 E8.93540
G1 X80.411 Y104.243 E9.09012
G1 X80.160 Y102.853 E9.24115
G1 X80.007 Y101.429 E9.39422
G1 X79.957 Y99.982 E9.54893
G1 X80.007 Y98.570 E9.69997
G1 X80.160 Y97.147 E9.85291
G1 X80.414 Y95.739 E10.00585
G1 X80.768 Y94.353 E10.15879
G1 X81.220 Y92.995 E10.31173
G1 X81.768 Y91.672 E10.46480
G1 X82.417 Y90.379 E10.61951
G1 X83.138 Y89.163 E10.77055
G1 X83.954 Y87.988 E10.92349
G1 X84.852 Y86.873 E11.07656
G1 X85.840 Y85.815 E11.23127
G1 X86.874 Y84.852 E11.38230
G1 X87.988 Y83.954 E11.53525
G1 X89.163 Y83.138 E11.68819
G1 X90.394 Y82.408 E11.84113
G1 X91.673 Y81.767 E11.99407
G1 X92.995 Y81.220 E12.14701
G1 X94.353 Y80.768 E12.29995
G1 X95.739 Y80.414 E12.45289
G1 X97.149 Y80.160 E12.60596
G1 X98.588 Y80.006 E12.76067
G1 X100.000 Y79.956 E12.91171 F1800.000
G1 X101.430 Y80.007 E13.06465
G1 X102.853 Y80.160 E13.21759
G1 X104.261 Y80.414 E13.37053
G1 X105.647 Y80.768 E13.52347
G1 X107.006 Y81.220 E13.67654
G1 X108.343 Y81.775 E13.83126
G1 X109.606 Y82.408 E13.98229
G1 X110.837 Y83.138 E14.13523
G1 X112.012 Y83.954 E14.28817
G1 X113.126 Y84.852 E14.44111
G1 X114.173 Y85.827 E14.59405
G1 X115.148 Y86.874 E14.74699
G1 X116.046 Y87.988 E14.89993
G1 X116.863 Y89.164 E15.05300
G1 X117.600 Y90.410 E15.20772
G1 X118.233 Y91.673 E15.35875
G1 X118.780 Y92.995 E15.51169
G1 X119.232 Y94.353 E15.66463
G1 X119.586 Y95.739 E15.81757
G1 X119.840 Y97.147 E15.97051
G1 X119.993 Y98.570 E16.12345
G1 X120.044 Y100.000 E16.27639
G1 X119.994 Y101.412 E16.42743
G1 X119.840 Y102.851 E16.58214
G1 X119.586 Y104.262 E16.73534
G1 X119.227 Y105.664 E16.89006
G1 X118.780 Y107.005 E17.04109
G1 X118.233 Y108.327 E17.19403
G1 X117.592 Y109.606 E17.34697
G1 X116.862 Y110.837 E17.49991
G1 X116.046 Y112.012 E17.65285
G1 X115.148 Y113.126 E17.80579
G1 X114.214 Y114.129 E17.95232
G1 X113.668 Y113.668 F4200.000
G1 X112.658 Y114.608 E18.09981 F1800.000
G1 X111.584 Y115.474 E18.24730
G1 X110.450 Y116.261 E18.39488
G1 X109.248 Y116.973 E18.54414
G1 X108.030 Y117.583 E18.68976
G1 X106.755 Y118.111 E18.83724
G1 X105.446 Y118.547 E18.98473
G1 X104.109 Y118.888 E19.13222
G1 X102.751 Y119.133 E19.27971
G1 X101.379 Y119.280 E19.42720
G1 X100.000 Y119.329 E19.57468
G1 X98.621 Y119.280 E19.72217
G1 X97.249 Y119.133 E19.86966
G1 X95.891 Y118.888 E20.01715
G1 X94.554 Y118.547 E20.16464
G1 X93.245 Y118.111 E20.31212
G1 X91.970 Y117.583 E20.45961
G1 X90.736 Y116.965 E20.60710
G1 X89.550 Y116.261 E20.75459
G1 X88.416 Y115.474 E20.90208
G1 X87.342 Y114.608 E21.04956
G1 X86.332 Y113.668 E21.19705
G1 X85.392 Y112.658 E21.34454
G1 X84.526 Y111.584 E21.49203
G1 X83.739 Y110.450 E21.63961
G1 X83.027 Y109.248 E21.78887
G1 X82.417 Y108.030 E21.93449
G1 X81.889 Y106.755 E22.08198
G1 X81.453 Y105.445 E22.22956
G1 X81.109 Y104.092 E22.37882
G1 X80.867 Y102.751 E22.52444
G1 X80.720 Y101.378 E22.67202
G1 X80.671 Y99.982 E22.82128
G1 X80.720 Y98.621 E22.96690
G1 X80.867 Y97.249 E23.11438
G1 X81.112 Y95.891 E23.26187
G1 X81.453 Y94.554 E23.40936
G1 X81.889 Y93.245 E23.55685
G1 X82.418 Y91.969 E23.70443
G1 X83.044 Y90.721 E23.85369
G1 X83.739 Y89.550 E23.99931
G1 X84.526 Y88.416 E24.14680
G1 X85.392 Y87.341 E24.29438
G1 X86.345 Y86.320 E24.44364
G1 X87.342 Y85.392 E24.58926
G1 X88.416 Y84.526 E24.73674
G1 X89.550 Y83.739 E24.88423
G1 X90.736 Y83.035 E25.03172
G1 X91.970 Y82.417 E25.17921
G1 X93.245 Y81.889 E25.32670
G1 X94.554 Y81.453 E25.47418
G1 X95.891 Y81.112 E25.62167
G1 X97.250 Y80.867 E25.76925
G1 X98.639 Y80.719 E25.91852
G1 X100.000 Y80.671 E26.06413 F1800.000
G1 X101.379 Y80.720 E26.21162
G1 X102.751 Y80.867 E26.35911
G1 X104.109 Y81.112 E26.50660
G1 X105.446 Y81.453 E26.65408
G1 X106.756 Y81.890 E26.80166
G1 X108.045 Y82.425 E26.95093
G1 X109.264 Y83.035 E27.09654
G1 X110.450 Y83.739 E27.24403
G1 X111.584 Y84.526 E27.39152
G1 X112.658 Y85.392 E27.53901
G1 X113.668 Y86.332 E27.68650
G1 X114.608 Y87.342 E27.83398
G1 X115.474 Y88.416 E27.98147
G1 X116.261 Y89.550 E28.12905
G1 X116.973 Y90.752 E28.27832
G1 X117.583 Y91.970 E28.42393
G1 X118.111 Y93.245 E28.57142
G1 X118.547 Y94.554 E28.71891
G1 X118.888 Y95.891 E28.86640
G1 X119.133 Y97.249 E29.01388
G1 X119.280 Y98.621 E29.16137
G1 X119.329 Y100.000 E29.30886
G1 X119.281 Y101.361 E29.45448
G1 X119.133 Y102.750 E29.60374
G1 X118.888 Y104.110 E29.75141
G1 X118.541 Y105.462 E29.90068
G1 X118.111 Y106.755 E30.04629
G1 X117.583 Y108.030 E30.19378
G1 X116.965 Y109.264 E30.34127
G1 X116.261 Y110.450 E30.48875
G1 X115.474 Y111.584 E30.63624
G1 X114.608 Y112.658 E30.78373
G1 X113.709 Y113.624 E30.92481
G1 X113.163 Y113.163 F4200.000
G1 X112.190 Y114.068 E31.06684 F1800.000
G1 X111.155 Y114.902 E31.20888
G1 X110.064 Y115.660 E31.35097
G1 X108.906 Y116.346 E31.49478
G1 X107.733 Y116.933 E31.63498
G1 X106.505 Y117.441 E31.77701
G1 X105.244 Y117.861 E31.91905
G1 X103.957 Y118.189 E32.06108
G1 X102.649 Y118.425 E32.20312
G1 X101.328 Y118.567 E32.34516
G1 X100.000 Y118.615 E32.48719
G1 X98.672 Y118.567 E32.62923
G1 X97.351 Y118.425 E32.77126
G1 X96.043 Y118.189 E32.91330
G1 X94.756 Y117.861 E33.05533
G1 X93.495 Y117.441 E33.19737
G1 X92.267 Y116.933 E33.33940
G1 X91.079 Y116.338 E33.48144
G1 X89.936 Y115.660 E33.62347
G1 X88.845 Y114.902 E33.76551
G1 X87.810 Y114.068 E33.90754
G1 X86.837 Y113.163 E34.04958
G1 X85.932 Y112.190 E34.19162
G1 X85.098 Y111.155 E34.33365
G1 X84.340 Y110.064 E34.47574
G1 X83.654 Y108.906 E34.61955
G1 X83.067 Y107.733 E34.75975
G1 X82.559 Y106.505 E34.90179
G1 X82.139 Y105.244 E35.04388
G1 X81.807 Y103.940 E35.18769
G1 X81.575 Y102.649 E35.32789
G1 X81.433 Y101.327 E35.46998
G1 X81.386 Y99.983 E35.61379
G1 X81.433 Y98.672 E35.75399
G1 X81.575 Y97.351 E35.89603
G1 X81.811 Y96.043 E36.03806
G1 X82.139 Y94.756 E36.18010
G1 X82.559 Y93.495 E36.32213
G1 X83.068 Y92.267 E36.46422
G1 X83.671 Y91.064 E36.60804
G1 X84.340 Y89.936 E36.74823
G1 X85.098 Y88.845 E36.89027
G1 X85.932 Y87.809 E37.03236
G1 X86.850 Y86.826 E37.17617
G1 X87.810 Y85.932 E37.31637
G1 X88.845 Y85.098 E37.45841
G1 X89.936 Y84.340 E37.60044
G1 X91.079 Y83.662 E37.74248
G1 X92.267 Y83.067 E37.88451
G1 X93.495 Y82.559 E38.02655
G1 X94.756 Y82.139 E38.16858
G1 X96.043 Y81.811 E38.31062
G1 X97.351 Y81.575 E38.45271
G1 X98.689 Y81.432 E38.59652
G1 X100.000 Y81.385 E38.73672 F1800.000
G1 X101.328 Y81.433 E38.87876
G1 X102.649 Y81.575 E39.02079
G1 X103.957 Y81.811 E39.16283
G1 X105.244 Y82.139 E39.30486
G1 X106.506 Y82.559 E39.44695
G1 X107.748 Y83.075 E39.59077
G1 X108.921 Y83.662 E39.73096
G1 X110.064 Y84.340 E39.87300
G1 X111.155 Y85.098 E40.01503
G1 X112.190 Y85.932 E40.15707
G1 X113.163 Y86.837 E40.29911
G1 X114.068 Y87.810 E40.44114
G1 X114.902 Y88.845 E40.58318
G1 X115.660 Y89.936 E40.72527
G1 X116.346 Y91.094 E40.86908
G1 X116.933 Y92.267 E41.00928
G1 X117.441 Y93.495 E41.15131
G1 X117.861 Y94.756 E41.29335
G1 X118.189 Y96.043 E41.43538
G1 X118.425 Y97.351 E41.57742
G1 X118.567 Y98.672 E41.71946
G1 X118.615 Y100.000 E41.86149
G1 X118.568 Y101.311 E42.00169
G1 X118.425 Y102.649 E42.14550
G1 X118.189 Y103.957 E42.28765
G1 X117.855 Y105.261 E42.43146
G1 X117.441 Y106.505 E42.57166
G1 X116.933 Y107.733 E42.71369
G1 X116.338 Y108.921 E42.85573
G1 X115.660 Y110.064 E42.99776
G1 X114.902 Y111.155 E43.13980
G1 X114.068 Y112.190 E43.28184
G1 X113.204 Y113.119 E43.41746
G1 X112.657 Y112.657 F4200.000
G1 X111.722 Y113.528 E43.55404 F1800.000
G1 X110.727 Y114.330 E43.69062
G1 X109.677 Y115.059 E43.82723
G1 X108.564 Y115.718 E43.96558
G1 X107.436 Y116.283 E44.10037
G1 X106.255 Y116.772 E44.23695
G1 X105.043 Y117.175 E44.37353
G1 X103.805 Y117.491 E44.51011
G1 X102.547 Y117.718 E44.64670
G1 X101.277 Y117.855 E44.78328
G1 X100.000 Y117.900 E44.91986
G1 X98.723 Y117.855 E45.05645
G1 X97.453 Y117.718 E45.19303
G1 X96.195 Y117.491 E45.32961
G1 X94.957 Y117.175 E45.46619
G1 X93.745 Y116.772 E45.60278
G1 X92.564 Y116.283 E45.73936
G1 X91.421 Y115.711 E45.87594
G1 X90.322 Y115.059 E46.01252
G1 X89.273 Y114.330 E46.14911
G1 X88.278 Y113.528 E46.28569
G1 X87.343 Y112.657 E46.42227
G1 X86.472 Y111.722 E46.55886
G1 X85.670 Y110.727 E46.69544
G1 X84.941 Y109.677 E46.83204
G1 X84.282 Y108.564 E46.97040
G1 X83.717 Y107.436 E47.10518
G1 X83.228 Y106.255 E47.24177
G1 X82.825 Y105.043 E47.37837
G1 X82.506 Y103.788 E47.51673
G1 X82.282 Y102.547 E47.65151
G1 X82.145 Y101.277 E47.78811
G1 X82.100 Y99.983 E47.92647
G1 X82.145 Y98.723 E48.06125
G1 X82.282 Y97.453 E48.19784
G1 X82.509 Y96.195 E48.33442
G1 X82.825 Y94.957 E48.47100
G1 X83.228 Y93.745 E48.60758
G1 X83.717 Y92.564 E48.74419
G1 X84.298 Y91.407 E48.88255
G1 X84.941 Y90.322 E49.01733
G1 X85.670 Y89.273 E49.15391
G1 X86.472 Y88.278 E49.29051
G1 X87.355 Y87.331 E49.42887
G1 X88.278 Y86.472 E49.56365
G1 X89.273 Y85.670 E49.70024
G1 X90.322 Y84.941 E49.83682
G1 X91.421 Y84.289 E49.97340
G1 X92.564 Y83.717 E50.10998
G1 X93.745 Y83.228 E50.24657
G1 X94.957 Y82.825 E50.38315
G1 X96.195 Y82.509 E50.51973
G1 X97.453 Y82.282 E50.65634
G1 X98.740 Y82.145 E50.79469
G1 X100.000 Y82.100 E50.92948 F1800.000
G1 X101.277 Y82.145 E51.06606
G1 X102.547 Y82.282 E51.20264
G1 X103.805 Y82.509 E51.33922
G1 X105.043 Y82.825 E51.47581
G1 X106.256 Y83.228 E51.61241
G1 X107.451 Y83.725 E51.75077
G1 X108.579 Y84.289 E51.88555
G1 X109.678 Y84.941 E52.02213
G1 X110.727 Y85.670 E52.15872
G1 X111.722 Y86.472 E52.29530
G1 X112.657 Y87.343 E52.43188
G1 X113.528 Y88.278 E52.56846
G1 X114.330 Y89.273 E52.70505
G1 X115.059 Y90.323 E52.84165
G1 X115.718 Y91.436 E52.98001
G1 X116.283 Y92.564 E53.11479
G1 X116.772 Y93.744 E53.25137
G1 X117.175 Y94.957 E53.38796
G1 X117.491 Y96.195 E53.52454
G1 X117.718 Y97.453 E53.66112
G1 X117.855 Y98.723 E53.79770
G1 X117.900 Y100.000 E53.93429
G1 X117.855 Y101.260 E54.06907
G1 X117.718 Y102.547 E54.20743
G1 X117.491 Y103.805 E54.34405
G1 X117.170 Y105.059 E54.48241
G1 X116.772 Y106.255 E54.61719
G1 X116.283 Y107.436 E54.75377
G1 X115.711 Y108.579 E54.89036
G1 X115.059 Y109.678 E55.02694
G1 X114.330 Y110.727 E55.16352
G1 X113.528 Y111.722 E55.30011
G1 X112.698 Y112.613 E55.43028
G1 X112.756 Y113.045 F4200.000
G1 X115.825 Y115.921 F4200.000
G1 X115.158 Y116.569 E55.52976 F1800.000
G1 X114.150 Y117.438 E55.67202
G1 X113.092 Y118.246 E55.81428
G1 X111.988 Y118.989 E55.95654
G1 X110.842 Y119.666 E56.09880
G1 X109.658 Y120.274 E56.24106
G1 X108.440 Y120.810 E56.38332
G1 X107.192 Y121.274 E56.52558
G1 X105.919 Y121.662 E56.66784
G1 X104.639 Y121.972 E56.80859
G1 X103.315 Y122.210 E56.95243
G1 X101.994 Y122.368 E57.09461
G1 X100.680 Y122.446 E57.23537
G1 X99.334 Y122.446 E57.37921
G1 X98.006 Y122.368 E57.52139
G1 X96.684 Y122.210 E57.66365
G1 X95.374 Y121.975 E57.80591
G1 X94.081 Y121.662 E57.94817
G1 X92.808 Y121.274 E58.09043
G1 X91.560 Y120.810 E58.23269
G1 X90.342 Y120.274 E58.37495
G1 X89.158 Y119.666 E58.51721
G1 X88.012 Y118.989 E58.65947
G1 X86.908 Y118.246 E58.80173
G1 X85.850 Y117.438 E58.94399
G1 X84.842 Y116.569 E59.08625
G1 X83.887 Y115.642 E59.22851
G1 X82.989 Y114.660 E59.37077
G1 X82.150 Y113.627 E59.51303
G1 X81.375 Y112.545 E59.65529
G1 X80.664 Y111.420 E59.79755
G1 X80.021 Y110.254 E59.93981
G1 X79.449 Y109.053 E60.08207
G1 X78.949 Y107.819 E60.22433
G1 X78.523 Y106.559 E60.36651
G1 X78.169 Y105.261 E60.51035
