; generated by Slic3r 1.2.9 on 2018-09-27 at 00:36:23

; external perimeters extrusion width = 0.40mm
; perimeters extrusion width = 0.67mm
; infill extrusion width = 0.67mm
; solid infill extrusion width = 0.67mm
; top infill extrusion width = 0.67mm
; support material extrusion width = 0.40mm

M127
G28 ; home all axes
G1 Z5 F5000 ; lift nozzle
M104 S190 ; set extruder temp
M140 S60 ; set bed temp
M190 S60 ; wait for bed temp
M109 S190 ; wait for extruder temp

M73 P0
G1 Z0.400 F7800.000
G1 E-2.00000 F2400.00000
M103 ; extruder off
G1 X65.506 Y82.648 F7800.000

M101 ; extruder on
G1 E0.00000 F2400.00000
G1 X42 Y81.771 E0.27422 F1800.000
G1 X69.085 Y81.614 E0.44655
G1 X76.257 Y81.614 E1.29835

M101 ; extruder on
G1 X131.216 Y81.715 E7.82556 F1800.000
G1 X133.490 Y82.116 E8.09978
G1 X135.493 Y83.264 E8.37401
G1 X136.989 Y85.023 E8.64823
G1 X137.801 Y87.184 E8.92246
G1 X137.918 Y88.429 E9.07097
G1 X137.918 Y111.724 E11.83754
G1 X137.521 Y113.998 E12.11177
G1 X136.377 Y116.004 E12.38599
G1 X134.621 Y117.503 E12.66022
G1 X132.461 Y118.319 E12.93444
G1 X131.204 Y118.438 E13.08441
G1 X78.262 Y118.438 E19.37208
G1 X75.987 Y118.041 E19.64630
G1 X73.981 Y116.897 E19.92053
G1 X72.011 Y114.176 E20.31955
G1 X62.834 Y90.780 E23.30420
G1 X62.373 Y88.518 E23.57842
G1 X62.706 Y86.233 E23.85265
G1 X63.793 Y84.196 E24.12687
G1 X65.462 Y82.688 E24.39397
G1 E22.39397 F2400.00000

M103 ; extruder off
M127
M104 S0 ; turn off temperature
G28 X0  ; home X axis
M84     ; disable motors

M73 P100
; filament used = 1722.8mm (4.1cm3)

; avoid_crossing_perimeters = 1
; bed_shape = 0x0,200x0,200x200,0x200
; bed_temperature = 0
; before_layer_gcode = 
; bridge_acceleration = 0
; bridge_fan_speed = 100
; brim_width = 0
; complete_objects = 0
; cooling = 1
; default_acceleration = 0
; disable_fan_first_layers = 3
; duplicate_distance = 6
; end_gcode = M104 S0 ; turn off temperature\nG28 X0  ; home X axis\nM84     ; disable motors\n
; extruder_clearance_height = 20
; extruder_clearance_radius = 20
; extruder_offset = 0x0
; extrusion_axis = E
; extrusion_multiplier = 1
; fan_always_on = 0
; fan_below_layer_time = 60
; filament_colour = #FFFFFF
; filament_diameter = 1.75
; first_layer_acceleration = 0
; first_layer_bed_temperature = 0
; first_layer_extrusion_width = 200%
; first_layer_speed = 30
; first_layer_temperature = 205
; gcode_arcs = 0
; gcode_comments = 0
; gcode_flavor = makerware
; infill_acceleration = 0
; infill_first = 0
; layer_gcode = 
; max_fan_speed = 100
; max_print_speed = 80
; max_volumetric_speed = 0
; min_fan_speed = 35
; min_print_speed = 10
; min_skirt_length = 0
; notes = 
; nozzle_diameter = 0.4
; only_retract_when_crossing_perimeters = 1
; ooze_prevention = 0
; output_filename_format = [input_filename_base].gcode
; perimeter_acceleration = 0
; post_process = 
; pressure_advance = 0
; resolution = 0
; retract_before_travel = 2
; retract_layer_change = 0
; retract_length = 2
; retract_length_toolchange = 10
; retract_lift = 0
; retract_restart_extra = 0
; retract_restart_extra_toolchange = 0
; retract_speed = 40
; skirt_distance = 6
; skirt_height = 1
; skirts = 1
; slowdown_below_layer_time = 5
; spiral_vase = 0
; standby_temperature_delta = -5
; start_gcode = G28 ; home all axes\nG1 Z5 F5000 ; lift nozzle\n
; temperature = 200
; threads = 2
; toolchange_gcode = 
; travel_speed = 130
; use_firmware_retraction = 0
; use_relative_e_distances = 0
; use_volumetric_e = 0
; vibration_limit = 0
; wipe = 0
; z_offset = 0
; dont_support_bridges = 1
; extrusion_width = 0
; first_layer_height = 0.4
; infill_only_where_needed = 0
; interface_shells = 0
; layer_height = 0.2
; raft_layers = 0
; seam_position = aligned
; support_material = 1
; support_material_angle = 0
; support_material_contact_distance = 0.2
; support_material_enforce_layers = 0
; support_material_extruder = 1
; support_material_extrusion_width = 0
; support_material_interface_extruder = 1
; support_material_interface_layers = 3
; support_material_interface_spacing = 0
; support_material_interface_speed = 100%
; support_material_pattern = pillars
; support_material_spacing = 5
; support_material_speed = 60
; support_material_threshold = 0
; xy_size_compensation = 0
; bottom_solid_layers = 3
; bridge_flow_ratio = 1
; bridge_speed = 60
; external_fill_pattern = rectilinear
; external_perimeter_extrusion_width = 0
; external_perimeter_speed = 50%
; external_perimeters_first = 0
; extra_perimeters = 1
; fill_angle = 45
; fill_density = 10%
; fill_pattern = honeycomb
; gap_fill_speed = 20
; infill_every_layers = 10
; infill_extruder = 1
; infill_extrusion_width = 0
; infill_overlap = 15%
; infill_speed = 80
; overhangs = 1
; perimeter_extruder = 1
; perimeter_extrusion_width = 0
; perimeter_speed = 60
; perimeters = 3
; small_perimeter_speed = 15
; solid_infill_below_area = 70
; solid_infill_every_layers = 0
; solid_infill_extruder = 1
; solid_infill_extrusion_width = 0
; solid_infill_speed = 20
; thin_walls = 1
; top_infill_extrusion_width = 0
; top_solid_infill_speed = 15
; top_solid_layers = 3
